/* XPM */
static const char *Y29pbg__[] = {
/* columns rows colors chars-per-pixel */
"50 50 235 2 ",
"   c #663700",
".  c #6A3600",
"X  c #6D3A00",
"o  c #673A00",
"O  c #703C02",
"+  c #7C4A0B",
"@  c #774406",
"#  c #7C4D2E",
"$  c #724A27",
"%  c #78522E",
"&  c #7D5332",
"*  c #775537",
"=  c #744C2C",
"-  c #7B5B42",
";  c #81491D",
":  c #865818",
">  c #935B17",
",  c #92530C",
"<  c #8B641E",
"1  c #99641B",
"2  c #834B23",
"3  c #854C2A",
"4  c #944E25",
"5  c #86532D",
"6  c #8C532C",
"7  c #8E5A29",
"8  c #94542B",
"9  c #9B562B",
"0  c #9B5B27",
"q  c #835532",
"w  c #865B3C",
"e  c #875935",
"r  c #9A5C36",
"t  c #854C31",
"y  c #A35E31",
"u  c #A15E2A",
"i  c #966422",
"p  c #9B6C29",
"a  c #89623D",
"s  c #9D633B",
"d  c #A66C2B",
"f  c #A8702E",
"g  c #AA6232",
"h  c #AB6A3A",
"j  c #AB663C",
"k  c #B36B3C",
"l  c #B66B36",
"z  c #AC7632",
"x  c #AC7B35",
"c  c #B77A3C",
"v  c #B2702B",
"b  c #D7772D",
"n  c #CA753C",
"m  c #DD7634",
"M  c #DD7C35",
"N  c #DF753C",
"B  c #D67C3C",
"V  c #DC7B3D",
"C  c #D1763D",
"Z  c #C46F38",
"A  c #E57634",
"S  c #E87434",
"D  c #E47B35",
"F  c #E97935",
"G  c #E3763B",
"H  c #EB763B",
"J  c #E57A3A",
"K  c #EA7A3B",
"L  c #EB7535",
"P  c #845E47",
"I  c #866448",
"U  c #94664A",
"Y  c #8C6C54",
"T  c #966D52",
"R  c #967458",
"E  c #B16D40",
"W  c #B77744",
"Q  c #AE7450",
"!  c #9A7B64",
"~  c #9B7A69",
"^  c #A77E62",
"/  c #C47541",
"(  c #C67944",
")  c #CC7D44",
"_  c #C57B4A",
"`  c #CA7741",
"'  c #D57B44",
"]  c #DB7D42",
"[  c #D37E48",
"{  c #D97846",
"}  c #C57B54",
"|  c #EB7542",
" . c #E47C43",
".. c #EB7B43",
"X. c #E77A45",
"o. c #F07E40",
"O. c #DA823B",
"+. c #E3813E",
"@. c #E88139",
"#. c #B88844",
"$. c #BD9750",
"%. c #9D8675",
"&. c #9B8C70",
"*. c #A38469",
"=. c #A38976",
"-. c #A7947B",
";. c #B1937F",
":. c #CE8041",
">. c #C68C4C",
",. c #D48344",
"<. c #DC8244",
"1. c #D6834C",
"2. c #DE8A4A",
"3. c #D88748",
"4. c #C6944E",
"5. c #CD8857",
"6. c #D78954",
"7. c #CA9A57",
"8. c #D99957",
"9. c #D7924D",
"0. c #E18243",
"q. c #EB8242",
"w. c #E38D4C",
"e. c #E8934F",
"r. c #E49352",
"t. c #EA9553",
"y. c #ED9B5A",
"u. c #E79B57",
"i. c #F19A57",
"p. c #D3A35D",
"a. c #EBA15D",
"s. c #F2A35E",
"d. c #DA9A6E",
"f. c #E49A69",
"g. c #DCA263",
"h. c #DAAB66",
"j. c #EDA666",
"k. c #ECAA66",
"l. c #F6A967",
"z. c #F3B26D",
"x. c #FCB26E",
"c. c #F3B165",
"v. c #ECB673",
"b. c #FEB473",
"n. c #FCBB74",
"m. c #FEBD7D",
"M. c #F6BE7B",
"N. c #F9AF72",
"B. c #FFC47C",
"V. c #A28F81",
"C. c #AE9C8C",
"Z. c #AC9684",
"A. c #B39A88",
"S. c #AEA18E",
"D. c #B7A28D",
"F. c #BAA493",
"G. c #BCAD9C",
"H. c #B9A896",
"J. c #BBB39F",
"K. c #BCB4A5",
"L. c #BDAFA6",
"P. c #C3AE99",
"I. c #C5B6A8",
"U. c #C9BDB3",
"Y. c #CAB3A5",
"T. c #BEC4B8",
"R. c #FFC583",
"E. c #FFCB84",
"W. c #FFCB8A",
"Q. c #F5C982",
"!. c #FFD28B",
"~. c #FFD590",
"^. c #CBC5BB",
"/. c #CAC9BD",
"(. c #C5C1B6",
"). c #D5C3B7",
"_. c #C7C5AE",
"`. c #AEC8C9",
"'. c #B5CBCD",
"]. c #BCCCCE",
"[. c #B8C6CC",
"{. c #BBD0CF",
"}. c #B7D1CE",
"|. c #B5CDD5",
" X c #BCCED4",
".X c #B7CEDA",
"XX c #BBCEDA",
"oX c #B8C5D4",
"OX c #B5D1D5",
"+X c #BCD1D5",
"@X c #B6D1DC",
"#X c #BCD1DB",
"$X c #BCD9DD",
"%X c #B8D8D5",
"&X c #AED1D4",
"*X c #B6D3E3",
"=X c #BED4E1",
"-X c #B6D8E1",
";X c #BACCE0",
":X c #C5C5C2",
">X c #C4CBC5",
",X c #CCCCC6",
"<X c #C2CDCE",
"1X c #C4CCCD",
"2X c #CACDCA",
"3X c #C5C6C7",
"4X c #D3CDC5",
"5X c #D2CECA",
"6X c #C7D1C9",
"7X c #D2D2CB",
"8X c #C1CED2",
"9X c #C5CFD1",
"0X c #C1CED5",
"qX c #C2CED4",
"wX c #CACDD4",
"eX c #C2CDDA",
"rX c #C2CCDA",
"tX c #C9CADA",
"yX c #C2D0D2",
"uX c #C2D1D6",
"iX c #C3D2D5",
"pX c #CAD2D5",
"aX c #C1D2D9",
"sX c #C4D3D9",
"dX c #C3D2DA",
"fX c #CBD4DB",
"gX c #CBD8DF",
"hX c #C3DBDD",
"jX c #D1D9DE",
"kX c #D3D7D7",
"lX c #C3CCE1",
"zX c #C2D3E3",
"xX c #CCDAE0",
"cX c #C1D8E6",
"vX c #D3DBE1",
/* pixels */
"@X@X@X.X.X X X X+XOXOXOX+X+XXXXX X X X X|.|..X.X.X.X|.|.|. X+X+X+XiX0X9X<X<X9XpXiXiXiX X XaXsXsXsXsX",
"@X@X@X.X.X X X X+XOXOX+X+X+XXXXX X X X X X X X X X X X X X X+X+X#X#XaXiX8X9X9XiXsXaXaXiX+XsXsXsXsXsX",
"+X X X X X X X X X@X@X+X+XXXXX X X X X X X X8X8X8X X X]. X X+X+X#X#X#X+X+X+X#X#X#XdXdX#XaXaXiX0XiXiX",
"1X1X1X8X X X X.X.X#X#X#XXXXX X X X X X X X8X0X8X8X X X X X X+X+X+X@X@X@X@X@X#X#X$X=XdXaXaXiXiX8XiXiX",
"2X<X<X8X X X.X.X.XXXXXXXXX X X X X X X XXXXXXX+X X X X X X X+X+X+X+X#X#X@X@X#X#X=X=XdXaXaXsXsXiXaXaX",
"<X<X8X X X X.X.XXXXXeXeX0X0X X X X X X#X@X@X#X#X#X.X.X.X+X X+X+XiXiXiX+X+X X.X@X#X#X#X+X XaXiXiXaXaX",
" X X X@X@X@X.X.XXXeXrXrX0X0X X+X X X X+X@X#X@X@X@X@X.X.X X+XyX1X<XyXiXiX8X X X X X X X X X#X#X#XaXiX",
".X.X@X@X@X@X.X.XeXeXrXrX0X+XOXOX X X X#X@X#X#X@X.X#X.X+X+X+XyX1X1X<XiXiX8X8X8X8X8XiXiXiX+XaX#X#X#XiX",
"@X@X@X@X@XOX X XeXrXrXfXaX+XOXOX|.@X#X#X.X X.X#X X X#X+X X X+X#XaXoX XaX+X X0XiX9X9X9XiXiXaX#X#XaXaX",
"@X@X@X@X+XOX X X XfXeXoX#X=X@XOX@X@X X[.].<X2X3X2X>X3X2X1X8X0X XoXXX#X#X#XdXaX X9XyXyXyXaXaX#X#XaXaX",
".X@X+X X].].]. XaXoX#XzX.X|.OX X X1X2X4X^.I.F.D.;.Z.D.G.U.:X2X1X0XXX.X#X=X.XXXdXiXiXyXiXaXaX#X#XaXsX",
"XX X X].1X].]. X X#X.X.XaXsX8X2X4XU.F.! I q 5 2 2 6 e & * I %.F.^.wXqX X#XzX=X#XaXiXiXiXaXaXaXaXsXsX",
" X X8X8X1X8X X X|.|.$XsX1X,X^.Y.^ e ; 9 c Z n <.] V ' ) _ E 9 2 P Z.U.5XwX0XaXaXaXaXaXiXiXiXaXaXsXsX",
" X X0X8X8X0X X X@X@X X].4X).;.w 9 l 1.<.] J J F F A A N V ] ] 1.h 3 w A.).2X0XaX#X#XaXaXaXiXiXiXaXaX",
".XXXXXeXeXXX.X@X@X+X].,XY.T 2 k ' ] ] V V  . .G K J J K K K G m q.B l 6 Y I.kX[.XX#X#X#XaXaXiXiXaXaX",
"XXXXXXeXXXXX.X.X@X'.7XH.& 8 6.'  .J J J G G G  .J J J J F F K F F F 0.` 6 I H.7X8XXXXXeXaXaXiXsXaXaX",
"lXXX X X X X#X.X X6XH.& g <.V M J J J J J J J J J J J J J J J J K J J V ] g e H.,X].fXeXeXsX0XiXaXaX",
"XXoXiXiX X X#X#X6XJ.e j ' J J D A J J J J J J J J J J J J J J J K J K K J C h a G.5XrXoXzX#X+XsXiXaX",
"OXOXiX X.X=X.X1XU.T 4 { X.G +.J J J J J J J J J J J J J J J J J J J G .. . .' 9 w ).1X#XcX|.+X{.iXaX",
"&X%X X X#X@X|.,X*.4 { .. .N +.J J K K K K K K K K K K K K K K J m @.N  . .N q.] 9 R 7X'.@X@X+X+X+XaX",
"%XOX[.sX.X|.yXJ.2 Z K H | X.G G J K J J J J K J J J J J J J K K A q. .{  . .F K C 2 D.kX[.#X0XiX0X X",
" XoX XiX|.iX(.I 0 0.F H | ..J J J J J J J J J J J J J J J K J K F A 0.] V J S S m l w G.2XiXsXqX0X X",
"tXrX+X].>XK.*.; :.M q.H | H K F A J J J J J J J J J J J J J J J H A J 0.V J A K q.C 9 & H.7XwXeX X X",
"tXtX X].,X=.; n O.D G J | H A F A J J J J J J J J J J J J J J J H K J M J J A J F  .[ j - U.3XfXXX X",
"lXXX.XiXL.q l J J D  .X.| F D @.A J J J J J G G J J J J J J J J K F M D D A J ..K G  ._ q S.1X#XXX X",
"zXzX*X[.C.3 B @.D J  . ...o.D b J K K J J J J J J J J J J A J K K K D D J K ..G ....V 6.e -.pX|. X X",
"|.@X.XsXV.Q r.b M +. .G S K +.+.G J J J G G G G G G J J K J J J A F K A G  .X. .G V 3.g.a H.>X$X X X",
"%X$X.XqXH.q j.i.O.B V  .K G V <.J  . .J V V V <.0.V V V V G J J q.J F J ] ] ] ] <.r.m.7.$ P.2X X X X",
"+X|.aXwXI.$ W B.c.u.3.] J V ] ,.B B <.<.2.r.t.y.y.y.y.t.t.w.<.V B V  .0.<.1.r.j.n.B.8.: % A.2X]. X X",
"OX XaX1X=.& 7 f n.B.B.b.l.y.u.u.j.l.b.m.R.E.W.W.W.W.W.W.W.R.m.b.x.x.x.l.N.m.R.E.c.v > Q a %.:XiX X X",
"+XhX].3XC.w d.d , x p.M.R.W.!.!.W.R.M.v.g.4.#.x d f z c >.g.v.M.E.E.R.R.R.k.#.1 , v 6.5.# G.<X'. X X",
"+X'.{.6XH.& Q f.8.c 1 > d z x x p i : @ X X     o X X X X X @ + : < p i > > z 4.k.8.6.r I U.+X@X X X",
"+X+X`.2X4X~ t } 6.s.x.c.8.#.#.#.i + . . . . . O . . . . . . X X < $.h.h.v.R.R.j.6.( 8 r P.,X`.-X X X",
"'.OX+XyX2XL.! # E ( r.l.B.E.!.~.W.h.c 7 + @ . . O . . O @ > #.g.Q.!.!.E.E.z.8.5.h 2 T Y.4X].@X&X X X",
"#X|.XX XoXpXT.&.% 7 l ) w.s.n.B.E.!.~.E.M.h.p.7.4.4.7.h.v.B.W.!.E.E.B.l.e.2.c 6 * C.:X1X X XoXaX X X",
"#X.XXXXX.X|.{.>X_.*.5 y / :.,.9.a.c.z.n.B.E.E.E.!.!.!.E.E.B.n.x.k.8.3.:.( y 6 R I.2X X|.=X=XoXrX X X",
"oXXX.X#X@X|.oX].>X/.G.R & 6 h / n ,.,.2.e.t.e.i.i.t.e.w.w.w.2.<.,.( _ s # Y C.4X2XyXsX XoXXXzXXX X X",
"0X X+XOX|..X#XXX X9X6X/.G.*.U 6 8 u l W ( ` ` [ [ [ [ ) ) / l g 9 6 3 Y G.,X1X].+X X XaXdXXXXX.X X X",
"0X X+XiX].'. XoXoX X X0XwX,XU.I.;.! I * & q q q 3 5 q q % * I Y =.A.I.4X2X[. X|.$X|.+X$X X XaXoX X X",
"#XsX X].yXiX[.+X.X.X.XXXXXfXpX<X2X/.^.(.I.G.F.C.C.C.C.H.K.I._.^.:XwX1X1X+X X@XOX|.@X@X|.+X+X X X X X",
"*X#XeX0X1X1X].OXOX@X#XXXXXXX X X X X XiXyX1X>X>X3X>X2X2X<X<X<X1XqXXX X+XOX}.OX+X|..X.X.X.X|.OXOX X X",
"*X*X#X0X9X1X].OXOX@X#X#X#XXX X X.X.X.X#X+X+X X{.{.{. X X X X XoX.X.X@X+X+XOX X X.X.X;X.X.X.X|.|. X X",
"*X*X#X#X0XqXqX0XXX@X@X@X#X+X8X1X X X X X X X X+X].].].].]. X X XOXOX+X#XeXrXrXXXXXXX.X.X.X.XXXXX X X",
"@X@X@X#X0XqXqXqXeX#X@X$X$X+XiXiX X X X X X X8XiX8X8X8X X X+X+X XOXOX XeXrXrXrXrXeXeXXX X XeXrXrX X X",
"+X+X+X X X0X0XrXtXtXfXdXsX$X+X+X+X X X X XrXrXrXrXsXqX0XiXaX+X XOX+X XXXeXeXeXeXeXeXeX0X0X0XqXqX X X",
"8X X X X X XeXeXrXrXrXsXaXiX+X+X+X+XeXeXaXfXfXfXfXfXfXsXsXsX+X X X X X X X XXX#X XeX0X0X XqX8X0X0X X",
"XXXXXX X XXXXX+X X0X0XqXiXqXrXpXqXpXpXpXfXfXxXgXfXgXfXpXpXpXiX9XqX0XiX+X X X X X X X XXX X X.X.X#X+X",
"#XXXXXXX.XXX X+X+XiXiX9XqXwXpXwXwXpXfXpXfXxXxXxXfXfXsXsXpXpXpXpXqXqXiXiX+X].].]. X X+XXX@X.X@X@X X X",
"XXXXXX X X X X X0X0XqXiXiXwXpXpXpXfXfXfXfXjXvXjXvXjXjXjXgXfXfXfXpXpXiXiXiXiX0X X+XaXaX X+X#X#X+X0XiX",
"XXXXXX X X X0X0X0X0XqXiXpXpXpXfXfXfXfXfXjXjXvXvXvXvXvXvXvXjXjXgXgXfXfXfXfXsXsXaXaXsXsXaXaXaXaXaXsXsX"
};
