/* XPM */
static char *_1f1029fe1d34d7dc8919680b6f8d7f7mUtfExm4mXElnd3D[] = {
/* columns rows colors chars-per-pixel */
"50 50 245 2 ",
"   c #180602",
".  c #0A1305",
"X  c #191505",
"o  c #171A17",
"O  c #0E0900",
"+  c #250804",
"@  c #271509",
"#  c #37150A",
"$  c #281717",
"%  c #361B16",
"&  c #332D0F",
"*  c #272219",
"=  c #362F14",
"-  c #091E31",
";  c #2D1C2E",
":  c #072C2E",
">  c #392927",
",  c #3B372A",
"<  c #3A3938",
"1  c #292E30",
"2  c #431D15",
"3  c #45301A",
"4  c #482A26",
"5  c #562C25",
"6  c #483629",
"7  c #59352A",
"8  c #483834",
"9  c #573A34",
"0  c #643B30",
"q  c #2A473C",
"w  c #554836",
"e  c #4D462D",
"r  c #694438",
"t  c #784A3C",
"y  c #695731",
"u  c #6E643B",
"i  c #4E421C",
"p  c #28374A",
"a  c #163844",
"s  c #4A3941",
"d  c #194245",
"f  c #164F55",
"g  c #0B4854",
"h  c #314E54",
"j  c #125167",
"k  c #2D5768",
"l  c #325B6B",
"z  c #156476",
"x  c #316876",
"c  c #4A4949",
"v  c #594946",
"b  c #4F544F",
"n  c #754843",
"m  c #7A5647",
"M  c #675A58",
"N  c #6E554D",
"B  c #55695C",
"V  c #6A635E",
"C  c #746658",
"Z  c #706B4E",
"A  c #6C6563",
"S  c #776866",
"D  c #797578",
"F  c #736F71",
"G  c #5A6A69",
"H  c #89503D",
"J  c #BB613F",
"K  c #B05B3E",
"L  c #C66E3C",
"P  c #87594B",
"I  c #8A5C55",
"U  c #915D55",
"Y  c #8B5246",
"T  c #986757",
"R  c #8D6F54",
"E  c #A86348",
"W  c #BB6A49",
"Q  c #BC734C",
"!  c #BB7648",
"~  c #A56957",
"^  c #BA6D56",
"/  c #AB735B",
"(  c #BC7355",
")  c #B5735C",
"_  c #BD735C",
"`  c #B97859",
"'  c #AD7949",
"]  c #877968",
"[  c #987464",
"{  c #817575",
"}  c #93736D",
"|  c #A76D66",
" . c #AC7567",
".. c #B37464",
"X. c #BA7564",
"o. c #B87867",
"O. c #B8756D",
"+. c #C56C4C",
"@. c #CB6D4D",
"#. c #C66A47",
"$. c #D16D4D",
"%. c #D1674D",
"&. c #C5714D",
"*. c #CC724D",
"=. c #C77446",
"-. c #D1734C",
";. c #C56D52",
":. c #CC6D52",
">. c #CB6D5A",
",. c #C76C5A",
"<. c #D26C53",
"1. c #D56E56",
"2. c #C57254",
"3. c #CB7253",
"4. c #C3735C",
"5. c #CC745A",
"6. c #C47C52",
"7. c #D27253",
"8. c #D1725A",
"9. c #D87152",
"0. c #CB6D62",
"q. c #C57565",
"w. c #C47767",
"e. c #C37970",
"r. c #7A867A",
"t. c #8D835C",
"y. c #B5855A",
"u. c #8D8B6B",
"i. c #A49775",
"p. c #AC8D71",
"a. c #C48359",
"s. c #C78758",
"d. c #D58B55",
"f. c #C98C62",
"g. c #D69B6A",
"h. c #CE9C75",
"j. c #D7A577",
"k. c #D4A874",
"l. c #E8AE76",
"z. c #176B89",
"x. c #1E7689",
"c. c #0B7897",
"v. c #197C9A",
"b. c #0D6F94",
"n. c #277B97",
"m. c #2D7388",
"M. c #0D7EA8",
"N. c #157DA6",
"B. c #0B7EB3",
"V. c #257FA7",
"C. c #497686",
"Z. c #997C81",
"A. c #09849A",
"S. c #198399",
"D. c #2D8399",
"F. c #0685A9",
"G. c #1783A8",
"H. c #048BB4",
"J. c #0884B3",
"K. c #1386B6",
"L. c #0791AD",
"P. c #2382A0",
"I. c #728992",
"U. c #6A9CAA",
"Y. c #868687",
"T. c #969385",
"R. c #969895",
"E. c #8E8E96",
"W. c #A69B97",
"Q. c #B59C8E",
"!. c #A6A588",
"~. c #B5A989",
"^. c #B1AA93",
"/. c #95AAAE",
"(. c #A8A7A9",
"). c #B2A8AE",
"_. c #B7B8BA",
"`. c #AAB0B4",
"'. c #9AA1A0",
"]. c #CAB798",
"[. c #D6BB93",
"{. c #D2AF90",
"}. c #E8B889",
"|. c #E7B38D",
" X c #C8B7B4",
".X c #BFC5B1",
"XX c #D7C99B",
"oX c #D6CC97",
"OX c #E8C98C",
"+X c #F3C98C",
"@X c #E2CB9B",
"#X c #EBC995",
"$X c #F4CD93",
"%X c #F9C997",
"&X c #EBD49C",
"*X c #E9D699",
"=X c #F5D39C",
"-X c #F6D395",
";X c #ECD08C",
":X c #D8C9A6",
">X c #D4C6B8",
",X c #D2CEAD",
"<X c #E7CEA6",
"1X c #F3CDA8",
"2X c #E9D5A7",
"3X c #E7D5B3",
"4X c #F2D4AD",
"5X c #96BCC8",
"6X c #B8BEC3",
"7X c #C7BFC7",
"8X c #B6CCCD",
"9X c #BBCDCE",
"0X c #BBC4C8",
"qX c #B5CCD3",
"wX c #BCCDD4",
"eX c #BCCDDA",
"rX c #B6CBD7",
"tX c #BCD2D4",
"yX c #B6D1DC",
"uX c #BDD2DA",
"iX c #B7D5D5",
"pX c #ACCACF",
"aX c #B4D3E7",
"sX c #C5C7CB",
"dX c #C2CDD5",
"fX c #C2CDDB",
"gX c #CACBD6",
"hX c #C2D2D5",
"jX c #CAD2D4",
"kX c #C3D3DB",
"lX c #C9D3DB",
"zX c #D1D6D8",
"xX c #D1D0CB",
"cX c #F3E7DE",
"vX c #C7D7E2",
"bX c #D2D5E2",
"nX c #E0DEE1",
"mX c #D8ECEF",
"MX c #F8EEE9",
"NX c #FBFBF5",
"BX c #F4FDFE",
"VX c #FEFDFC",
"CX c #F8F8F5",
"ZX c #EEF1EB",
"AX c #E8DAD9",
/* pixels */
"eXtXtXtXqXtXeXeXeXlXdXwXtXqXaXaXyXwXeXdX6X`.E.{ F V 8 < M F D '.0X9XkXvXeXeXbXeXuXiXiX8XiXlXgXbXlXkX",
"eXtXtXtXwXwXeXeXfXeXwX9XkXvXyXrXwXdX_.Y.c $ $ @ + % % % $ +   $ < Y.0X9XfXvXrXlXtXiXiX8XtXlXgXlXkXkX",
"eXeXwXwXeXeXeXeXuXkXwXtXtXwXwXjX(.V * @ 4 r m P T T |  .| ~ U n 4 @ v (.gXkXwXeXkXuXkXtXtXkXdXkXdXhX",
"wXeXeXeXeXeXeXeXwXtXtXtXhXjX).M # 3 7 m T ~ ~ E ^ ^ ^ 4.4.q.q.X.| P # @ V `.lXkXkXuXkXkXhXdXtXhXtXhX",
"wXeXeXeXfXeXeXwXtXqXuXwX_.{ % 2 t T ) / E E E E K W :.:.;.:.3.5._ o...t # 6 R.jXkXkXfXfXlXjXtXtXkXkX",
"eXeXeXfXeXeXeXwXtXtXtX0XA % t / _ ( ^ W W W W W J +.@.@.7.*.@.@.3.2.^ X.~ 4 % Y.sXbXlXdXfXtXtXiXkXkX",
"wXeXeXfXfXeXwXtX8XhX_.v 4 U ) 4.;.8.5.#.W +.+.J #.*.*.*.&.&.*.3.3.+.3.4.q.| r @ Y.6XlXwXeXtXtXtXtXfX",
"yXeXeXfXeXeXwXqXhX0XM 4 T e.2.3.1.1.<.7.:.@.@.3.3.#.@.3.3.2.2.+.3.@.@.3.;.4...t $ E.dXkXuXuXhXhXdXdX",
"yXyXkXdXwXtXqX8XhXD 5 | q.,.:.:.:.1.1.:.:.:.:.:.:.:.:.:.:.:.:.:.:.@.@.@.:.:.4.o.n > (.kXkXuXkXkXkXkX",
"yXyXwXwXeXwX8XtX(.8 U X.5.@.@.:.:.:.:.:.:.:.:.:.:.:.:.:.1.1.<.:.:.:.@.@.$.@.:.4. .9 v 6XkXkXeXfXkXkX",
"yXuXwXtXhX9X9XsXM n X.>.<.$.@.:.:.:.3.:.:.:.:.:.@.:.:.:.<.<.<.:.:.:.@.@.@.@.<.5.w.T % Y.dXvXfXvXkXkX",
"eXuXtXtXtX8XjXR.9  .4.:.%.9.<.:.:.:.3.3.3.:.:.:.:.:.:.:.:.:.:.:.:.:.:.@.@.@.$.:.;.o.m 4 _.lXfXvXkXkX",
"wXeXuXqXwX9XsXN P ..5.<.%.$.<.:.:.@.:.3.:.@.@.+.@.@.@.+.@.&.+.:.:.:.:.@.@.@.@.:.:.^ ..5 C xX0XlXkXkX",
"dXwXuXqXuXdXW.7 ..^ :.7.@.@.:.:.:.@.:.:.:.@.:.@.:.@.;.@.+.&.&.;.:.:.:.:.@.@.@.@.:.5.^ T % W.jXkXkXkX",
"dXwXuXyXuX6XS Y _ 8.#.*.*.+.:.:.:.:.:.:.:.:.:.:.:.:.:.:.:.:.:.:.@.@.:.:.:.@.@.@.+.5.4.X.0 w 0XhXhXkX",
"wXwXuXyXwX).7 ..4.+.3.:.3.+.:.:.:.:.:.:.:.@.@.:.:.:.:.:.:.:.:.@.@.@.:.<.@.@.@.*.3.3.2.4.~ 2 D jXjXhX",
"wXeXwXdXjXM H 4.2.:.>.:.@.@.:.:.:.:.:.@.@.@.@.@.@.:.:.:.:.3.3.&.&.+.<.<.@.*.*.+.7.:.:.2._ U % (.jXhX",
"qXvX8XlX).9 / ;.3.:.>.>.$.@.:.:.:.:.@.@.@.@.@.@.:.:.:.:.:.:.@.@.&.3.1.1.@.#.@.3.:.8.<.:.( ) r 8 _.jX",
"uXuXkXdX{ r _ 2.2.2.>.>.@.@.;.;.@.@.@.@.:.:.:.:.:.:.:.8.1.1.<.<.@.:.:.:.7.3.@.:.5.>.:.8.Q ' R 3 < (.",
"uX8XlX6Xv T ( 3.3.3.:.:.@.@.&.@.@.@.:.:.:.:.:.:.:.:.:.1.<.<.%.%.@.@.3.5.3.3.&.Q 4.2.+.&.s.k.[.~., B ",
"eXfXdX(.9 o.2.@.@.:.:.:.:.:.@.:.:.:.:.:.:.:.:.:.1.:.%.<.<.<.1.9.-.=.Q ( ^ 2.6.a.s.g.l.l.+XOX@X2X!.* ",
"wXlXsX{ t _ 2.@.@.$.@.:.:.:.:.:.<.:.:.:.:.:.:.:.:.@.<.1.1.:.:.3.! a.f.h.|.|.}.+X+X-X+X-X;X*X&X2XT.o ",
"eXdXsXv Y 4.+.7.$.$.*.*.:.:.:.:.:.>.:.:.:.@.@.@.@.@.3.3.+.Q Q a.k.#X[.h.[.1X#X-X;X*XOXOX&X2XXXi., X ",
"tXdX_.4 ~ 5.3.@.$.$.*.*.:.>.:.:.:.:.:.:.@.@.@.@.@.@.&.&.( a.j.#X4X<Xm # [ 3X2X&X*XoX*X2XXXi.y i ] , ",
"uXwXY.9 ) 2.2.+.#.@.*.*.;.>.:.@.@.@.@.@.<.$.<.$.*.&.6.a.j.#X2X:X^.{ 4 4 6 ] i.i.~.~.!.u.e & R :XT., ",
"wXsXA n _ +.2.3.<.9.-.*.:.:.:.@.#.-.@.+.@.7.7.*.#.=.s.}.<X3X!.b p p ; ; o . . X @ X . . w ].2X3XC A ",
"lXsX9 T 4.3.3.3.@.$.$.@.:.:.<.$.9.9.@.3.5.2.W =.d.g.+X<X,XB : f m.m.p - k h - o X @ O e :X4X%X[.e Y.",
"sX(.5 ..( 3.:.+.$.$.$.$.:.:.@.@.@.@.+.2.( ! s.l.}.%X<X~.q d m.n.c.P.m.j m.m.j - $ O 6 ].1X%Xj.y.6 Y.",
"gX{ r ` W &.3.7.@.@.@.@.+.&.*.*.@.3.2.Q y.k.}.=X2X<Xi.1 k n.v.F.F.A.z.z.G.P.m.a * R [.#X|.f.' / , '.",
"sXv P ` ` 6.Q +.*.*.&.&.! ! ! 6.a.f.g.j.}.-X&XXX,Xr.d x n.G.F.H.F.F.b.b.G.G.n.k A 3Xj.g.Q ' y.P , 6X",
"R.e h.}.}.}.g.f.s.s.f.g.g.k.l.l.$XOX$X$X+X&X2X.XB f z v.G.F.H.H.H.F.c.N.M.G.n.k c p.a.&.&.( y.3 F jX",
"b e <X=X#X#X%X%X+X$X%X%X-X;X$X&X&X&X&X&X&XXXu.q f x.G.J.J.H.H.F.F.K.M.M.G.b.g h > P ( 2.5._ P 4 `.dX",
"X t.2X2X@X&X-X+X$X-X$X#X&X2X2X2X:X].i.Z b q g z S.S.M.K.J.H.H.H.H.J.J.M.n.m.5XbX Xr ~ _ 4.o.6 V sXwX",
"& XX:XXXXXXX2X&X&X&X2X4XoXu.u y 6 @ O . 1 k n.G.A.F.K.K.J.H.H.F.F.F.K.N.x.U.BXBXCX].Y X.) P > `.eXeX",
"@ v N 6 = i y t.u.t.C w & @ & i = O X . 1 C.P.F.F.J.B.B.B.J.J.H.L.A.c.n.x 5XBXCXVXcXm  . .7 M dXeXeX",
"O 8 ] i.i.t.u e 3 w N Z ] ~.:X:X].Q.Z = o a z.G.J.J.K.G.V.N.M.G.A.S.n.x k uXBXVXNXMX} [ m > (.dXeXeX",
"@ S 3X3X<X@X2X&X@X<X3X4X1X4X1X1X<X4X@XXX~.r.x v.F.G.v.j g j x.x.x.j d p < xXCXVXVXCXQ.C 6 A dXeXeXeX",
"e * ~.<X@X=XOXOX#X#X}.|.j.h.g.j.}.}.%X=X4X,XG m.v.P.z U./.I.f x x b F Z.S >XNXVXNXVX X8 < `.wXqXwXeX",
"/.* > [ p.f.s.a.a.6.Q Q 2.2.;.Q Q s.d.l.%X4X!.h D.z.C.mXBXBX`.h b { O.O.U ].NXNXNXVX7X; D eXtXtXwXeX",
"tX'.o 4 / ` Q &.=.=.&.#.3.:.@.:.&.*.L =.s.j.{.b x k /.BXVXVXBXD 9 O.q.4.~ Q.NXNXVXVXsXc 0XqXkXwXeXeX",
"tXwXE.% 7 / ( 3.*.=.-.-.@.@.7.:.3.@.#.=.&.Q / R h l 6XCXVXVXVX Xn o.>.3.) [ ZXCXVXVX_.F eXuXuXwXeXeX",
"uXhXsXD + 0 .._ 2.@.@.#.@.7.7.+.:.@.$.*.*.3.5...N h jXVXVXCXVXAXI ) 3.+.^ P xXNXCXVXY.I.uXpXwXwXwXwX",
"uXtXlXdXY.> 7 | X.q.:.:.<.@.@.7.@.@.*.*.@.@.*.( [ 8 sXVXVXVXVXMX[ / 3.5.w.T ] ZXVXnXc /.pXyXkXdXwXwX",
"kXwXuXvXwX(.s 4 I ..q.,.>.8.:.:.<.:.3.3.$.@.$.3.X.m xXVXVXVXCXNX[ ~ ^ ^ X.T 4 { nXE.c 8XyXuXwXwXwXwX",
"9XhXwXqXkXwX6Xv % n | e.q.4.>.>.:.:.;.:.1.1.1.8.4.T >XNXVXVXVXNXp.~ o.o.Y 2 $ $ 1 1 E.tXqXpXeXkXeXeX",
"tX8XtXuXwXkXdXgXD % % U  .X.q.,.5.3.:.;.:.:.>.>.>.E i.NXVXVXVXCX} [  .r + v ).E.D E.lXwXqXuXkXwXeXeX",
"uXwXlX8XdXfXdXwXjX`.c   4 P ~ X.^ 3.5.3.3.5.0.0.5.~ R cXCXVXVXZXC v % * F 0X9XkXwXkX9XhXwXwX8XkXtXtX",
"eXuXwXkXdXfXwXhXwXtX0XR.c @ # 5 H E ) ) ` X.q.w.q...m W.NXNXVX_.$ X c (.hX8XtXqXwXkXwXwXhXwXkXwXeXeX",
"eXuXeXeXeXdXdXeXkXwXdXjXsX(.S > @ + 2 7 0 t P P T [ ] w _.ZXxXc < Y.0XjXhXhXeXwXuXkXkXeXeXtXhXdXdXhX",
"eXuXeXeXwXfXdXdXeXdXdXjXjXzXzXsXR.M > +     + + + # #   $ < < < _.zXbXlXlXkXlXkXkXkXkXkXkXkXkXkXkXkX"
};
