/* XPM */
static char *_999c12b96ff4f4fd14f4a10652fde35OyFfYzBecmlh4OVp[] = {
/* columns rows colors chars-per-pixel */
"50 50 249 2 ",
"   c #783531",
".  c #5E495C",
"X  c #7D4852",
"o  c #44506F",
"O  c #645468",
"+  c #686B68",
"@  c #B50A1E",
"#  c #9F1D32",
"$  c #8F172E",
"%  c #B70B26",
"&  c #AA132A",
"*  c #B91531",
"=  c #AE132C",
"-  c #92222D",
";  c #A1363E",
":  c #B02119",
">  c #CB1714",
",  c #C40D1D",
"<  c #D12C1A",
"1  c #C50C2A",
"2  c #C50A23",
"3  c #D2062C",
"4  c #C61322",
"5  c #C80F36",
"6  c #CA2222",
"7  c #E83612",
"8  c #B25835",
"9  c #92543D",
"0  c #DA5917",
"q  c #C9581B",
"w  c #EB5606",
"e  c #F45709",
"r  c #E8491A",
"t  c #F44A16",
"y  c #F0510D",
"u  c #D7601C",
"i  c #CE592D",
"p  c #DB572C",
"a  c #B12E45",
"s  c #933F4C",
"d  c #8C4C4F",
"f  c #B25867",
"g  c #A96467",
"h  c #C0495F",
"j  c #CB7249",
"k  c #CB6779",
"l  c #C45065",
"z  c #7B827B",
"x  c #A98E37",
"c  c #B9835D",
"v  c #B5A34F",
"b  c #B7AC71",
"n  c #CC8B64",
"m  c #E39673",
"M  c #D0A772",
"N  c #346E8D",
"B  c #547A8D",
"V  c #A27981",
"C  c #917A8C",
"Z  c #E07F90",
"A  c #1E849C",
"S  c #2F8899",
"D  c #1A8CB8",
"F  c #1C97B9",
"G  c #1490AD",
"H  c #288EA8",
"J  c #378DA5",
"K  c #2C96AB",
"L  c #3895AB",
"P  c #258DB3",
"I  c #378DB3",
"U  c #2998B6",
"Y  c #3393B4",
"T  c #2DA0BD",
"R  c #17A1BB",
"E  c #4A8999",
"W  c #588A9B",
"Q  c #5A929F",
"!  c #65939B",
"~  c #708892",
"^  c #549BAB",
"/  c #499BB4",
"(  c #4E94A9",
")  c #659DAC",
"_  c #749BAA",
"`  c #57A3B9",
"'  c #43A6BE",
"]  c #6AA5B6",
"[  c #77A4B8",
"{  c #70ADB4",
"}  c #1899C7",
"|  c #089DD4",
" . c #179ED4",
".. c #188FC7",
"X. c #2599C6",
"o. c #3497C0",
"O. c #19A2C6",
"+. c #09A4D9",
"@. c #17A4D6",
"#. c #0CA4CB",
"$. c #27A1C5",
"%. c #39ABC5",
"&. c #13A2E4",
"*. c #4A9EC3",
"=. c #47A7C5",
"-. c #58B2CA",
";. c #5CA7CF",
":. c #67AAC6",
">. c #6BB5C9",
",. c #77B5CA",
"<. c #75BAD6",
"1. c #6BB7D1",
"2. c #7AC4D7",
"3. c #6DC3DE",
"4. c #8E908F",
"5. c #B58F99",
"6. c #9BB89C",
"7. c #ACB495",
"8. c #8996A4",
"9. c #8EA8AF",
"0. c #96ADAF",
"q. c #A9A7B7",
"w. c #AAB7B8",
"e. c #B7B6B4",
"r. c #A9B4A9",
"t. c #CE8C90",
"y. c #F2B599",
"u. c #DAB5B8",
"i. c #CCA9B3",
"p. c #EEB2AF",
"a. c #DF989D",
"s. c #B7C7BC",
"d. c #B1C4AD",
"f. c #D1CB8B",
"g. c #CBCDAE",
"h. c #F2C8B3",
"j. c #89B8C8",
"k. c #89BCD6",
"l. c #92AEC4",
"z. c #ABBDC5",
"x. c #BBBECD",
"c. c #8A9EC3",
"v. c #D6BEC4",
"b. c #8DCBDA",
"n. c #85C3D8",
"m. c #97C8D7",
"M. c #9AC9D2",
"N. c #ABC9CA",
"B. c #BCCCCD",
"V. c #B6C6C9",
"C. c #BAD1CE",
"Z. c #BAD4CE",
"A. c #A8CBD7",
"S. c #B5CDD4",
"D. c #BBCED5",
"F. c #B5CEDB",
"G. c #BCCDDB",
"H. c #BAC3D5",
"J. c #A8D3DC",
"K. c #BCD0D6",
"L. c #B4D2DB",
"P. c #BDD3DA",
"I. c #BAD7D8",
"U. c #97C8E2",
"Y. c #8BD5EB",
"T. c #95D6E8",
"R. c #87CAE4",
"E. c #BCCDE3",
"W. c #A7D7E7",
"Q. c #B2D9E3",
"!. c #BBDAE4",
"~. c #BAD6E6",
"^. c #A6D2F0",
"/. c #B6E6F0",
"(. c #C3CDCD",
"). c #C7C7C8",
"_. c #C3D3CE",
"`. c #C7D8CC",
"'. c #D6D8CA",
"]. c #C2CCD5",
"[. c #CBCFD3",
"{. c #C2CDDA",
"}. c #CBCDDB",
"|. c #C4C7D6",
" X c #D1CCDA",
".X c #D1CDD5",
"XX c #C5D2D5",
"oX c #CBD3D6",
"OX c #C6D9D4",
"+X c #CDDAD5",
"@X c #C4D3DB",
"#X c #CCD4DA",
"$X c #C5DBDB",
"%X c #CDDADB",
"&X c #D2D3D5",
"*X c #D4DAD5",
"=X c #D2D5DC",
"-X c #DAD4DD",
";X c #D4DADC",
":X c #DBDBDC",
">X c #DAD6D6",
",X c #D6C8CD",
"<X c #FDC5CD",
"1X c #E4DADA",
"2X c #F6D4CD",
"3X c #CBE1DC",
"4X c #D5E1DA",
"5X c #DEE1CE",
"6X c #E2E4DC",
"7X c #F7ECD6",
"8X c #CBCBE4",
"9X c #D2CFE2",
"0X c #CCD4E1",
"qX c #CBDAE2",
"wX c #C5D8E6",
"eX c #D3D5E2",
"rX c #DBD5E3",
"tX c #D4DBE2",
"yX c #DBDBE3",
"uX c #D9DCE9",
"iX c #E5DBE7",
"pX c #FDDFE6",
"aX c #F9DDEB",
"sX c #C9E4EE",
"dX c #D9E4E8",
"fX c #C9E7F5",
"gX c #D8E9F8",
"hX c #CDF4FC",
"jX c #CBFAFF",
"kX c #DCFCFF",
"lX c #D4F5FB",
"zX c #E4E4E3",
"xX c #E8E7E9",
"cX c #F9E8EA",
"vX c #FAF4EB",
"bX c #E5EDF4",
"nX c #E8E9F2",
"mX c #FDECF2",
"MX c #FDEAF8",
"NX c #EDF6FD",
"BX c #E4FDFE",
"VX c #EBFEFE",
"CX c #E8F4F5",
"ZX c #FFF3F5",
"AX c #FDFCF5",
"SX c #F3FEFE",
"DX c #FDFDFC",
"FX c #F7F4F8",
"GX c #E8F2EB",
/* pixels */
"D.D.D.D.D.D.K.K.K.K.K.K.D.D.D.D.{.{.G.D.C._.].G.D.{.8X8XH.C.C.C.K.K.D.D.D.D.].D.B.B.(._.XX{.{.{.G.D.",
"D.D.D.D.D.D.D.D.K.K.K.K.D.D.D.D.D.D.K.K.D.B.V.z.0.8.8.x.].V.N.V.S.D.D.D.D.D.D.D.D.B.B.XX].D.D.D.D.D.",
"D.D.D.D.D.D.D.D.P.P.P.P.D.D.D.D.C.C.C.K.F.S.z.w.z + + e.oX*X#XV.H.H.G.D.D.D.D.D.F.F.P.G.D.D.D.D.D.].",
"D.D.D.D.D.D.D.D.K.K.K.K.D.D.D.D.C.C.K.K.F.F.V.s.V.s.4.4.~ 4.w.V.H.|.{.D.D.D.D.D.G.F.E.P.G.D.C.XXXX@X",
"D.D.D.D.D.D.D.D.D.D.D.D.D.D.D.D.].].G.F.S.S.D.B.Z._.d.r.C.S.H.].D.D.D.S.D.D.D.D.].{.G.E.{.].[.oX@X@X",
"D.D.D.K.K.K.K.K.D.D.D.D.D.D.D.D.|.|.F.F.S.S.D.].K.B.d.6.Z.I.D.].D.D.D.S.S.K.D.D.].].{.{.G.].[.[.#X#X",
"K.K.K.K.K.K.K.K.D.D.D.D.D.D.D.D.].D.G.G.G.D.].].{._.g.7.s.K.B.B.(.].].D.S.S.K.D.].|.|.}.@X@XoXoX#X@X",
"K.K.K.K.K.K.D.D.D.D.K.D.D.D.D.D.{.D.D.G.G.G.F.G.G.N.6.6.0.w.V.F.F.L.].D.C.K.K.XX}.|.|.}.@X$X@X@X#X#X",
"D.D.D.D.K.K.K.K.D.D.D.D.D.D.D.D.D.D.S.I.A.Q.m.m.z.9.( E _ z.l.[ <.Y.W.P.C.OX].#X8X}.}.[.oX#X$X$X%X#X",
"D.D.D.D.D.D.D.D.K.D.D.K.D.D.D.D.D.P.J.J.b.>.^ b.kXBXT.( wXSXkXk.I =.2.J.P.D.#X}.8X8X}.oX&X*X$X$X%X#X",
"D.K.K.K.K.K.K.K.P.D.D.P.K.D.D.D.H.~.b.1.%.K ^ jXSXSXsX9.dXGXSXhX' G U -.U.E.0X0X0X#X#X#X#XoXoXoX#X#X",
"K.K.K.K.K.K.K.D.P.D.D.K.D.D.D.S.~.m.` Y F U :.BXDXe.4.).4.7.DXBX:.U U Y :.^.E.G.#X#X#X#X=X&X*X*XoX#X",
"D.D.D.D.D.D.D.D.K.D.D.D.D.D.D.L.b.` H Y / ] m.SXDXu.4.e.4.r.DXSXA.k.:.I I 1.^.sX$X$X@X#X=X-X#XoXoXoX",
"D.D.D.D.D.D.D.D.D.D.D.D.D.D.P.J.` L L <.hXVXsXnXMXZXu.V i.ZXAX6XdXSXhXk./ J k./.!.$XoX=X;X;X%X#X=X=X",
"D.D.D.D.K.K.K.K.D.D.D.D.D.P.D.M./ J k.wX=XFXFX`.yX,Xf k d i.1X>XzX;X@XBXhX) ) W.!.qX=X&X*X;X;X;X=X=X",
"D.D.D.D.D.].].].D.D.K.D.D.P.N.j.S ,.lXFXcX1X'.6XCX,Xs f   u.MX>X>XvXAXGXXX0.Q m.wXeX-X>X*X;X;XtXtX;X",
"D.D.].].(.(.[.[.{.G.K.C.C.I.A.! _ L.K.+X6XxX&X:XDXZX5.X g aXMXrX-X:X'.`.`.gXj.j.wXyX-X>X;X;X;X4X;X;X",
"D.K.].].(._.[.[.@XP.K.D.].I.M.! sXSXCXCXxX6XzXzXZXDXmXu.pXDXDX-XiXcXvXGXDXSXhX_ @XtXuXyX:X:X*X*X;X;X",
"L.P.{.].XXOXOX@X@X0X#X}.}.E.b.E !.NXxXzX1X>X1X1XZXAXAX1XmXZXDXvXzX1X*X;X&XnXwX~ D.%XuXrX:X:X*X;X;X;X",
"P.P.@XXXXXOXOX$X$XqXeX9X9XwXU.W S.yXiXcXcXMXZXmXpX<Xp.t.t.t.p.p.<XpXZXmXmXiXV.~ S.%XyX-X:X:X:X;X;X;X",
"@X@X#X#X%X$X$X$XqXqX#X X XwX^.] I.).t.a.a.Z k l a = = = = = & = a a h k g v.gX_ K.3X;X;XyXyXuXuXyXyX",
"#X#X=X&X#X%X$XqXqXqXeX-X-XeXQ.[ sXxXd $ # & = & 5 1 3 3 3 2 2 1 % * @ # d ZXgX8.$X3X*X*X:XyXuXuXyX;X",
"&X>X-X-X;X;XtXqXtXqXdXGXcXxXqX9.V.DXa.- * 1 2 4 % % 5 5 5 1 2 2 1 % 5 # a.DXH.9.#X*X*X*X4X4X;XtX;X;X",
"&X>X-X-X;X;XtXtXtXtXxXAXAXDXCXz.0.FXMXf & , > > < 6 4 % , 4 > < > 4 @ h cXDXq.x.=X*X*X:X4X;X;XtXtX;X",
"*X;X;X;X;XtXyXyXuX=XFXAXAXAXSXS.8.dXDX<X; : r t y y r 7 7 t y y r 6 - p.AXzXq.eX&X>XrXrX;X;XuXyXtXtX",
"+X%X;X;X;X;XtXyX=XyXFXDXDXSXlX{ ) j.FXDXp.8 p y w w w e e e e e 0 i t.mXAXe.x.>X&X-XrXrX;X;XyXrXtXtX",
"%X%XtXtXtX;X;X;XyXyX:XnXSXkXY.K K S fXSXZXh.j q 0 w w w w w y 0 8 a.vXZX:Xw.eX=X#XeXeXrX*X*X;X;X;X;X",
";XtXyXyX;X;X;X;XtX&X-X}.E.[ L F R G ` kXDXvXh.m i q 0 0 u q i j y.7XZXmX).#X].#XqX%XeX-X&X*X+X+X#X=X",
";X:XrXrX:X;X;X;XdXoXtX0XsX,.H } @.} A { bXZXvXvX2Xy.m n n M p.2XvXZXpXi.,XoXsX0X$X$X#X#X&X&X@X@X#X#X",
";X-XrX-X;X;X*X*X;X#X;X@XwXT.=.X.| @.$.A B 8.q.i.u.p.h.h.p.h.u.i.5.C O 4.#X@XK.P.$X$X@X#X[.oX#X@X#XoX",
";X;X;X;X;X;X;X;X#X;X;X;XqX~.,.Y } +.#.O.P N o . d d   9 9   d X . o N E J.I.@X+X+XoX0X#XoXoX#XXXoXoX",
";X;X;X;X;X;X*X=X;X;XoXoX#XwXQ.<.$.#.+.+. .I c.iXcXh.c c c g p.pXiX! Y A >.Q.I.`.oXoX#X}.oXoXoXoX#X#X",
";X;X;X;X;X;X;X;X;X#XoXoXXX@XP.Q.1.U | +.} *.gXDXDX7Xb v x M h.DXSXM.K G =.T.!.XX@X#X}.XXOX`.oX&XoX#X",
";X;X;X;X;X;X;X=X#XoXoX#X#X#XoXP.W.1.} @.D Y.SXDXDXvXf.b v f.7XDXDXlXH G Y >.!.XX#X#X}.XXZ.`.oX&X#X#X",
";X;X;X;X;X;X=X=XoXoX#X#X#X#XoX@XP.m.=.U J /.BXcXcXcXg.7.b g.1XxXnXBX^ S J ] I.XX#X}.}.#XOXOX#X#X#X#X",
";X;X;X;X;X;X=XoXoXoXoXoXoXoXXX[.@XQ.2.L L W.K.6XiXiX6X5X'.6XnXnX.XgXQ E b.J.S.oX&X X}.#X@X@X0X0X#X#X",
";X;X;X;X;X;X#X#XoXoXXXXXXXXXXX].B.L.<.L L Y.$XvXDXAXAXAXDXSXSXSXuXwXW W.kXVXVX;X&X X=X#X#XqX0X0X#X@X",
";X;X;X;X;X;X#XoXoXoXoXoXXXXXXXXX@X!.<.Y P -.sXxXSXDXAXAXSXSXSXCX!.j.! hXVXVXSXxX&X&X#X#X#X#X0X#X@X@X",
";X;X;X;X;X;X#XoXoXoXoX#X@X@XXXXXXXQ.3.X.X.o.U.I.3XGXvXAXDXAXGXI.b.( j.lXSXSXDXyX&X&XoXoX@X#X#X#X#X#X",
";X;X;X;X;X#X#XoXoXoX#X@X@X@XXX[.XXQ.-.X. ...I 2.W./.I.3X$X!.L.,.L L m.fXbXCXiX.X&X&X+XOX#X#X#X#X#X#X",
";X;X;X#X%X#X#X#X#X#X#X@X@X@X#XoX(.!.` F &.&. .F T =.1.2.<.;.=.P U ' W.wX@X=X=X&X&XoXOXOX@X#XoX%X#X#X",
"#X#X#X%X#X#X#XoXoXoXoX#X@X#X@XoXoX@Xn.U  .| +.+.O.O.P P D .. .@.U 3.!.qXoX#X#X}.oXoXOXXX#X#XoXoX@X@X",
"#X#X=X=X#X#X#X#X#X#XoX#XoX#X@XoX=XqX/./ } +.+.| #.O.D D | +.+.O.=.^.wX#XoX@X0X#X#X#XoXoX#X#X#X#X#X#X",
"=X;X;X;X;X=X#X#X#X#X#XoXoXoXoXoX#XdXVXj.Y } } O.F U =.Y ..} R U R.fX@XoX;X@XqXqX#X=X#X#X#X#X#X#X#X#X",
"=X;X;X;X=X#X#X#X#X#X#XoXoXoXoXoX(.XXSXBXm.` J ( ) [ hXW.:.` { M.fXtX&X&XtX@X#X0X=X=X=X=XeX0X#X#X#X#X",
"#X#X#X#X#X#X#X#X#X#XoXoXoX#X#XoX#X(.zXSXVXhXhXlXgXD.SXNXBXBXBXSXdX#X;XoX%X%X0X#X=X-X=X#X=X=X0X#X#X#X",
"#X#X#X#X#X#X#X#X#XoX[.oX#X#X#X#XoXoXyXNXSXSXSXSXdX].bXSXSXSXSXnX=XoX%X@X@XqXeXeX=X=X#X%X#X#X#X#X#X#X",
"=X#X#X#X#X#X#X#X#X#XoXoX#X#X#X#X#X#X}.iXbXNXxX*X%X#X#XdXbXbXnX.XoX%XoX%X#XqX#XyX=X=X%X%X#X#X#XoX#X#X",
"#X#X=X=X#X#X#X#X#X#X#X#X#X#X#X#XoXoX#X#X#X#XoXoXoXoX[.[.oX[.[.[.oXoX#X#X#X#X#X=X=X#X#X#XoXoX#X#X#X#X",
"#X#X=X=X#X#X#X#X#X#X#X#X#X#X#X#XoXoX#X#X#X#X#X#X#X#X#X#X#X#X#X#X#X#X#X#X#X#X#X#X#X#X#X#X#X#X#X#X#X#X"
};
