/* XPM */
static const char *c3VyZmFjZV81MHg1MA__[] = {
/* columns rows colors chars-per-pixel */
"50 50 142 2 ",
"   c #BCC6CB",
".  c #B7C9CE",
"X  c #BDC9CE",
"o  c #BDC7D0",
"O  c #BDCCD3",
"+  c #BDCED8",
"@  c #BED0D4",
"#  c #BFD0DA",
"$  c #C0C7CD",
"%  c #C1CACE",
"&  c #C8CECE",
"*  c #C4CDD3",
"=  c #C8CFD5",
"-  c #C4CFD8",
";  c #CACFD9",
":  c #C5D1D6",
">  c #CAD2D6",
",  c #C7D1DA",
"<  c #C5D2DA",
"1  c #C4D3DA",
"2  c #C4D2DB",
"3  c #C5D2DB",
"4  c #C6D3DB",
"5  c #C6D2D9",
"6  c #C5D4D9",
"7  c #C7D5D8",
"8  c #C5D4DB",
"9  c #C7D4DA",
"0  c #C6D5DA",
"q  c #C0D2DC",
"w  c #C5D3DC",
"e  c #C3D4DC",
"r  c #C3D4DE",
"t  c #C4D5DD",
"y  c #C7D4DC",
"u  c #C6D5DC",
"i  c #C6D4DD",
"p  c #C7D6DD",
"a  c #C7D5DE",
"s  c #C4D2D9",
"d  c #C9D0D8",
"f  c #C8D1D8",
"g  c #CAD1D9",
"h  c #C9D2D9",
"j  c #C8D3D9",
"k  c #CBD2D8",
"l  c #CAD3D8",
"z  c #C9D0DA",
"x  c #C8D1DA",
"c  c #C8D2DB",
"v  c #C9D2DB",
"b  c #CBD2DA",
"n  c #CAD3DA",
"m  c #CCD0D9",
"M  c #CDD2D8",
"N  c #CCD3D9",
"B  c #CED3D9",
"V  c #CDD1DA",
"C  c #CED1DA",
"Z  c #CCD3DB",
"A  c #CED2DB",
"S  c #CFD2DB",
"D  c #C9D4D8",
"F  c #CBD4D9",
"G  c #CAD5D9",
"H  c #C9D4DA",
"J  c #C8D5DB",
"K  c #CBD4DB",
"L  c #CAD5DB",
"P  c #CDD5D8",
"I  c #CFD4D8",
"U  c #CCD6D8",
"Y  c #CDD7D9",
"T  c #CED6D9",
"R  c #CDD4DA",
"E  c #CCD5DA",
"W  c #CFD4DA",
"Q  c #CED5DB",
"!  c #CDD6DB",
"~  c #CCD7DB",
"^  c #CFD7DA",
"/  c #C9D3DC",
"(  c #CBD2DC",
")  c #CAD3DC",
"_  c #CDD1DC",
"`  c #CCD3DD",
"'  c #CFD3DC",
"]  c #C8D5DD",
"[  c #CAD4DD",
"{  c #CBD4DD",
"}  c #C9D6DC",
"|  c #CBD6DC",
" . c #CAD7DD",
".. c #C9D6DE",
"X. c #C8D7DE",
"o. c #C8D6DF",
"O. c #CAD7DF",
"+. c #CDD4DC",
"@. c #CCD5DC",
"#. c #CED5DD",
"$. c #CDD6DD",
"%. c #CCD7DD",
"&. c #CFD6DC",
"*. c #CED7DC",
"=. c #CDD4DE",
"-. c #CCD5DE",
";. c #CFD6DE",
":. c #CED7DE",
">. c #CCD3D9",
",. c #CED8DA",
"<. c #CFD9DB",
"1. c #C9D8DF",
"2. c #CBD8DE",
"3. c #CDD8DC",
"4. c #CFD8DD",
"5. c #CDD8DE",
"6. c #CFD8DF",
"7. c #CED9DF",
"8. c #CFDADE",
"9. c #CDD8DD",
"0. c #D1D4D4",
"q. c #D0D3D8",
"w. c #D0D5D9",
"e. c #D0D5DB",
"r. c #D1D6DA",
"t. c #D0D3DC",
"y. c #D0D7DD",
"u. c #D0D7DF",
"i. c #D1D5DB",
"p. c #D0D8DB",
"a. c #D1D9DC",
"s. c #D0DADC",
"d. c #D1DBDD",
"f. c #D1D8DE",
"g. c #D1D9DE",
"h. c #CCD9E1",
"j. c #CFDAE0",
"k. c #CEDBE1",
"l. c #CBD8E0",
"z. c #D3DAE0",
"x. c #D2DBE2",
"c. c #D1DCE2",
/* pixels */
"[ c , , , / / / , * * o o o o o * : : : : : : : K K c , : : , , O O O @ @ @ * O : : : c c c M M c c ",
"c , * * * * * * - * * o o o * * : : : : : : : : K c c , : : * * @ O O @ @ s * * : : c c c c M M c c ",
", * * * * * * * * * * * * * * * * : : > > > > > c c c c c * * * s s @ s s s : s : c c c c c M c c c ",
", : * * * * * * * * * * * : : : : : > > > > > > c c c c c : * * 9 , s s s 9 , : c c c c c c M M ; > ",
": * * * * : , , * * * : : , c > : : > > M M > > c c M @.M c ; - K , , : , K K c c c M M M M M M * * ",
": * * * : , , , : : : : , c K > > > > > M c c c M M @.@.M c c ; K , , c K @.@.P c M M _ t._ _ M * * ",
"c * * * : c c c K c c : : c c K > > > > M M M M M M M M M ; ; ; c : c c @.@.@.@.M M t._ t.t.M M c , ",
"K c c : c c c c @.@.c : : > c P > > > > M M M M M M M ; ; ; ; ; * * c c @.@.@.@.M M _ _ t.t.t.M c K ",
"c c c > > > > > > > > : * * > K M M > > P P P P M _ _ M M M ; ; c c M @.@.@.@.M _ M M M M M M c K K ",
"> > > > > c c c > c K c > > > K w.w.w.w.P M M M _ _ _ _ t.M _ _ c c @.@.y.@.@.@.@.M M M _ _ M c c K ",
": : > > c K P P c K P P K c c c P P P p.@.P P M @.@.@.@.@.@.@._ c K @.@.5.@.@.@.@.@.M M @.@.c c c , ",
"> > > > c K P P P P P K c c c K > > P P y.y.y.@.@.@.@.@.@.@.@.@.c K @.@.@.@.@.@.@.@.K K @.@.M c c , ",
"> > > > > P P P p.P > > > > > P > > P P @.P @.@.c c K @.@.K [ [ c K K K K K K K [ [ K K K K c c K 9 ",
"> > > > P P P P p.P > > > > > > P P l l c > > > c c c c c c / / K K K K K K K K [ K c c K K c : , , ",
"> > > > P P P P p.P P P P P > : l l : : : : : : , , c K K K / / K K K K K K 9 K 9 , : , , , , s s s ",
": : > > P P P p.P P p.d.z.d.c * : : * * * * : > : : c K K K P c @.K [ K K K K [ , , : : , , s s * * ",
"> > > P P p.@.P @.P K 5.z.5.c * * * * : * * * * * : > P P P P l > > P P P P K K K c , , 9 9 q q + + ",
"> > > P p.p.@.P P > : c 5.j.5.K , , : : : : * * * : > P P P P l > t.w.w.w.P c c K c , , 9 9 q q q q ",
"> > P P y.y.P K K * * * , 5.5.5.[ [ [ 9 , : : : : > K K P P P P > t.w.w.P M c > K K , , 9 9 9 , , , ",
"> > P P d.y.P > c * o o * c [ [ 1.1.[ [ 9 , , , K K K K K K K l > > P w.P P P c K K , , 9 9 9 , q q ",
"> > M @.5.@.K > * * o * * , , , a a r , , 9 9 a a 9 9 9 9 K K c > > M P P P P P K K , , 9 9 9 , , , ",
"> > M P @.P K > o o * * , / a a q q q # - q , , , , , , 9 , c , > > > P P P P P K c , , , , 9 q [ [ ",
"c c c P P P K c * * * , a [ [ a q # # + + + # q - q , 9 9 9 , : c P P P P P K c , : : : , , , q 9 9 ",
"K c c K K P K c K K a [ [ [ [ a r q # + + + + + + + q 9 9 , , * @.P P P P M > > : : : : : : q * * * ",
"K c c c K @.j.c.[ , q * q , w w q # + O + + + + O + s * + s a 5.5.p.p.d.5.P > > c c : : * * * * O O ",
"> > > > c K K [ , * * * * * + * # + O O O + + + * + * q 9 [ j.j.P P 3.3.5.P K c c c : : * * * * * * ",
": : : : : : q q * * + O O + O o O o o o o + * s , , q , 1.j.5.[ > l P P @.@.P P K c c * * * * * : : ",
"* * * : : * * * q * + O + O o o o o o o o + q q [ K K [ 1.5.K : : > l P P P P P @.c c : * * - , , , ",
"* * : : , , , , q * + O O O o o o o o o + * : , c K 3.3.K > : : > l l l K K c c @.K c c c c c c c c ",
": : : , c c a a , * O o o O O O + + + * * s , 9 * > P P c : > l l l l > > > > > @.@.K K c c c c c K ",
"K K c c , , a [ a q + o O + # q q s * * : : > K > l P P P P l l > > : : : : > > K @.@.@.@.@./ c , , ",
"5.@.K c , , / [ l.a * * * , a a 9 , : : : > c K d.3.P P P P > : : : : : : > c c c @.@.y.@.@.c c c : ",
"> > > > > > c K 5.[ c : * : c K * * * * ; > M P d.d.y.@.P M > > c c c K P M M P y.y.w.y.y.y.t.M c l ",
"* * * * : > > c P c : * * * * > ; > > c M P @.y.@.@.P P M > > > c c c K M M M M y.w.w.w.y.y.t.M > > ",
"* * * : > K P P > : * * * * * * ; > > P @.@.@.@.M M M M > > > > > > c c M M M M w.w.t.w.y.w.t.M > > ",
"* * * > c K P P : * * * * * * * * * > M P P M c > > > > > > > > > c c c > M M M P P M t.w.w.t.M > > ",
"* * * : > > > > > : * * * * * * % * ; > M > > ; > > > > > c c c > > > c c c > M M M M M P w.M M c > ",
"> c K P P K c > > > * * * * * * * * > > M > > ; > > > > > > c c > > > > c c M c M > > M P P M M c c ",
"c K P @.@.P P K > : * * % % * * * * ; > > > > ; * ; ; ; ; > > > > > > > > c c c > > > c M P M c > > ",
"* * : > > > : * > : * % % % * * * * * ; ; ; ; * * * * * * * * * > > > > > c c c > > > M M P M > > > ",
"% * * * * * > > c * * * * * * * * * * * * ; ; = * * * * * * * * * * * * ; ; : : * * > > > > > > K c ",
"% % * * * * : > > * * * * * * * * * * * * * ; ; * ; ; ; ; > > > * * ; ; ; * * * * * > > c c K P , : ",
"% % % % * * * * * * * * > * * > * * * ; ; * * ; ; ; ; ; > > > > > > > ; ; * * * * * : : : : K K , s ",
"% % % % * * * * * * * > > > > > * ; ; ; ; ; * * * * * * * * ; ; ; ; > > ; ; * * * * * % * * * * s s ",
"* % % % * * * * * % % * > : : > ; ; > > > ; ; * * * * * = ; ; ; * * ; > > > > : % X     X * O * o . ",
"* * * % * * * * %     % * % * * ; > > > > > > > > > > > > > > > * * ; > > > > > X     X * : : : X . ",
"* * % % % % % % %       % X % * ; ; > > > > > > > > > > > > > > ; ; > > > > > : * * X O : : : O O o ",
"* % % X X X X % * %   X % % % * * ; > > > > c c ; * ; ; : = > > > > > > > : : : l : * : : : O . o . ",
"% % % % % % * % %     % * % % % * = : : * * * %   $ & = > > > > w.> = & & & % % * * * O o X X . X . ",
"% % % % % % * * %     % * % % % * & * * * * % X   % & = > > 0.I 0.I & & & & % % * * * O o o X . X X "
};
