/* XPM */
static char *_61752f4e294454aa1d367f7da9041f7pgGcGBkbF0pBEgmd[] = {
/* columns rows colors chars-per-pixel */
"577 210 186 2 ",
"   c #444444",
".  c gray27",
"X  c #464646",
"o  c gray28",
"O  c #484848",
"+  c gray29",
"@  c #4B4B4B",
"#  c #4C4C4C",
"$  c gray30",
"%  c #4E4E4E",
"&  c #505050",
"*  c #515151",
"=  c gray32",
"-  c #535353",
";  c gray33",
":  c #555555",
">  c #565656",
",  c gray34",
"<  c #585858",
"1  c gray35",
"2  c #5A5A5A",
"3  c #5B5B5B",
"4  c gray36",
"5  c #5D5D5D",
"6  c gray37",
"7  c #5F5F5F",
"8  c #606060",
"9  c gray38",
"0  c #626262",
"q  c gray39",
"w  c #646464",
"e  c #656565",
"r  c gray40",
"t  c #676767",
"y  c #686868",
"u  c DimGray",
"i  c #6A6A6A",
"p  c gray42",
"a  c #6C6C6C",
"s  c #6D6D6D",
"d  c gray43",
"f  c #6F6F6F",
"g  c gray44",
"h  c #717171",
"j  c #727272",
"k  c gray45",
"l  c #747474",
"z  c gray46",
"x  c #767676",
"c  c #777777",
"v  c gray47",
"b  c #797979",
"n  c gray48",
"m  c #7B7B7B",
"M  c #7C7C7C",
"N  c gray49",
"B  c #7E7E7E",
"V  c gray50",
"C  c #808080",
"Z  c #818181",
"A  c gray51",
"S  c #838383",
"D  c #848484",
"F  c gray52",
"G  c #868686",
"H  c gray53",
"J  c #888888",
"K  c #898989",
"L  c gray54",
"P  c #8B8B8B",
"I  c gray55",
"U  c #8D8D8D",
"Y  c #8E8E8E",
"T  c gray56",
"R  c #909090",
"E  c gray57",
"W  c #929292",
"Q  c #939393",
"!  c gray58",
"~  c #959595",
"^  c gray59",
"/  c #979797",
"(  c #989898",
")  c gray60",
"_  c #9A9A9A",
"`  c #9B9B9B",
"'  c gray61",
"]  c #9D9D9D",
"[  c gray62",
"{  c #9F9F9F",
"}  c #A0A0A0",
"|  c gray63",
" . c #A2A2A2",
".. c gray64",
"X. c #A4A4A4",
"o. c #A5A5A5",
"O. c gray65",
"+. c #A7A7A7",
"@. c gray66",
"#. c #A9A9A9",
"$. c #AAAAAA",
"%. c gray67",
"&. c #ACACAC",
"*. c gray68",
"=. c #AEAEAE",
"-. c #AFAFAF",
";. c gray69",
":. c #B1B1B1",
">. c #B2B2B2",
",. c gray70",
"<. c #B4B4B4",
"1. c gray71",
"2. c #B6B6B6",
"3. c #B7B7B7",
"4. c gray72",
"5. c #B9B9B9",
"6. c gray73",
"7. c #BBBBBB",
"8. c #BCBCBC",
"9. c gray74",
"0. c gray",
"q. c gray75",
"w. c #C0C0C0",
"e. c #C1C1C1",
"r. c gray76",
"t. c #C3C3C3",
"y. c gray77",
"u. c #C5C5C5",
"i. c #C6C6C6",
"p. c gray78",
"a. c #C8C8C8",
"s. c gray79",
"d. c #CACACA",
"f. c #CBCBCB",
"g. c gray80",
"h. c #CDCDCD",
"j. c #CECECE",
"k. c gray81",
"l. c #D0D0D0",
"z. c gray82",
"x. c #D2D2D2",
"c. c LightGray",
"v. c gray83",
"b. c #D5D5D5",
"n. c gray84",
"m. c #D7D7D7",
"M. c #D8D8D8",
"N. c gray85",
"B. c #DADADA",
"V. c gray86",
"C. c gainsboro",
"Z. c #DDDDDD",
"A. c gray87",
"S. c #DFDFDF",
"D. c gray88",
"F. c #E1E1E1",
"G. c #E2E2E2",
"H. c gray89",
"J. c #E4E4E4",
"K. c gray90",
"L. c #E6E6E6",
"P. c #E7E7E7",
"I. c gray91",
"U. c #E9E9E9",
"Y. c #EAEAEA",
"T. c gray92",
"R. c #ECECEC",
"E. c gray93",
"W. c #EEEEEE",
"Q. c #EFEFEF",
"!. c gray94",
"~. c #F1F1F1",
"^. c gray95",
"/. c #F3F3F3",
"(. c #F4F4F4",
"). c gray96",
"_. c #F6F6F6",
"`. c gray97",
"'. c #F8F8F8",
"]. c #F9F9F9",
"[. c gray98",
"{. c #FBFBFB",
"}. c gray99",
"|. c #FDFDFD",
" X c #FEFEFE",
".X c white",
/* pixels */
"/ I N N J G C G G N C C N N C C C G G G G G C C G G C C G J I I J J I Q I I J I I J N k k C C m m m N N N m m N C N z m m N m m m k k z k d z N m N N N N N C J J J G G J J G G G G J J G J J I I J I Q Q Q I I I I J G G J I Q I / I Q Q G J I I Q ( ( / / / ( ( ] ..] ( ] ] ] ....+.....] ] ] ] ] ] ] ( ( ( ] +.+.+.+.+.+.+.+.+.+.+.+.#.#.+.+.+.] ..+.......] ( ( ( / / ( ] ] ........+.#.#.+.+.#.#.#.+.+.#.#.#.#.;.-.#.;.;.;.8.3.-.#.-.;.-.-.....+.-.-.#.+.+.#.#.+.+.+.] / / ( ( ] Q G N G J J / / I J G G I G G m C J C Q +.+.....#.#.#.#.-.-.-.;.-.-.;.4.4.e.8.8.8.8.4.3.3.3.4.e.s.y.8.8.e.e.4.3.4.4.8.y.s.s.e.e.8.3.;.-.#.+.-.;.-.#.-.;.;.....+.+.#.....+.+.+.+.+.+...+.#.-.+.+.;.4.8.8.8.e.4.3.8.e.8.8.8.4.4.3.3.3.3.4.4.e.8.4.3.;.#.#.#.#.#.#.#.+.+.#.#.#.+.+.+.#.#.#.#.+.+.+.+.+.+.+.+.+...#.3.-.+.+.] +.-.3.3.-.......] ....................................] ( / ( ..+.+.+.......] ] ( ( ( / I Q Q I ( / / Q Q Q ] #.-.;.3.3.;.#.+.+.+.-.-.+.+.+.] ] ] ] ] ] ..+.....+...] ] ] ] ( / ( ] -.4.;.-.-...+.#.#.] ] ] ] Q ( ( ( ( ] ] ..+.] ..........+.+...( ( ] ..] ( ] ..] ( ( ( ] ] ( ..] ] ] ( ] ] ( ] ( ( ( ] +.#.-.#.+.......+.......] ( ] ] ] ( ( ] ] ....] ] ] ] ] ] ....] ] -.u k ",
"/ / I I Q Q J G C C G G G G J G J J G C C C C G C G G G J I I J I I I Q Q I I J Q Q I J J Q I G J G G G G C G J I J G C C C G G J G G G G G G I G J G C C C G I Q / Q / ( / I I I I I Q / / / / ( ( / ( ( ( / ( ( ( / Q Q / ( ] / ] ( ( ] / ( ] ] ] ..+.......+.-.;.;.#...] ] ] ....................+.+.+.....+.+.+.+.+.+.#.+.+.......+.#.#.+...+.+.#.#.#.#.#...] ( / / ..-.;.;.-.-.#.+.+.#.#.#.-.-.;.-.-.-.;.;.;.;.3.-.#.;.3.4.s.y.e.8.8.8.8.8.-.#.+.#.#.#.+.+.+.....+.+.+.+.+.....#./ J G J / ( ] ] ..] / I Q / / I Q / ( ..#.......#.-.-.-.-.-.-.-.-.#.-.4.8.e.8.8.4.4.3.3.3.4.8.8.e.e.e.e.e.y.8.4.8.4.8.y.s.e.s.z.s.4.3.-.+...+.-.#.#.-.-.;.+.+...+.+.] ] ........+...........] ] +.-.-.-.-.#.-.3.4.;.-.-.;.;.-.-.;.;.-.-.;.3.;.-.-.#...] ] #.#.#.#.+.+.#.#.#.#.+.+.+.+.+...................] ] #.3.-.....( ( ......] ] ] ..] ] ] ] ] ] ] ] ] ] ] ] ] ] ] ] ] ] ( ( / / / ( ] ] ( ( ( / / Q I J I Q J C G I ( ] ] ( Q / ..-.;.;.-.#.+.....+.....] ( ( ( / / ( / / / / / / / ( ( / / / / / / / / ..+.] ] ] Q Q / Q Q / ..] / ( ( ( ( ] ] ..........] ] ] ] ..] ] ] ( ( ( ] ] Q ( ] ] ....] / ] ( ( ( ( ( ] ( ] ] ] ] ( ( ( ( ....] ] ] ] ( ( ] ( ( / / / Q Q ( ( ( ] ( ( ( ( / / ] ] ( ] #.t z ",
"Q ( ( / ( ( Q G G J I I Q Q I Q ( / Q J G G J I Q Q / / / / / Q Q Q Q Q Q / / / I Q / / ( ] ( Q Q Q Q Q Q Q Q / Q Q / / Q Q Q / / / / ( ( / / / / ( Q I I I I Q Q / / ( ] ] / Q ( ( ] ] ] ] ....+.+.+.+...] ] ............+.+.+.] +...+.#.#.#.#.;.;.;.;.;.;.;.;.3.3.3.-.+...+.#.+.+.#.#.;.;.3.3.3.3.3.3.3.;.-.-.-.-.-.-.-.-.-.-.#.+.-.;.;.;.;.#...-.;.-.-.;.-.#.+.] / ( -.4.8.3.;.;.-.#.#.#.;.;.3.3.3.3.;.3.3.3.3.3.4.;.-.3.8.8.s.k.k.s.y.e.e.8.4.;.#.#.-.;.-.-.#.#.#.+...] ] ] ] ..-./ I J I +.] ] ] +.+.] / / ] ] ] / ( #.#.+.+.+.+.#.-.-.#.-.-.-.-.#.#.-.4.8.3.3.4.3.3.3.3.3.;.;.3.8.e.e.e.8.8.4.8.e.8.8.e.e.y.4.;.;.-.#.+.+...+.#.+.+.+.+.+.+.+.+.+...] / ] ] ] ........] ( ] ( ( ] ..+.....#.+...+.#.#.+...+.+.+.#.#.+.+.+.+.+.+.#.#...] ] ( ( ( ] ] ] ..................] ] ] ] ........] ] ] ..-.+...+.] ] ..] ( ( ......] ] ] ] ] ] ] ] ] ] ....] ] ] ..] ] ( ( / / Q / ( / / / Q Q I I Q I I Q I C N G I ( ] / I / ..-.;.-.#.....+.#.#...( / / / ( ( / ( ( / / / / / / ( / / / / / / ( ( / ( ( / ( ( / / ( ( / / ( ( ( ] ] ] ] ] ] ] ] ] ] ] ( ( ( ( ( / ( ] / Q / ( ] ] ] ] ( ( ] ] ( ( ( ] ] ( ( ] ] ( ( ] ] ] ( / / ] ] ] ] ........] ] ( ( / / / / / Q / / / / / Q Q Q ] ] ( ..+.t m ",
"Q ( / Q Q ( Q J J Q Q Q / / Q / ..] ( / I I / ( ] ] ] ( / Q Q Q I / / Q / ] +.+.;.-.#.+.+...] ( / / / ( ( ( ( / / / ] ] ] ( / ( / ] ....] ( / / ] ....] ..] ] ] ....] ..+.+...] ] ..+.......+.-.-.-.-.-.#.+.+.+.....+.+.#.-.#.+...#.-.-.-.;.;.;.3.3.4.3.3.;.;.;.;.;.-.#.+.+.-.;.3.3.;.;.3.3.3.3.3.3.3.4.4.3.3.3.;.3.3.3.3.3.3.;.-.#.;.3.;.3.3.#...;.;.-.-.;.;.-.-...( ] ;.8.8.;.;.;.;.-.#.#.;.3.4.4.4.3.3.3.3.3.3.3.4.3.3.4.8.4.y.k.k.s.y.e.e.8.4.;.-.#.-.-.-.#.+.#.-.#...( / ( ( ] +.I I I I #...] ] ....( ( ( ] ( ..( ] -.#.] #.+.+.+.+.+.+.+.+.+.+.+.#.#.-.;.+.-.;.3.3.3.3.3.4.;.;.;.;.-...] ....#.3.3.3.4.8.8.+./ ( ......+.+.+.+.......] ( ..+.+.+...( / ( ] ( ( ] ..] ( ( ] ] ] ] ] ] ] ] ] ( / / ( ] ] ] ............] ..] ] ..#.#.+...] ] ] ] ( ( ( ( ( ] ] ] ( ( ( ( ( ] ..............( ( ( ..] ] ..] ......] ] ....] ........] ..] ] ] ......] ] ] ] ] ( / / Q Q I I Q I I I I I J J J I I J I I G N C Q ( I G Q +.-.3.;.-.#.+.+.+.+.../ Q / / ( ( / / / / / ( ] ] ] ( ( ( / / / ( ( ( / / / / ( ] ( / ( ] ] ( ( ] +.] ] ] ] ] ] ] ] ] ] ] ] ] ....] ] ....( Q I Q / ( ( ( ] ] ] ] ] ( ( ....] ] ....] ] ] ] ] ] ] ] ..] ] ] ( ( ( ( ( ] ] ( / ( ( / / Q Q / Q Q / Q / / ..] ] +.#.u N ",
"/ Q I J I / / I Q / Q Q / / Q / ( ( ( / Q / ( ] ] ..] / Q I I J J Q / Q / ] +.#.;.#...] ( / / ( ( ( ( ( ] ] / Q / / ( ( / Q I I Q ] +.../ I I Q Q ( ..] ..] ] ..+.+.+.....+.+...] ] ] ......+.#.-.-.;.;.-.+.....] ] ] ..#.#.+...] +.-.-.#.-.;.-.;.3.3.3.;.-.-.-.;.-.#.+.+.+.#.-.;.-.#.+.#.-.-.-.;.-.-.;.;.;.;.-.;.;.;.;.;.;.;.-.-.+.-.;.-.-.;.#.+.-.#.#.-.;.;.;.-...( ..;.4.3.-.-.-.;.-.#.+.#.-.;.3.3.3.;.;.;.3.3.3.4.3.3.4.3.;.3.8.8.4.4.4.4.4.3.;.-.-.#.+.] ] ] ..+.+.] ( / ( ] ] +.I I I J ......+...( / ] ] / I / / ( +...( ] ( ( ( ( ( ( ] ( ( ( ( ] ] ( ] / ] +.+.+.#.#.#...] ( ] ..+.....] ( ] ..] ] +.-.+.+.....+.+.....+.+.+.+...........+.+.+.+...] ..] ( ( ( ] ( ( ( ] ] ] ] ( ( ( ( / Q Q / ( ] ] ] ] ( ( ] ] ( ( ] ] ] ..+.+...] ] ] ] ] ] ( ( ] ] ] ] ] ( ( ( ( ( ( ] ] ] ] ..] ] ( ] ..#.#.+.#.+.............] ] ..............] ....+.+...] ] ....] ( / Q Q I J I I I I I I I I G Q Q J J Q J z C Q / G C Q +.-.;.;.;.;.;.;.;.-.+./ / ( / ( ( / / / / ( ] ] ....] ] ..] ] ] ] ] ..] ( ( ( ] ] ( ( ( ( ( ] ] ] ] ....] ] ] ] ] ] ] ] ] ] ] ] ....] ] ] ] ( / ( ..] ( ( ....] ( ] ] ] ........+.#.+...] ....] ] ] ............] ] ..+.+...........] ( ( ] ( ( ( ( ] ] +.] ] ..#.u z ",
"Q I J J I Q / Q / Q Q I Q / / / / Q I J J I Q / ( ( ( / I J J G G I / Q Q / ( / ] ( / Q Q Q / ( / / / / / ( / Q Q I I I I J J G J / ( / J C G J C I I J J J I Q / / ( / Q / ] ( Q I I / ] ..] ( ] ] ..+...] / / Q / / ( ] ] ( / Q / ] ] ( ] ] ( ..+.#.+.........] ] ] ] ] ....+...] ( ( ] +.#.#.#.+.+.+.+.......+.+.+.+.+.#.+.+.+...+.#.+.+.#...] ] ] ] +.#.#.-.+.] / ( +.#.#.+.....+.+.......+...+.+.#.+...+.#.;.-.;.-.-.-.#.+.#.#.#.+.+.+.+.+.#.#.#.#.+.] / Q / ( ] ] / Q / ( ..( ] I Q / I / ( ] +.../ / ] ( / I Q Q Q Q I J I I I I I I I I I I G J / / Q ( / ( ( ( ( ( ] ] ..] ( ] ] ] ] ] ..] ] ] ( / ( ] ] ............+.#.#.#.#.#.#.#.#.#.#.#.#.#.#.+.#.+.............................] ] ( ( ( ] ..] ] ] ] ] ] ] ] ] ] ..] ........] ] ( ( ( ( ( ( ] ] ..] ] ] ] ] ] ] ( ( ( ( ( ] ] ( ( ] ( ] ..] +.+.+.....+.+.........................+.+.+.........+...] / / / Q Q Q Q Q I Q Q Q Q I / / Q J J C k G / ( I G Q ..#.#.-.;.-.-.;.;.-.+.] ( ( ( ( ( ( ( ( ( ] ] ] ] ] ] ........] ] ......] ] ] ..] ] ..+.+...................................] ] ] ..] ] ......] ] ..+.....#.+...] ......+.+.+.#.-.-.#.#.#.#.#.+...] ( ( ] ..+.+.+...................#...+.#.+.......] ..+...( ..-.u z ",
"J G J G G J Q I Q J J J I Q Q I Q I J G C G G J J J J J G G C C C J I I I I I J Q I I J J J J J J I I J I I J J G G G G G C C C N C J C m z z N z N N m z z m N C C G G C J Q I G C C J Q Q I I I I I Q I J G G G J I I I I I J J G I J G I J J I I I I I J I J J J I Q Q Q / ( ( / Q I Q / ( / I I Q Q Q Q / ( ( ( ( ( ( ] ( ( ( ( ] ] ( ( ( ( ( / / / / ] ] ] ( / Q / / ( ( / / / ( ( ( ( ( ] / / ( ( ( ( ( ] +...+...] ] ] ( ....] ( ( ( ( ( / / ( ( / Q I I Q Q / / / / ] ..] ( ] / ] ] / / I Q ] +.( / ] ( ( ( / / Q J G G G G G G G G C C G G N C I I I ( ] ] ] ] ] ] ......] ] ....] ( ( ( ( ] +.....+.#.+...( ] ..] ..-.;.3.3.3.3.;.;.;.;.3.;.;.3.3.;.;.-.-.-.-.-.#.#.-.-.-.-.#.#.#.#.#...#.#.#...] ..+.......+.+.............+.+.+.+.+.+.+.+...] ] ] ] ..........+.+.....+.+.....+.+.....+...] ....+.#.........+.+.+...................] ] ............+...] / / / / Q / Q Q Q Q Q Q Q I I / / I Q I k C / +.] / ( ..+.#.;.;.#.......] ....] ( ] ..] ] ] ..............] ....] ] ] ] ] ] ] ] ( ( ] ....+.-.;.-.#.#.-.;.-.-.-.-.-.-.-.-.;.;.;.-.#.#.-.;.3.4.4.3.#...] ] ] +.;.8.e.8.3.;.;.-.-.-.-.;.3.3.-.-.;.;.;.-.#.#.-.;.3.3.;.-.-.;.;.-.#.-.-.-.-.;.;.#.-.3.;.;.-.#.+.-.#.+.....3.k z ",
"C C G C m C J G J C C G G J J C G G C C C C C C C C G C C G G C C C G G J I I J J J G G G G G C C G J G C N m z m N C C C m z z m m m z k d k z k m m z z z z m m z m m z N G N N N N C C C C G G C C C C C N N N G J J G G G G J C G G C J G C J G G G G G G G G G G G G C J I J J G C G J J G J J J I J J I I Q Q Q Q Q Q Q Q Q / ( ( / / / / / Q / Q I / ( Q Q I Q / / Q Q Q Q Q Q / / Q Q / Q Q Q / / Q Q / / / ] ( Q / Q / ( / Q Q Q Q Q / Q Q Q Q Q Q Q Q / / ( ( / ( ( ....] ....+...] / Q I ] #.] ( ] ( Q ( Q Q I C C G G G C C C C C G G C m N J G G / ( / ( ] ] ] ] ..] ( / ( ] ] ....+...........+.#.#.3.;.#.-.-.#.-.4.8.8.8.8.4.4.4.4.8.8.8.e.8.3.3.;.;.3.3.3.;.;.3.;.;.;.-.-.;.-.-.-.;.3.4.8.4.;.-.+.+.+.#.#.+.+.+.#.+.+.#.#.+.+.+.#.#.#.#.#.+.#.#.#.+.....+.+.+.........] ..+.+.....+...+.+...+.+.......+.#.;.-.+...+.+.+.+.+...+.......+.+.#.#.#.-.#.+...] ] ] ( ] ] ] ] ] ] ......( ..] ] #.] z z / ;.;.#.+.+...#.;.3.;.#.#.#.#.+.-.#.#.;.;.-.-.-.-.-.-.-.-.-.-.-.#.#.#.#.+.+.+.+.#.+.......+.-.;.3.;.-.-.;.;.-.4.4.4.4.4.4.8.8.4.4.3.;.-.-.3.4.8.s.k.s.8.4.3.;.;.4.y.y.s.s.y.e.e.8.4.4.3.4.4.4.;.;.4.4.3.;.;.3.4.8.8.4.3.3.4.8.y.8.4.4.3.3.3.3.3.-.;.4.8.4.;.-.#.3.-.-.#.+.e.m k ",
"k m C m k m C m m C m N C N N N N C N m m N N m N m m m m N C G G G G C G I I G J J J I J J J J J G N N m k k k d z C m d k k t d u k d u d u d u d k k k k k k z k k m m N N m N N N m m m N N N N N N C C N m N C G J J G G J G J J G G J G G J J J J J G G J J J J J G C G G J J J J I Q Q Q Q I J J I J J I I I J J J J I J J Q ] ] / Q Q / Q / / Q / / / / Q Q Q / Q Q Q Q / / / ( / / Q / Q Q Q Q / Q Q Q Q Q Q Q Q Q Q Q / / / Q Q / / Q / / / ( ( ( / / ( ( ( ] ( ( ] +.....+.+.....+...Q ] ] +.+.+./ Q / / I Q Q C C G N I N C G C G J J C N G G G I ( / / ( ( ] ] ..+...+.+.........] +.-.;.3.;.;.3.;.-.-.-.-.3.;.3.e.y.y.e.e.y.e.8.8.e.y.y.e.y.y.e.8.3.3.4.4.4.8.8.8.4.4.3.3.4.4.4.3.;.3.e.z.v.z.k.8.-.-.-.;.3.;.-.-.-.-.-.;.-.-.-.-.-.#.+.+.+.#.-.-.;.-.-.#.#.-.;.-.+.+.#.#.+.#.#.#.+.+.+.+.+.+.+.+.+.+...;.8.s.8.;.#.-.-.#.#.-.-.-.#.#.-.-.;.;.;.;.;.3.;.;.;.#.#.+.#.-.+.+.-.#.#.-.-.;...-.#.+.;.G N / ;.3.;.;.#.+.-.3.8.8.4.3.4.4.4.4.4.8.e.s.y.e.e.e.8.8.e.e.8.4.8.4.4.4.3.3.3.;.3.;.-.#.#.-.4.y.k.y.e.8.4.4.4.4.e.s.s.s.s.s.s.s.s.s.y.8.4.8.e.s.k.k.k.k.k.k.s.s.k.k.k.z.v.v.v.z.k.s.y.y.y.s.s.s.8.8.8.8.8.4.4.8.8.4.4.8.8.4.8.y.s.y.8.4.3.3.3.3.4.4.8.s.s.s.y.e.8.4.4.8.8.4.k.N k ",
"k k z z k z m k z N m N C m z z z m z z z m m m z z z z z m C C G G G G C G J C N C C C C J G N m C C m z z k u k u t d z d u k k d u t t t 6 0 u u u u d k k k z k k m N N m z N m N N N N N m N N C N m m m N N C G J J J J J G J J J J J J J I J J J J J J J J J J J G G J I J J J J J I I J J I I I I J I / Q Q J I I J I I I Q ( ( / / / / / ( ( ( ] ] ( / / / / / / Q / / ( ( ( ] ] / / / Q Q Q Q / / / / I Q Q Q Q Q Q Q / / / / / ( ( ( ( ( ( ( ( ] ] ] ] ] ] ] ] ] ..+.+...+.+...+.#...( ....+.+.+.] ( / / I Q Q J J G N G Q J C J G J I C N G J J I ( / ( ( ] ..+.+.#.#.#.#.+.#.#.-.-.#.-.-.;.-.-.;.-.;.4.4.4.y.y.e.e.s.y.y.s.y.y.e.e.e.y.y.y.s.k.s.y.e.e.y.y.y.y.y.y.y.y.e.e.y.y.s.s.s.y.y.z.z.k.k.y.8.8.e.e.e.8.8.8.8.4.4.8.4.4.4.4.8.8.e.e.8.4.8.8.4.4.4.4.8.8.e.4.4.4.4.4.4.4.8.4.4.4.4.4.4.4.8.8.;.3.;.4.s.v.s.8.-.;.;.;.3.3.3.3.;.;.;.3.4.4.4.4.8.8.3.4.3.-.-.#.-.-.-.#.-.-.#.-.#.-...-.#.#.3.( ] I ..-.;.;.-.4.3.8.e.e.8.4.4.8.8.e.s.k.z.B.v.z.k.k.s.s.y.y.e.8.4.4.4.4.3.3.3.3.3.;.-.-.3.e.z.S.K.F.S.B.v.z.z.z.v.B.S.S.B.S.S.B.S.S.S.B.v.v.B.S.F.F.F.F.F.F.S.S.B.B.S.S.F.F.S.S.S.S.B.v.v.B.B.B.k.k.k.k.s.y.e.y.s.k.z.B.v.z.z.z.v.v.z.k.k.k.k.k.s.s.z.B.v.v.v.z.k.k.k.k.k.s.S.I z ",
"C m m N N N N N N C N C G C N N z k k z N C C C G C N m N m N J G J I I J I I I I Q I J J I J C m G I G m z k k u z m m C N z N m m z u k z u t k d d d k z z z k k z m N C C m m m N G J J G G C G G G C N N N m m N C G G G G G J J J J J I J Q I I I I J J I J J J J G G J I J J J J I I J J G I Q I I I Q ( ( ( Q / / / / / Q / / ( ( ( ( ( ( ] ] ( ..] ( ( ( ( ( ( ( ] ] ] ] ] ] ..] / Q I Q Q I I Q Q Q Q I I Q I Q Q Q I Q Q / Q / ( ] ] ] ] ] ] ] ..................+.#.+...+.+...+.+.........+.] ..] ( ..../ / Q Q Q J C N ..G m ( Q / Q Q I N m G Q #...+.#.-.3.4.4.8.y.8.4.8.8.8.e.y.y.e.e.s.s.e.y.e.4.s.z.k.k.k.s.s.k.z.z.v.v.z.z.v.z.z.k.s.k.z.z.z.z.z.z.z.z.z.z.z.z.k.k.z.z.v.B.B.S.v.z.v.z.k.z.k.z.v.v.z.z.z.z.v.v.z.z.z.k.s.k.s.e.8.4.4.8.y.k.s.e.8.8.e.y.y.y.8.e.8.e.e.8.8.8.8.8.8.8.8.8.8.8.8.e.8.e.8.z.K.F.S.4.3.3.4.4.3.;.;.3.3.4.8.e.8.8.4.4.8.4.8.8.4.4.3.;.;.-.-.;.-.#.-.#.#.+.-.#.+.;.#.+.J ..#.;.3.3.y.s.k.z.z.z.z.z.z.z.B.S.F.F.K.K.K.S.S.B.B.B.v.z.z.z.z.z.z.k.k.k.k.s.s.s.s.k.B.S.F.K.K.K.K.F.F.S.S.F.K.K.K.K.K.K.K.K.K.K.F.F.F.F.K.K.K.K.K.K.K.K.K.K.K.K.K.K.K.K.K.F.F.F.S.S.S.S.S.S.S.S.S.B.B.B.B.B.B.F.F.F.S.S.S.B.v.v.v.v.z.z.v.v.v.B.S.S.B.S.B.B.B.B.S.B.v.U./ k ",
"/ I J J I I I I Q I G N G Q / Q C m z G / ( / Q Q Q I / Q N N Q Q Q ( ( / / ( ( Q Q / ( ( / Q Q Q I Q ] ..( J m t N J G J J J G J J J m m G C z m z z m C C N m k m N N G I J J J J J Q Q I I Q Q Q / / / Q I J J J J I Q Q Q Q I I Q Q Q Q / / / Q Q Q Q Q Q Q Q Q Q Q Q I Q Q Q Q Q / / / Q I I I J I / Q / ] ..] / ( ( ( ] ] ( ] ] ] ..] ] ] ] ..] ] ..] ] ] ..+.+.........] ] ] ] ] ] ( / Q / Q Q Q Q Q Q Q / Q Q Q / / / / Q / / Q / / ( ] ] ] ] ............] ] ] ......+.] ] ............+.+.#.-.#.#.#.+.+.+...( Q / Q J m k Q u d / I I I / I u u G ] 3.3.4.8.e.y.s.s.s.k.k.k.z.v.v.z.z.k.s.z.K.U.S.v.k.s.B.F.S.B.B.S.F.B.B.S.F.S.S.S.F.F.S.B.v.v.B.B.B.B.B.B.B.B.B.B.B.B.B.B.B.B.S.F.F.K.F.S.S.B.z.v.z.z.v.B.v.v.v.B.B.B.v.B.B.v.v.v.z.s.y.e.8.y.v.S.B.z.s.s.z.v.v.k.y.8.4.e.e.e.8.e.e.e.e.e.y.e.e.e.e.y.8.e.4.k.S.F.F.y.8.4.4.4.3.;.3.3.3.4.8.8.4.4.4.4.4.4.e.y.y.s.y.8.3.-.-.-.#.#.#.#.#.#.#.#.+.#.;...G -.;.;.3.8.k.S.F.F.K.K.K.K.F.S.F.K.F.F.F.K.K.K.K.F.K.K.K.K.K.K.K.K.K.K.K.U.U.U.U.U.K.U.R.U.K.F.K.K.U.K.K.K.K.K.K.K.K.K.K.K.K.K.K.F.F.K.F.F.F.K.K.K.K.K.K.F.F.K.K.F.F.K.K.K.F.F.F.K.F.F.F.F.S.S.S.S.S.S.S.S.S.S.S.S.B.B.S.S.S.B.v.v.B.B.z.k.v.v.z.B.B.v.v.B.S.S.B.S.S.S.v.U./ d ",
"] ( Q I I / / ( ] Q G G Q ] ..../ I J / ....] ] ] ] ( ( / I ( 3.s.s.k.k.y.y.s.s.s.s.s.s.e.-.( I I Q +.8.z.k.8.;...Q I Q Q I I I J J Q J N J J C m z m N G J G C m G J I Q Q Q Q Q / ( ( ( Q Q ( #.#.#.#.#.#.#.+.+.+.+.+.+.+...........+.+.+.+.#.#.+.+.+.#.+.+.#.#.#.#.#.+.+.+.+.+.+.+.#.#.#.+.+.+.Q J / +.+...+.#.+.( ( ( ( +.#...+.#.#.#.+.+.#.#.#.+...] ( ( ..-.-.-.+...] ( Q Q Q / ( ..+.+.+.+.+.+.+.+.+.+.+.#.#.#.#.#.#.#.#.+.#.#.+.+.#.-.-.-.-.-.-.-.-.-.#.#.#.#.#.-.-.-.-.-.3.3.3.4.4.4.8.4.3.8.4.3.;.-.+.] ..+.] Q Q Q J G G I u m ] I G ( ] Q C ( e.s.z.k.k.z.z.v.z.z.z.v.S.S.F.K.U.F.v.s.8.4.k.S.S.S.B.B.B.B.S.S.S.S.B.F.F.F.K.F.F.S.S.S.F.F.F.F.F.F.S.S.F.F.S.S.S.S.S.F.F.F.F.F.K.K.K.K.K.F.K.F.B.v.v.z.B.B.B.v.B.B.v.B.v.B.B.B.S.F.S.B.S.F.S.B.S.K.F.B.v.B.K.K.F.B.k.s.s.k.v.z.z.v.v.v.v.B.B.B.B.B.B.S.B.F.S.K.F.S.F.z.k.s.s.s.y.y.y.e.e.8.8.4.3.8.e.e.e.8.y.k.z.B.B.k.8.;.-.-.-.-.-.+.#.#.#.-.;.;.3.#.C #.;.;.3.s.K.K.K.K.K.K.K.F.F.F.F.F.F.F.F.K.K.K.K.K.K.K.K.K.K.K.K.K.K.K.K.U.U.F.K.F.F.F.K.U.K.K.U.U.R.U.K.K.K.K.K.K.K.K.K.K.K.K.K.K.K.K.K.K.K.K.K.K.K.K.K.K.K.K.F.F.F.F.F.F.F.F.K.K.K.F.F.F.F.F.F.F.F.S.S.S.S.S.F.F.S.B.S.S.B.S.B.B.S.S.v.z.B.v.v.v.B.v.v.B.S.S.B.S.S.B.v.U./ k ",
"....( Q / ] ......J J / ] ] ( ] ] ( ( ] ] ( ] ..-.;.#.....;.y.B.F.S.F.F.S.S.S.S.S.F.S.B.B.v.y.3...4.z.B.S.S.S.F.v.3...] I G C C C C ( ..Q I J J G C N C J J J G C I Q Q / Q J I Q ] ....../ Q ( #.#.-.-.#.-.3.8.8.4.4.4.8.4.4.4.8.8.4.8.8.8.8.e.y.e.8.e.e.e.e.y.e.e.8.e.8.8.8.8.e.e.e.y.s.y.y.e.8.+./ +.8.e.4.4.4.3.#.+...+.3.4.4.8.e.e.e.8.e.e.y.y.e.4.;.-.-.3.e.e.8.4.3.;.-.+.+.+.#.-.4.e.y.s.s.s.s.k.k.k.k.s.s.s.s.k.k.s.s.s.s.k.k.s.s.k.k.k.k.k.k.s.s.s.k.k.k.k.k.k.k.k.k.k.z.B.S.S.F.F.F.K.K.F.K.S.B.z.s.e.-.....( I I I I G I G u m Q J C I Q / -.z.F.S.B.F.F.F.F.F.F.S.S.F.U.U.K.U.R.F.z.y.;.#.e.v.B.F.S.U.F.F.U.K.F.F.F.K.F.K.K.K.K.F.F.F.F.F.F.F.K.K.K.F.K.K.F.F.F.F.F.K.K.K.K.U.U.U.U.U.U.K.U.K.B.B.S.B.B.S.B.B.v.v.v.v.z.v.v.B.F.U.U.F.K.R.U.K.K.U.K.F.S.S.F.K.F.F.B.S.S.F.K.F.S.F.F.F.F.K.K.K.F.F.F.F.F.F.K.U.S.S.K.F.S.S.S.S.S.B.B.S.B.B.z.s.e.e.e.y.s.s.v.S.S.K.K.B.e.;.;.-.-.;.;.#.-.#.#.-.;.3.3.#.J +.#.-.y.S.R.F.F.F.K.K.F.F.F.K.K.K.K.K.K.U.U.K.K.K.K.K.K.K.K.F.F.F.F.F.F.K.K.K.U.U.U.U.U.U.U.K.K.U.U.K.K.K.K.K.K.K.K.K.K.K.K.K.K.F.F.K.K.K.K.K.K.K.K.K.K.K.K.K.F.F.F.F.F.F.F.F.F.K.F.F.F.F.F.K.K.K.K.F.F.F.F.F.F.F.S.S.S.S.B.S.B.B.S.S.v.v.B.B.v.B.B.z.z.B.B.S.B.S.B.B.v.U./ k ",
"..#.+.] +.#.+.+...I / ] ....] ( ..........+.-.;.4.8.e.y.k.v.B.B.B.v.S.S.B.B.B.B.S.F.F.S.F.U.K.S.S.F.F.F.S.B.B.B.K.S.v.e.;.#...] ( ] #.#.../ J I Q I I J I I I I G I J J Q I G I ] #.;.;.-.+.( ..-.;.;.;.;.3.e.s.v.z.z.v.v.v.v.v.z.z.z.z.z.z.z.v.v.z.k.k.z.z.z.v.z.z.z.z.z.z.z.z.v.v.B.B.S.S.B.B.v.y.4.y.B.B.z.z.z.z.y.e.e.e.z.v.B.S.F.F.F.F.F.F.F.K.F.S.B.z.z.v.F.S.S.S.S.B.B.B.v.v.v.B.S.K.K.K.K.K.K.K.K.K.K.K.K.F.F.K.K.F.F.K.K.K.K.K.K.K.U.K.K.K.K.K.K.K.K.K.K.U.U.U.U.U.U.U.F.U.U.U.R.R.U.R.U.U.U.K.R.K.K.F.e.+.] / J J I I G I I N N I J J I / #.v.U.F.K.K.U.U.U.U.U.U.U.K.K.U.K.K.K.F.v.e.3.#.-.k.F.F.F.B.F.S.F.K.K.K.U.U.K.U.U.R.U.K.K.U.U.K.K.F.F.K.K.U.K.U.K.K.K.K.K.K.K.U.U.U.U.K.U.U.U.U.K.U.U.S.B.F.B.v.v.z.z.z.z.z.z.z.z.v.B.F.U.U.U.K.K.K.K.U.U.K.K.F.F.F.F.K.U.K.K.F.K.U.F.S.S.F.F.K.K.F.F.F.S.S.S.K.B.K.K.F.K.U.K.K.K.K.K.K.F.F.K.K.K.K.F.B.z.k.k.z.v.F.K.K.K.K.B.8.;.;.-.-.;.;.-.;.+.#.-.-.3.;.+.I ( ] -.v.U.F.F.F.F.K.K.K.K.K.F.K.K.K.K.F.K.K.K.K.K.K.K.K.K.U.K.K.K.K.K.K.U.U.U.U.U.R.U.U.K.K.K.K.U.U.U.K.K.K.K.K.K.K.K.K.K.K.K.K.K.K.K.K.K.K.K.K.K.K.K.K.K.K.K.F.F.F.F.F.F.F.F.K.K.F.K.K.K.F.F.F.F.F.F.F.F.S.F.F.S.B.B.B.S.S.S.B.B.S.S.B.B.S.B.v.B.B.z.z.v.v.B.B.B.B.B.B.U./ k ",
"..+.+.+.-.-.+.+...( +.....-.+.] ....+.-.3.8.y.y.k.e.y.B.K.F.S.S.S.S.K.K.F.S.S.F.F.F.U.U.K.F.F.F.F.S.S.F.S.v.v.S.v.U.U.F.F.S.z.k.y.k.8...( / G J / Q Q Q Q Q Q I J J C C I J J Q ( -.3.4.y.e.8.y.z.z.z.z.v.S.F.K.K.K.F.K.F.F.F.K.F.F.F.F.F.F.F.K.K.F.S.S.S.F.F.F.F.S.S.S.S.S.S.S.S.S.F.F.K.K.F.S.F.S.B.S.U.U.K.S.F.K.S.F.S.S.K.R.K.U.U.U.U.U.U.U.U.U.U.R.U.K.F.K.R.U.K.U.U.U.R.!.R.R.U.U.R.!.R.U.U.U.U.U.U.U.U.U.U.U.U.U.U.U.U.U.U.U.U.U.U.U.U.K.U.U.U.R.R.U.U.U.U.U.R.U.U.U.R.U.U.R.U.K.U.U.F.K.K.K.K.S.U.K.K.K.y.../ / Q Q J J J / +.] J Q Q Q ( #.8.K.!.F.!.!.U.U.K.K.K.K.F.F.U.U.K.K.K.S.k.e.-.....8.z.S.U.U.!.K.K.K.K.K.U.F.U.R.R.R.U.K.F.K.K.K.U.R.R.U.U.K.U.U.U.U.U.U.U.U.R.R.U.U.K.K.K.U.K.U.F.K.U.S.S.F.S.B.z.z.z.z.z.v.v.B.S.F.F.U.R.R.U.K.U.U.F.F.F.F.S.S.K.K.F.K.U.F.K.F.K.U.F.S.F.K.K.U.U.U.U.U.U.U.U.(.K.!.R.K.U.F.F.K.K.F.F.K.K.K.F.S.S.F.K.K.K.K.F.K.F.F.F.F.K.K.B.8.;.;.;.;.3.3.;.-...#.#.-.4.3.#.J I ] -.z.F.F.F.F.F.F.F.F.S.F.K.K.U.K.K.K.K.U.K.K.F.F.F.F.F.K.K.K.K.F.K.K.K.K.K.F.S.F.K.K.U.R.U.U.U.U.U.K.K.K.K.K.K.K.K.K.K.K.K.K.K.K.F.F.F.F.K.K.K.K.K.K.K.K.K.K.F.F.K.K.K.K.F.F.F.F.F.F.F.F.F.K.K.F.F.K.F.S.F.S.S.S.F.F.S.F.S.B.B.B.S.B.S.S.S.B.B.B.v.v.B.B.v.B.B.B.B.B.R./ k ",
"+.+.+.#.-.-.#...+.+.-...+.-.+.+.-.;.4.8.s.v.B.B.B.S.F.K.K.F.B.B.B.S.F.K.F.S.S.F.S.F.K.U.U.K.K.F.F.S.S.S.S.F.F.K.B.v.v.B.S.F.F.F.K.F.z.4.+.] Q J / ( ( / Q ( ( Q Q Q C G J I J Q ] -.-.e.B.B.S.F.K.F.S.F.F.F.K.U.R.U.K.K.K.U.U.K.K.U.U.U.U.U.U.U.R.U.K.K.K.U.U.U.F.U.K.U.U.F.K.K.F.F.F.F.F.F.F.F.F.K.U.U.K.K.K.F.K.K.U.U.K.K.U.R.U.K.K.K.K.K.K.K.K.K.K.U.U.U.K.F.K.K.U.U.U.K.K.K.F.K.K.U.K.K.K.K.U.K.K.K.K.K.K.F.K.K.K.K.K.K.K.K.K.U.U.K.U.U.U.K.K.K.K.K.K.K.K.K.K.K.K.F.F.F.F.F.F.U.K.F.K.K.K.F.F.K.R.F.R.R.U.R.e.( ( / Q I I J J ( #.#./ I I I ] ;.3.F.R.F.U.K.K.K.U.K.K.U.U.K.R.F.K.U.U.S.s.3.#.-.;.s.v.S.U.U.R.R.R.!.R.R.R.R.R.U.R.U.K.K.K.R.R.R.R.R.R.U.U.U.U.U.U.U.U.U.U.U.R.U.R.U.K.U.U.U.U.K.K.U.U.F.F.F.S.B.v.v.v.B.B.B.S.F.K.K.U.R.R.R.F.K.K.F.F.K.U.K.F.F.K.U.U.U.U.K.K.K.U.U.U.U.U.U.F.K.K.K.K.K.K.K.U.K.B.F.K.F.U.F.K.K.K.K.K.K.K.K.U.K.K.K.F.S.S.F.K.K.K.F.F.K.K.K.v.e.;.3.;.#.-.3.;.3...+...;.8.4.-.J J ] +.y.U.F.K.K.U.K.K.K.K.K.K.K.K.K.K.K.K.K.F.R.U.U.U.K.K.U.K.K.U.U.U.U.U.U.U.U.U.R.R.U.U.R.U.U.U.U.U.K.K.K.U.K.K.K.K.K.K.K.K.K.F.F.F.F.F.K.K.F.K.K.K.K.K.K.K.F.F.K.F.F.K.K.K.F.F.F.F.F.F.K.K.K.K.K.K.F.F.F.F.S.S.S.F.K.K.K.F.B.B.B.S.B.B.S.v.B.S.S.B.v.B.B.v.B.B.B.B.v.R./ k ",
";.#.+.+.#.#.+.+.....-.#.+.#...+.e.s.z.v.S.F.F.S.F.F.K.K.K.K.K.K.S.F.K.K.F.F.F.K.U.U.K.F.F.F.K.K.K.K.F.F.S.S.S.S.S.B.S.S.S.B.B.S.S.S.v.y.3.../ Q / ( ] ] ( ] ....../ J I I Q I Q ] -.3.y.S.K.F.S.F.F.S.F.K.K.U.U.R.U.K.K.K.K.K.K.F.K.K.K.K.K.K.K.K.K.F.F.F.K.K.K.F.K.F.K.U.F.F.F.F.F.F.F.F.F.F.F.K.K.K.K.F.F.S.S.F.K.U.U.U.K.K.K.K.K.K.K.K.K.K.K.K.K.K.K.U.U.K.K.K.K.K.K.K.K.K.K.K.K.K.U.K.K.K.K.U.U.K.K.K.K.K.K.K.K.K.K.K.U.U.K.K.U.U.K.K.U.U.K.K.K.K.K.K.U.K.K.K.K.K.K.K.K.K.K.F.U.K.K.K.F.F.F.K.F.S.B.R.F.S.R.8.Q Q Q Q / Q J J / ..#.+./ Q / +.3.3.F.R.S.K.K.K.K.K.K.K.U.U.K.R.K.U.U.K.S.e.;...+.-.k.S.F.R.R.U.R.R.R.U.U.U.R.!.R.U.F.B.v.z.z.B.S.K.U.R.R.R.R.R.R.U.U.R.R.R.R.R.K.U.U.K.U.K.K.K.K.K.U.U.K.F.K.S.S.S.S.S.F.F.F.F.K.U.U.R.R.R.U.F.K.K.K.K.K.K.K.F.F.K.K.K.U.K.K.K.K.K.K.K.K.K.K.F.K.K.U.U.K.K.U.U.U.S.K.U.F.U.K.K.K.K.K.K.K.K.K.K.F.F.F.F.F.K.K.K.K.K.F.F.K.K.K.B.y.;.;.;.-.-.;.;.;.+.+.#.4.e.e.-.Q Q ] ] e.U.K.F.F.F.F.F.F.F.F.K.K.K.K.K.K.K.K.F.U.F.U.R.F.K.F.U.U.K.F.F.K.K.U.K.K.K.U.U.K.U.U.U.U.U.U.U.U.K.K.U.K.K.K.K.K.K.K.K.K.K.F.F.F.F.K.K.F.K.K.K.F.F.K.K.F.F.F.F.K.K.K.K.K.F.F.F.F.K.K.K.K.K.K.K.F.F.F.F.S.S.S.F.K.K.K.K.S.B.B.B.B.B.S.v.B.S.S.B.B.B.B.B.S.B.B.B.v.R./ k ",
"e.3.-.-.-.#.-.-.3.#.-.+.] +.-.e.v.B.F.K.K.F.F.F.F.F.F.K.K.K.K.U.K.K.K.K.K.F.K.K.U.U.K.K.K.K.K.K.K.K.F.F.S.S.S.B.B.B.S.S.S.B.B.S.B.S.S.v.y.#.( ] ] ( ] ] ( ] #.;.3./ I J G J I / ] 3.e.s.S.K.F.B.K.K.K.K.U.U.R.R.K.F.S.S.S.S.S.S.S.F.F.K.K.K.F.F.K.F.F.F.F.F.F.F.F.K.F.K.U.F.F.F.F.F.F.F.F.F.F.F.F.F.F.F.F.S.S.F.S.F.K.U.U.K.F.F.F.F.F.F.F.F.F.F.F.F.F.K.K.K.K.K.K.U.K.K.K.K.K.K.K.K.K.K.K.K.K.K.K.K.F.F.F.F.F.F.F.K.K.K.K.U.U.K.K.K.K.K.K.U.K.K.K.K.K.K.K.K.K.K.K.K.K.K.F.F.F.F.F.K.F.K.K.F.F.K.B.F.B.S.!.K.F.(.3.I Q ( ....( J Q I I ] ../ / +.-.;.-.S.R.S.K.U.F.K.K.K.K.K.U.U.U.U.U.K.F.B.4.#.#.#.;.z.S.B.F.F.U.R.R.U.U.U.R.R.U.S.B.k.s.y.8.8.s.v.F.U.U.U.U.U.U.U.U.U.U.U.U.U.U.K.U.F.S.F.F.S.F.S.F.K.K.K.K.K.K.K.K.K.K.K.F.F.S.F.K.U.R.U.U.K.F.K.U.K.K.K.K.F.F.F.F.F.K.K.K.K.K.K.K.K.K.K.F.F.F.F.K.U.K.K.K.K.K.U.F.U.U.F.U.K.K.K.K.K.K.K.K.K.K.F.F.F.K.K.F.F.K.K.F.F.F.F.K.K.F.k.3.-.;.3.3.;.;.#.#.-.3.8.8.e.+.Q / ] / 8.U.F.K.K.K.K.K.K.K.F.K.K.K.K.K.K.K.K.K.U.z.B.(.R.K.(.U.K.K.K.K.K.K.K.K.K.K.K.K.K.K.U.U.U.U.U.U.U.U.U.U.K.K.K.K.K.K.K.K.K.K.F.K.F.F.K.K.F.K.U.K.F.F.K.K.F.F.F.K.K.K.F.K.K.F.F.F.F.K.K.K.K.K.K.K.F.F.F.F.S.S.S.F.K.K.F.K.F.S.S.B.B.S.S.S.S.S.S.S.S.S.S.F.F.S.B.B.B.!.( k ",
"z.y.8.4.4.4.4.e.e.4.8.4.3.4.e.B.F.F.F.K.F.S.S.S.F.F.F.K.K.K.K.K.U.K.K.K.K.K.K.K.F.K.K.U.U.K.K.K.F.F.F.F.F.F.S.S.B.B.S.S.S.S.S.S.S.S.S.S.k.;...#.......] ( ( #.3.4.Q Q G k m Q ] 3.s.z.v.S.K.K.F.U.R.R.R.R.R.R.U.F.F.S.S.S.S.S.S.S.F.F.F.F.F.F.F.K.F.F.F.F.F.F.F.F.F.S.K.U.F.F.F.F.F.F.F.F.F.F.F.S.F.F.F.F.F.F.K.F.F.F.K.K.F.F.F.F.F.F.F.F.F.F.F.F.F.F.F.K.K.K.K.K.U.K.K.K.K.K.K.U.K.K.K.K.K.F.F.F.F.S.S.F.F.F.F.F.F.K.K.K.K.K.K.K.K.K.K.K.K.K.K.K.K.K.K.K.K.K.K.K.K.K.F.F.F.F.F.F.K.F.K.K.F.F.K.F.U.U.S.R.U.F.K.3./ ] +.-.-.] J Q J C I / I Q #.-.-.#.v.U.F.K.R.K.K.K.K.K.K.K.U.K.U.K.S.S.z.3.+.#.+.-.k.B.z.S.S.U.R.R.U.K.U.U.K.S.v.z.s.y.s.y.e.s.v.F.U.U.K.F.K.K.K.K.K.K.K.K.K.K.F.K.S.B.S.B.B.S.S.S.F.K.K.K.U.R.U.U.U.U.K.F.S.S.F.K.U.R.U.K.K.K.K.K.K.K.K.K.F.F.F.F.F.F.K.K.K.K.K.K.K.K.K.K.F.F.F.K.K.K.K.K.K.F.K.K.U.K.F.K.K.U.K.K.K.K.K.K.K.U.K.F.F.K.K.F.F.K.K.K.F.F.F.F.F.F.v.e.3.3.3.;.-.#...;.3.e.4.;.;.( Q / ] ( 8.R.S.K.F.F.F.F.K.F.F.K.K.K.K.K.K.K.K.F.B. XK.e.K.U.v.K.K.U.U.U.U.K.K.U.K.K.U.U.K.K.U.U.U.U.U.U.U.U.U.U.K.K.K.K.K.F.K.K.K.K.F.F.F.K.K.K.F.K.K.K.K.K.K.F.K.K.K.K.K.F.F.K.K.K.K.K.K.K.K.K.K.K.K.K.K.K.F.F.F.S.F.F.K.K.K.K.F.F.S.S.S.S.F.F.F.F.F.F.F.F.F.F.F.S.S.B.B.!.( z ",
"S.v.z.z.k.k.k.v.z.z.B.v.v.v.B.F.U.K.F.F.F.F.S.F.F.F.F.K.K.K.K.K.U.K.K.K.K.K.K.K.K.K.K.K.K.K.K.K.K.K.K.K.K.K.F.F.F.F.S.S.S.S.S.B.S.F.F.S.k.3.#.#.#.#.+.] / ] #.;.;.I / G t k ..3.8.s.z.v.B.S.B.B.U.R.!.R.R.!.R.U.F.F.F.F.S.F.F.F.S.F.F.F.F.F.F.F.F.F.F.F.F.F.F.F.F.F.S.K.U.K.F.F.F.F.F.F.F.F.F.F.F.F.F.F.F.F.F.F.F.S.S.F.F.F.F.F.F.F.F.F.F.F.F.F.F.F.F.F.F.K.K.K.K.K.K.U.U.K.K.K.K.K.K.F.F.F.F.F.F.F.S.S.F.F.F.F.F.K.K.F.F.F.K.K.K.K.F.F.K.K.K.K.K.K.K.F.F.F.F.K.K.K.K.K.K.K.K.K.K.K.F.F.K.S.F.K.F.S.K.B.F.!.R.R.e.+.+.+.-.#.] Q Q I G I / I / -.4.4.;.v.K.K.K.K.K.K.K.K.K.K.K.U.K.U.F.v.v.k.3.+.+.+.#.k.B.z.B.F.K.U.U.K.K.K.F.S.B.v.k.s.s.k.s.s.k.v.F.K.K.K.F.K.F.F.K.K.K.K.F.F.K.F.F.B.v.B.B.v.S.S.F.K.K.K.U.U.U.U.U.U.U.K.K.F.S.F.K.R.R.R.U.K.K.K.K.K.K.K.K.F.F.F.F.K.K.K.K.K.K.K.K.K.U.U.K.K.K.K.K.K.K.K.K.K.K.K.K.K.K.K.K.K.U.K.K.K.K.K.K.K.K.F.F.F.K.K.F.K.F.F.F.F.K.K.F.F.F.S.v.y.4.;.+.] ( ( ;.4.e.3...] / Q / ] ] e.!.F.K.F.F.F.F.F.F.F.K.K.K.K.K.K.K.K.F.F.R.I $ +.U.F.U.U.U.K.K.K.K.K.K.K.K.K.K.K.K.U.U.U.U.U.K.U.U.U.U.K.K.K.K.F.F.F.K.K.K.K.K.K.K.K.K.K.K.F.F.U.K.S.v.F.K.K.K.K.F.K.K.K.K.K.K.K.K.K.F.K.K.K.K.K.K.K.K.F.F.F.F.K.K.K.K.F.F.F.F.F.F.F.F.S.S.S.S.F.F.S.F.F.S.B.B.B.!.( k ",
"K.F.S.S.S.S.S.F.K.K.K.S.S.F.K.K.K.F.F.F.K.F.F.F.F.F.F.K.K.K.K.U.K.K.K.K.K.K.K.K.K.K.K.K.K.K.K.K.K.K.K.K.K.K.K.K.K.K.F.F.F.F.S.B.S.F.F.S.z.4.#.#.#.#.#.] / ..#.#.] J / G 0 m 4.y.k.s.z.B.S.F.S.B.F.U.R.U.U.R.R.U.F.F.S.S.S.S.S.S.S.S.F.F.F.F.F.F.F.F.F.F.F.F.F.F.F.F.S.K.U.F.F.S.F.F.F.F.F.F.F.F.F.F.F.F.F.F.F.S.F.S.F.F.F.F.S.S.F.F.F.F.F.F.F.F.F.F.F.F.F.F.F.F.K.K.K.K.U.K.K.K.K.K.F.F.F.F.F.F.F.F.F.F.F.F.F.F.F.K.F.F.S.F.K.K.K.F.F.F.F.F.F.F.K.K.K.K.K.K.K.K.F.F.F.F.F.F.F.F.K.K.S.F.K.F.K.K.K.F.!.K.S.S.K.R.e.#.-.+.#.#...( ] ( / Q / / +.4.s.s.e.B.K.U.K.F.U.K.K.K.K.K.K.U.K.K.S.z.z.k.3.+.#.+.-.k.B.z.v.B.F.K.K.K.K.F.S.B.z.k.s.y.y.k.s.s.v.B.F.K.K.F.F.K.F.F.F.F.F.F.F.F.F.F.F.B.v.S.B.B.S.F.F.K.K.K.U.U.R.U.U.U.U.U.K.K.F.K.U.R.R.U.U.K.K.K.K.K.K.K.K.F.F.F.K.K.K.K.K.K.K.K.K.K.U.U.U.K.K.K.K.K.K.K.K.K.U.K.K.K.K.K.K.K.K.K.K.K.K.K.K.K.K.K.K.K.K.F.F.K.F.F.F.F.K.F.F.F.F.K.F.z.8.+./ Q J / -.4.8.;.] Q / ( / ( ] 8.U.K.K.K.K.K.K.K.K.K.F.K.K.K.K.F.F.K.S.U.K.y.3.z.U.U.F.K.K.K.K.K.K.K.K.K.K.U.K.K.K.U.U.U.U.K.K.U.U.U.U.K.K.K.K.K.F.K.K.K.K.K.K.K.K.K.K.K.K.F.F.U.K.B.k.S.F.F.K.F.F.K.K.K.K.K.K.K.K.K.K.K.K.K.K.K.K.F.F.F.F.F.K.K.K.K.F.F.F.F.F.F.F.F.S.S.S.S.S.S.S.S.F.F.S.B.S.B.!.( d ",
"F.K.K.F.F.F.K.K.K.U.K.F.F.F.F.S.F.F.F.F.F.F.S.S.F.F.F.K.K.K.K.K.K.K.K.K.K.K.K.K.F.K.K.U.U.K.K.K.K.F.F.K.K.K.K.K.F.K.K.F.F.F.F.S.S.F.K.K.v.4.#.#.#.#.+...] +.#...Q J J N 3 C s.k.k.y.k.z.v.B.v.z.S.F.K.K.K.K.K.K.F.F.F.F.F.S.F.F.F.F.S.S.S.S.S.F.F.F.F.F.F.K.K.K.F.F.S.K.U.F.S.F.F.F.F.F.F.F.F.F.F.F.F.F.F.F.F.F.F.S.F.F.F.F.S.F.F.F.F.F.F.F.F.F.F.F.F.F.F.F.F.F.F.F.K.K.K.K.K.F.F.F.F.F.F.F.F.F.F.F.S.S.S.F.S.S.F.F.K.F.F.F.K.K.K.F.F.F.K.F.F.K.K.K.F.F.F.F.F.F.F.F.F.F.F.F.F.F.F.K.S.S.K.K.K.K.v.v.B.F.U.S.U.R.4.#.-.#.-.-.#.+.3.-.+.....+.3.y.v.z.y.B.U.R.U.F.U.K.K.K.U.U.K.K.K.S.B.v.z.k.3.+.....-.k.B.z.B.S.F.K.K.U.K.F.S.B.z.z.z.k.k.z.k.k.B.F.K.K.F.F.F.K.F.F.F.F.F.F.F.F.F.F.K.S.B.F.F.S.F.K.K.K.K.K.K.K.R.U.U.U.U.U.U.K.K.K.K.U.U.U.K.K.U.K.K.K.K.K.K.F.F.F.K.K.K.K.K.K.K.K.K.K.K.U.K.K.K.K.K.K.K.K.K.K.K.K.K.K.K.K.K.K.K.K.K.K.K.K.K.K.K.K.K.K.K.F.F.F.F.F.K.K.K.K.F.F.F.K.K.S.y.+.Q J J ( #.3.3.;...Q ( +.] ] ] ;.S.K.F.F.F.F.F.F.F.F.F.K.K.K.F.F.K.K.U.v.S.(.(.U.F.v.F.F.K.U.U.K.K.K.K.K.K.U.U.K.K.U.U.U.K.K.K.K.K.U.U.K.K.K.K.K.K.K.K.K.K.K.K.K.K.K.K.K.K.F.F.K.K.B.k.S.F.F.K.F.F.K.K.K.K.K.K.K.K.K.K.K.K.K.K.K.F.F.F.F.F.F.F.K.K.K.F.F.S.F.F.F.F.F.S.F.S.S.S.F.F.F.F.F.S.B.B.S.(.( k ",
"F.K.K.F.S.F.K.K.K.K.F.F.S.S.F.F.F.F.F.F.S.S.F.F.S.F.F.K.K.K.K.K.K.K.K.K.K.K.K.K.K.U.U.K.K.K.K.K.K.K.K.K.F.F.K.K.F.K.U.K.F.F.S.S.F.F.U.U.B.4.#.#.#.#.#.+.+.#.#.] I I C m , J z.k.s.s.z.s.y.k.k.k.S.F.K.K.F.F.F.F.S.S.S.S.S.S.F.F.F.F.S.S.S.S.S.F.F.F.F.F.F.F.F.K.F.K.F.U.U.F.S.F.F.F.F.F.F.F.F.F.F.F.F.F.F.F.F.F.F.F.F.F.F.F.F.F.F.F.F.F.F.F.F.F.F.F.F.F.F.F.F.F.F.F.F.F.F.F.F.F.F.F.F.F.F.F.F.F.F.F.F.F.F.F.F.S.S.F.K.F.F.F.K.K.K.K.F.F.K.F.K.K.F.K.F.F.F.F.F.F.F.F.F.K.K.F.F.K.K.K.S.S.K.K.K.S.z.s.#.e.U.K.U.v.8.#.-.+.-.;.3.3.y.4.3.3.3.4.e.s.B.v.y.B.K.U.K.F.U.K.K.K.U.K.K.K.K.B.B.v.z.k.4...+.+.-.k.v.z.B.B.F.K.U.U.K.S.B.S.B.B.B.z.z.v.z.z.S.F.U.U.K.F.K.K.K.K.K.K.F.K.K.K.K.F.K.F.S.K.K.F.K.U.U.K.K.K.K.K.U.U.U.U.R.R.U.U.K.K.K.U.U.U.U.U.U.K.K.K.K.K.F.F.F.F.F.F.K.K.K.K.K.U.U.U.K.K.K.U.K.K.K.K.K.K.K.K.K.K.U.K.K.U.K.K.K.K.K.K.K.K.K.K.K.K.K.K.K.K.K.K.F.F.K.K.K.K.F.F.F.F.K.F.s.+.Q I Q +.+.;.;.3.#./ ] -.+.+.] #.v.U.F.K.K.K.F.F.K.K.F.F.K.K.F.F.F.K.F.U.R.k.z.K.F.U.R.U.K.K.K.K.K.K.K.K.K.U.K.K.K.K.U.U.K.K.K.K.K.K.U.K.K.K.K.K.K.K.K.K.K.K.K.K.K.K.K.F.K.K.K.K.K.S.z.F.K.F.K.K.F.K.F.F.K.K.K.K.F.F.K.K.K.K.K.F.F.F.K.K.F.F.F.F.F.F.F.F.S.S.F.F.F.F.S.S.S.S.S.S.S.F.S.S.v.z.v.B.!.( k ",
"K.K.F.F.F.F.K.K.K.K.K.K.K.K.K.K.K.K.F.S.S.F.F.S.S.F.F.K.K.K.K.K.K.K.K.K.K.K.K.K.K.K.U.U.K.K.K.K.K.K.K.K.K.K.K.K.K.K.K.K.F.S.S.B.S.K.U.U.S.e.#.#.#.+.-.-.#.#.#.+.( C k d 0 / B.k.v.z.z.z.v.z.v.S.U.K.K.K.F.F.S.S.S.S.S.S.F.F.F.F.F.F.F.S.S.S.S.F.F.F.F.F.F.F.F.F.K.K.K.U.U.K.S.F.S.F.F.F.F.F.F.F.F.F.F.F.F.F.F.F.F.F.F.F.F.F.F.F.F.F.F.S.F.F.F.S.F.F.K.F.F.F.F.S.F.F.F.F.S.S.S.F.F.F.F.F.F.F.F.F.F.F.F.F.F.F.F.F.F.F.F.F.F.F.K.K.K.F.F.F.K.K.K.K.F.F.K.K.K.K.K.K.F.F.F.F.F.F.K.K.K.K.K.K.K.F.S.v.8.8.4.s.U.R.v.3.+.+.#.;.3.;.3.8.k.s.s.e.e.s.s.s.v.k.k.S.F.K.U.B.K.K.K.K.K.K.K.F.F.S.S.B.k.s.4.] #...#.k.S.v.B.B.F.K.U.U.K.F.S.S.S.S.S.S.B.B.B.v.F.K.K.K.K.K.K.K.F.K.K.K.K.K.K.K.F.K.K.F.F.U.U.F.U.K.K.K.K.F.K.K.U.U.U.U.U.R.U.K.K.K.K.U.U.K.K.K.K.U.F.K.K.F.F.K.K.K.S.F.U.K.F.K.K.U.K.U.K.K.U.K.U.K.K.K.K.K.K.K.K.K.K.K.K.K.K.K.K.K.K.K.K.K.K.K.K.K.K.K.K.K.K.F.F.F.F.F.K.K.F.F.F.K.K.B.z.;./ / ] ] 3.3.+.3.4.( ..#.#.+.] +.s.U.F.F.F.F.K.K.K.F.F.F.F.F.F.F.F.F.S.F.K.U.R.R.K.F.K.K.K.K.K.K.K.K.K.K.K.K.K.K.K.K.K.K.K.K.K.K.K.K.K.K.K.K.K.K.F.K.K.K.F.F.K.K.K.K.F.K.K.K.K.F.K.K.F.F.K.K.K.K.K.K.K.K.K.K.K.K.K.K.K.K.K.K.K.K.K.K.F.F.F.F.F.F.F.F.F.F.F.F.S.F.F.F.F.S.S.S.S.F.F.F.F.S.v.z.v.v.!.( d ",
"K.K.K.F.F.F.K.K.K.K.K.K.K.K.K.K.K.K.F.F.F.F.F.F.F.F.F.K.K.K.K.K.K.K.K.K.K.K.K.K.K.K.U.U.K.K.K.K.K.K.K.U.U.U.U.U.K.K.K.K.F.F.S.S.S.K.U.U.F.e.#.+.-.#.-.#.+.#.+.#.#.k 3 0 t ( B.z.B.v.v.v.v.v.v.B.F.F.F.K.K.F.F.F.S.S.S.S.S.F.F.F.F.F.F.S.S.S.F.F.F.F.F.F.F.F.F.F.F.K.K.U.U.K.S.F.F.F.F.F.F.F.F.F.F.F.F.F.F.F.F.F.F.F.F.F.F.F.F.F.F.F.F.F.F.F.F.F.F.F.F.F.F.F.F.F.F.F.F.F.S.S.F.F.F.F.F.F.F.F.F.F.F.F.F.F.F.F.F.F.F.F.F.F.F.F.K.K.K.F.F.F.F.K.K.K.F.F.F.F.K.K.F.F.K.K.F.F.F.F.K.K.F.F.K.K.F.F.S.v.;.#.e.F.K.U.F.3.#.#.;.;.;.;.-.-.e.k.B.z.s.v.k.e.z.k.z.S.F.F.K.S.K.F.F.K.K.K.F.F.F.F.B.v.z.e.-.+.-...;.z.S.B.S.S.F.K.U.U.F.F.S.F.F.F.F.F.S.F.S.S.S.K.K.K.K.K.K.K.F.K.K.K.K.K.K.K.F.K.K.F.K.U.U.K.U.K.K.K.K.K.K.K.U.U.U.U.R.R.R.U.K.K.K.U.U.K.K.K.K.U.K.K.K.F.K.K.F.F.K.F.F.U.K.K.K.U.F.F.K.K.K.K.K.K.K.U.K.K.K.K.K.K.K.K.K.K.U.U.K.K.K.K.K.K.K.K.K.K.K.K.K.K.K.K.F.F.F.F.K.K.F.F.F.K.K.S.z.3./ Q ] ( ;.;.-.4.3.....-.+.( ( #.k.U.F.F.F.F.K.K.K.F.F.F.F.F.F.F.F.F.F.F.F.K.K.U.K.F.K.K.K.K.K.K.K.K.K.K.K.K.K.K.K.K.K.K.K.K.K.K.K.U.K.K.K.K.K.K.K.K.K.K.F.F.K.K.K.K.F.F.K.K.K.F.F.K.F.F.K.K.K.K.K.K.K.K.K.K.K.K.K.K.K.K.K.K.K.K.K.K.F.F.F.K.F.F.F.F.F.F.F.F.F.F.F.F.F.S.S.S.S.F.F.F.F.F.S.S.S.B.!.( k ",
"F.F.K.K.K.F.F.K.K.K.K.K.K.K.K.K.K.K.K.F.F.F.K.K.F.F.K.K.U.U.K.K.K.K.K.K.K.K.K.K.K.K.U.U.K.K.K.K.U.U.U.U.U.U.U.U.U.U.U.U.U.K.K.F.F.K.K.U.F.y.#.+.;.;.3.;.;.-...+.( ] J z m ..B.R.K.F.F.K.K.F.S.S.S.S.F.K.K.F.F.F.F.F.F.F.S.S.S.S.F.F.F.F.F.F.F.F.F.F.F.F.F.F.F.F.F.K.K.K.U.F.S.F.F.F.F.F.F.F.F.F.F.F.F.F.F.F.F.F.F.F.F.F.F.F.F.F.F.F.F.F.F.K.F.F.F.F.F.F.F.F.F.F.F.F.F.F.F.F.F.K.F.F.F.F.F.F.F.F.F.F.F.F.F.F.F.F.F.F.F.F.F.F.F.K.K.K.F.F.F.F.F.K.F.F.F.F.F.F.F.F.K.K.F.F.F.F.F.K.F.F.F.K.F.F.F.S.z.y.S.(.F.K.F.;.#...8.e.8.s.y.3.4.8.k.z.v.v.k.y.k.k.z.S.F.S.F.F.F.F.K.K.K.K.F.F.F.F.v.z.B.8...-.-...3.z.B.S.S.F.K.K.U.K.F.F.F.F.F.F.F.F.F.F.F.S.S.F.K.K.F.F.K.F.F.K.K.K.K.K.K.K.K.K.F.K.K.U.U.U.U.U.U.U.U.U.U.U.U.R.R.U.U.R.U.U.K.K.K.U.U.K.K.K.K.U.F.K.K.F.K.K.K.S.R.F.S.K.F.K.K.U.R.U.U.S.S.(.F.K.K.U.K.K.K.K.K.K.K.K.K.K.K.U.K.K.K.K.K.K.K.K.K.K.K.K.K.K.K.K.F.F.F.F.F.K.K.F.K.K.U.F.v.4.( Q ....;.-.;.8.;.+...;.#.( ( 4.S.U.K.K.F.F.K.K.F.F.K.F.F.F.F.F.F.F.K.F.F.F.F.K.F.F.F.F.K.K.K.K.K.K.K.K.K.K.K.K.K.K.K.K.U.K.U.U.U.U.U.U.K.K.K.K.K.K.K.K.F.F.K.K.K.K.F.F.K.K.K.K.K.K.K.K.K.K.K.K.K.K.K.K.K.K.K.K.K.K.K.K.K.K.K.K.K.K.K.K.K.K.F.F.F.F.F.F.F.F.F.F.F.F.F.S.S.S.S.S.F.S.S.F.F.F.F.S.!./ k ",
"F.K.K.K.K.F.F.F.K.K.K.K.K.K.K.K.K.K.K.K.K.K.K.K.K.K.K.K.U.U.U.K.K.K.K.K.K.K.K.K.K.K.U.U.U.U.U.U.U.U.U.U.U.U.U.U.R.R.R.U.U.U.U.K.K.K.K.K.F.y.-.+.4.8.e.4.4.;.#.-.] y.;.J Q 4.F.R.U.K.K.U.U.K.F.S.S.S.F.F.K.F.F.F.F.F.F.F.S.S.S.S.F.F.F.F.F.F.F.F.F.F.F.F.F.F.F.F.F.K.K.K.K.F.S.K.F.F.F.F.F.F.F.F.F.F.F.F.F.F.F.F.F.F.F.F.F.F.F.F.F.F.F.F.K.K.K.F.F.F.F.F.F.F.F.F.F.F.S.S.S.F.F.K.K.F.F.F.F.F.F.F.F.F.F.F.F.F.F.F.F.F.F.F.F.F.F.F.K.K.F.F.F.F.F.F.F.F.F.F.F.F.F.F.K.K.K.F.F.F.K.K.F.F.K.K.F.K.K.F.F.S.F.F.K.R.F.;.] / e.z.k.S.z.e.e.4.e.k.B.B.k.y.s.s.z.B.F.S.S.F.S.F.K.K.K.F.F.F.S.F.v.z.B.4.] -.+.] 3.k.v.F.F.K.F.K.K.K.F.F.F.F.S.F.F.F.F.F.F.S.F.F.K.K.F.K.K.F.K.K.K.K.K.K.K.K.K.F.F.K.K.U.U.R.R.U.U.U.U.U.U.U.U.R.R.U.U.U.U.K.F.F.K.K.K.K.F.F.F.K.F.F.K.F.F.K.K.F.K.K.K.F.B.K.K.K.K.S.R.U.K.!.F.F.K.K.K.K.K.K.K.K.K.K.K.K.K.U.U.U.K.K.K.K.K.K.K.K.K.K.K.K.K.K.K.F.F.F.F.K.K.F.K.K.U.K.B.8.( Q ..+.;.#.;.8.#.#...-.#.] +.y.K.K.K.K.F.F.F.K.F.F.K.F.F.F.F.F.F.F.F.F.K.K.K.F.F.F.F.F.F.F.K.K.K.K.K.K.K.K.K.K.K.K.K.U.U.U.U.U.U.U.U.U.K.K.K.K.K.K.K.K.K.F.K.K.K.K.K.K.K.K.K.U.K.K.K.K.K.K.K.K.K.K.K.K.K.K.K.K.K.K.K.F.K.K.F.K.K.K.K.K.K.K.F.F.F.F.F.F.F.F.F.F.F.F.S.S.S.S.S.S.S.S.S.F.S.S.S.B.R.Q k ",
"F.K.K.K.F.F.K.K.K.K.K.K.K.K.K.K.K.K.K.K.K.K.K.K.K.K.K.U.U.U.U.K.K.K.U.U.U.K.K.K.K.U.U.U.U.U.U.U.U.U.U.U.U.U.U.U.U.U.U.U.U.K.K.K.K.K.K.K.F.s.;.+.3.8.8.;.3.8.e.s.e.8.-./ ( y.R.K.K.K.K.K.K.K.F.S.S.S.S.F.F.S.S.S.S.S.S.F.F.F.F.F.S.F.F.F.F.F.F.F.F.F.F.F.F.F.F.F.F.K.U.K.K.F.F.K.K.K.F.F.F.F.F.F.F.F.F.F.F.F.F.F.F.F.F.F.F.F.F.F.F.F.F.F.K.K.K.F.F.F.F.F.S.S.S.S.S.S.S.S.S.S.F.K.K.F.F.F.F.F.F.K.F.F.K.K.F.F.F.F.F.F.K.K.F.F.K.K.K.F.F.F.F.F.F.F.F.F.F.F.F.F.F.K.F.F.F.F.F.F.F.F.F.F.K.K.F.K.U.K.S.K.S.S.U.!.B.;.] / y.B.k.z.e.3.4.4.e.s.v.F.v.y.s.s.z.B.F.S.B.F.S.F.K.K.K.F.S.S.S.F.F.v.s.-...-.+.] 4.k.v.F.F.F.F.F.K.K.F.F.S.S.F.F.F.F.F.F.F.F.F.F.K.K.F.K.K.K.K.K.K.K.K.K.K.K.K.F.F.K.K.K.U.R.U.U.U.U.U.U.U.U.U.U.U.K.F.F.K.K.F.F.F.F.F.F.F.F.F.F.S.F.F.S.F.F.S.K.B.F.U.F.F.R.K.K.R.S.U.!.K.K.K.K.K.K.K.U.K.K.U.U.U.K.K.U.U.U.U.K.K.K.K.K.K.K.K.K.K.K.K.K.K.K.K.K.K.K.K.K.K.K.F.K.K.K.B.4./ I ] ..-.#.3.;.] #.#.-.+.] #.k.U.F.K.K.F.F.F.K.F.F.K.K.F.F.F.F.F.F.F.F.K.K.K.K.F.F.F.F.K.K.K.K.K.K.K.K.K.K.K.K.K.K.K.K.K.U.U.U.U.U.U.U.K.K.K.K.K.K.K.K.K.K.K.K.K.K.K.K.K.K.U.U.K.K.K.K.K.K.K.F.K.K.K.K.K.K.F.K.K.K.K.K.K.K.K.K.K.K.K.K.K.K.F.F.F.F.F.F.F.F.S.S.S.F.F.S.S.S.S.S.F.S.S.F.S.B.v.v.R./ d ",
"K.K.K.K.F.F.K.K.K.K.K.K.K.K.K.K.K.K.K.K.K.K.K.K.K.K.K.U.U.U.U.K.K.U.U.U.U.K.K.K.K.U.U.U.U.U.U.U.U.U.U.U.U.U.U.U.U.U.U.U.U.K.K.K.F.K.U.U.F.z.4...( #.;.#.;.k.B.F.k.e.;.( ] s.U.U.U.U.U.U.K.K.F.F.S.S.S.S.S.S.S.F.S.S.S.F.F.F.F.F.F.F.F.F.F.F.F.F.F.F.F.F.F.F.F.F.F.K.U.K.K.F.F.K.K.K.F.F.F.F.F.F.F.F.F.F.F.F.F.F.F.F.F.F.F.F.F.F.F.F.F.F.F.K.K.F.F.F.F.S.S.S.S.S.S.S.B.B.S.S.F.F.K.F.F.F.F.F.F.K.F.F.K.K.F.F.F.F.K.K.K.K.F.K.K.K.K.F.F.F.F.F.F.F.F.F.F.F.F.F.K.K.F.F.F.F.K.F.F.F.F.F.K.K.F.K.K.K.U.K.F.U.U.U.v.;.+...s.S.z.y.3.;.3.8.k.z.v.S.z.s.s.k.v.S.F.F.S.S.F.K.K.K.K.F.S.S.S.F.U.B.4.+.+.#.+.#.8.z.S.F.S.F.S.F.F.K.K.F.F.S.F.K.K.K.F.F.F.F.F.F.K.F.F.K.K.K.K.K.K.K.K.K.K.K.K.F.F.K.K.K.K.U.U.U.U.U.U.U.U.U.U.U.U.K.F.F.F.F.F.F.F.F.F.F.F.S.S.F.S.F.F.S.S.F.S.R.B.B.K.S.U.R.s.s.!.R.R.K.F.U.R.U.K.K.U.U.K.K.U.U.U.U.K.K.K.U.U.K.K.K.K.K.K.K.K.K.K.K.K.K.K.K.K.K.K.K.K.K.K.K.K.K.U.K.F.8.Q Q ( ] +.;.4...Q ;.4.-.] ( #.k.U.F.K.K.F.F.F.F.F.F.K.K.F.F.F.F.F.K.F.F.F.F.F.F.F.K.F.F.K.K.K.K.K.K.K.K.K.K.K.K.K.K.K.K.K.U.U.U.U.U.U.U.K.K.K.K.K.K.K.K.K.K.K.K.K.K.K.K.K.K.K.K.K.K.K.K.K.K.K.K.K.K.K.K.K.K.K.K.K.K.K.K.K.K.K.K.K.K.K.K.K.K.F.F.F.F.F.F.S.F.F.S.S.F.F.S.S.S.S.F.F.F.F.F.B.v.z.z.U./ d ",
"K.K.K.K.K.F.K.K.K.K.K.K.K.K.K.K.K.K.K.K.K.F.F.K.K.K.U.U.U.U.U.U.U.U.U.U.U.K.K.K.K.K.U.U.U.U.U.U.U.U.U.U.U.U.U.U.U.U.U.U.U.K.K.K.K.K.K.K.K.B.8.] C Q +.+.3.v.F.B.s.s.;.( -.B.K.K.F.K.K.K.F.F.S.S.S.S.S.S.S.S.S.S.S.S.S.F.F.F.F.F.F.F.F.F.F.F.F.F.F.F.F.F.F.F.F.F.F.K.K.K.K.F.F.F.K.F.F.F.F.F.F.F.F.F.F.F.F.F.F.F.F.F.F.F.F.F.F.F.F.F.F.F.F.K.K.F.F.F.S.S.S.S.S.S.S.S.B.B.S.F.F.F.K.F.F.F.F.F.F.K.F.F.F.F.F.F.F.F.F.F.F.F.F.F.K.K.F.F.F.F.F.F.K.K.K.K.F.F.F.F.K.K.F.F.K.K.K.K.F.F.F.F.K.K.F.F.K.K.F.F.F.K.F.K.S.y.#.;.k.F.v.e.4.e.s.k.S.F.S.v.k.s.s.s.S.F.S.F.F.S.K.K.K.K.F.F.F.S.S.F.U.S.e.-.-.+.#.4.y.v.F.S.S.F.F.F.F.F.K.K.F.F.F.K.K.K.F.F.F.S.F.F.F.F.F.K.K.F.K.K.K.K.K.K.K.K.K.K.F.K.K.K.K.U.U.U.U.U.U.U.U.U.U.U.U.K.F.F.F.K.F.F.F.F.F.F.F.F.F.F.S.F.K.S.S.K.F.U.F.F.F.S.K.U.4.+.S.R.!.R.K.K.U.U.K.K.K.K.K.K.K.U.K.K.K.K.U.U.K.K.K.K.K.K.K.K.K.K.K.K.K.K.K.K.K.K.K.K.K.K.K.K.K.U.U.U.U.8.I Q / ....;.8...] e.y.;.( Q +.k.U.F.K.K.F.F.K.K.K.K.K.F.F.F.F.K.K.K.F.F.F.F.F.F.F.F.F.F.F.K.K.K.K.K.K.K.K.K.K.K.K.K.K.K.K.U.U.U.U.U.U.U.K.K.K.K.K.K.K.K.K.K.K.K.K.K.K.K.K.K.K.F.F.K.K.K.K.K.K.K.F.K.K.K.K.K.K.K.K.K.K.K.K.K.K.K.F.K.K.K.K.F.F.F.F.F.F.F.F.F.F.S.S.F.F.F.S.S.S.F.F.F.S.F.B.z.k.k.U./ k ",
"F.K.K.K.K.K.K.K.K.K.K.K.K.K.K.K.F.F.K.K.K.F.F.K.K.U.U.U.U.U.U.U.U.U.U.U.U.K.K.K.K.K.U.U.U.U.U.U.U.U.U.U.U.U.U.U.U.U.U.U.K.K.K.K.K.K.K.F.F.S.e.] m I ..+.;.v.S.k.y.3.+.] -.B.U.F.F.K.U.K.K.F.F.F.F.S.S.F.S.S.S.S.S.S.S.F.F.F.F.F.F.F.F.F.F.F.F.F.F.F.F.F.F.F.F.F.F.K.K.K.K.K.F.F.F.F.F.F.F.F.F.F.F.F.F.F.F.F.F.F.F.F.F.F.F.F.F.F.F.F.F.F.F.F.K.F.F.S.S.S.F.S.S.F.S.S.S.S.S.F.F.F.K.F.F.F.F.F.F.F.F.F.F.F.F.F.F.F.F.F.F.F.F.F.K.F.F.F.F.F.F.F.K.K.K.K.F.F.F.K.K.K.F.F.K.K.K.K.F.F.K.K.K.K.F.F.K.K.S.U.K.F.K.R.U.v.#.3.k.B.k.4.3.e.y.z.F.B.v.S.B.k.y.y.S.F.S.K.F.S.K.K.K.K.F.F.F.F.F.S.F.F.k.8.;...+.e.k.B.K.S.S.F.F.F.F.F.K.K.K.K.F.K.U.K.K.F.F.F.F.F.F.F.F.K.K.F.K.K.K.K.K.K.K.K.K.K.K.K.K.K.U.K.U.K.K.K.K.K.K.U.U.U.U.K.F.F.K.U.K.K.K.F.F.K.K.F.K.K.F.K.K.S.F.K.F.B.K.!.K.S.K.U.z.e.[.R.F.U.R.F.F.F.K.K.K.K.K.K.K.K.K.K.K.K.K.K.K.K.K.K.K.K.K.K.K.K.K.K.K.K.K.K.K.K.K.K.K.K.K.K.F.U.K.U.R.4.G I Q +...-.4.#.4.z.s.;./ J ] s.U.S.K.K.F.F.K.K.K.K.K.F.F.F.K.K.K.K.F.F.F.K.K.K.F.F.F.F.K.K.K.K.K.K.K.K.K.K.K.K.K.K.K.K.K.K.U.U.U.U.U.U.U.K.K.K.K.K.K.K.K.K.K.K.K.K.F.K.K.K.K.F.F.K.K.K.K.K.K.K.K.K.K.K.F.K.K.K.K.K.K.K.F.K.K.K.K.K.K.K.F.F.F.K.K.K.F.F.F.F.F.F.F.F.F.F.S.S.F.F.F.F.F.F.S.v.z.k.K.Q k ",
"F.F.K.K.K.K.K.K.F.F.K.K.K.K.K.K.F.K.K.U.K.K.F.K.U.U.U.K.K.K.K.U.U.U.U.U.U.K.K.K.K.K.K.K.K.U.U.U.U.U.U.U.U.U.U.U.U.U.U.U.U.K.K.K.K.U.K.F.F.K.z.-.G I +...-.z.k.e.y.4.( / 3.F.!.K.U.K.F.K.K.F.S.F.F.S.S.S.S.S.S.S.F.F.S.S.F.F.F.F.F.F.F.F.F.F.F.K.K.F.F.F.F.F.F.F.F.F.K.K.K.F.F.S.F.F.F.F.F.F.F.F.F.F.F.F.F.F.F.F.F.F.F.F.F.F.F.F.F.F.F.F.F.K.K.F.F.F.F.F.F.F.F.F.F.F.F.F.F.K.K.K.K.K.F.F.F.F.K.K.F.F.F.F.F.F.F.F.K.K.F.F.F.F.F.F.K.K.K.F.F.F.K.K.K.K.K.K.F.F.F.F.F.K.K.K.F.F.F.F.F.F.K.K.F.K.K.K.F.K.K.F.R.U.U.K.3.3.y.k.e.4.8.k.k.B.v.k.B.S.z.y.k.y.F.K.v.F.K.B.U.U.U.K.K.F.F.F.K.S.S.F.S.z.4.] 3.y.v.S.F.F.F.U.U.K.F.F.K.K.K.K.K.K.K.K.F.F.F.F.F.S.S.S.F.F.F.F.F.F.K.K.K.K.K.K.K.K.K.K.U.K.U.U.K.K.K.U.U.K.K.K.K.U.U.K.F.F.K.U.K.K.K.K.K.K.K.K.K.F.F.K.K.F.F.K.F.F.K.K.U.K.K.U.K.R. XR.F.U.K.U.K.K.K.K.K.K.K.U.K.K.K.K.K.K.K.K.K.K.K.K.K.K.K.K.K.K.K.K.K.K.K.K.K.K.F.K.K.F.F.K.K.K.K.K.!.3.N Q Q ..+.#.;.4.k.v.e.;./ J ( y.U.F.K.F.F.F.F.F.F.F.K.K.K.K.F.F.F.F.K.K.K.F.F.F.K.K.F.F.F.F.K.K.K.K.U.K.K.K.K.K.K.K.K.K.K.K.U.U.U.U.U.U.U.K.K.K.K.K.K.K.K.F.K.K.K.K.K.K.U.K.K.K.K.K.K.F.K.K.F.F.K.F.K.K.K.K.K.K.K.K.K.K.K.K.K.F.K.K.K.K.K.K.K.K.K.K.K.F.F.F.F.F.F.F.F.F.S.F.F.F.S.F.F.F.F.B.z.k.K.Q z ",
"F.K.K.K.F.F.K.K.F.F.K.K.K.K.K.K.F.F.K.K.K.K.F.K.U.U.K.K.K.K.U.U.U.U.U.U.U.K.K.K.K.K.K.K.K.U.U.U.U.U.U.U.U.U.U.U.U.U.U.U.U.K.K.K.U.U.K.K.K.K.B.4.( ] #...#.e.e.8.e.;.( / -.B.!.F.K.F.S.S.S.S.S.S.F.F.S.S.S.S.S.S.F.S.S.S.F.F.F.F.F.F.F.F.F.F.F.K.K.F.F.F.F.F.F.F.F.K.K.K.F.F.F.F.F.F.F.F.F.F.F.F.F.F.F.F.F.F.F.F.F.F.F.F.F.F.F.F.F.K.K.F.K.K.K.F.F.F.F.F.F.F.F.F.F.F.F.F.F.F.K.K.K.K.F.F.F.F.K.K.F.F.F.F.F.F.F.F.F.F.F.F.F.F.F.F.K.K.K.K.F.F.F.F.K.K.F.F.F.F.F.F.F.F.K.K.F.K.F.F.F.F.K.K.F.K.K.K.F.F.F.S.U.K.K.F.4.-.3.3.;.-.4.v.v.B.B.v.B.B.e.3.s.y.S.F.B.F.F.S.K.K.K.K.K.K.K.K.K.S.F.K.S.v.y.3.y.z.B.S.F.F.F.U.K.K.F.F.F.K.K.K.U.K.K.K.K.K.K.F.F.F.S.S.F.F.F.F.K.K.K.K.K.K.K.K.K.K.U.U.K.K.K.U.K.K.K.K.K.K.K.K.K.K.U.K.F.K.K.U.K.K.K.K.U.U.K.K.K.K.F.K.K.F.F.K.K.U.K.K.K.F.S.F.K.K.!.K.K.!.R.K.U.K.K.K.K.K.K.K.K.K.K.K.K.K.K.K.K.K.K.K.K.K.K.K.F.K.K.K.K.K.K.K.K.K.K.K.F.F.F.F.F.K.K.F.R.3.N Q J ( #.;.4.8.y.s.8.-.( I ( y.U.K.K.K.F.F.F.F.F.F.K.K.K.K.F.F.F.K.K.K.K.F.F.F.F.K.F.F.F.F.K.K.K.K.U.K.K.K.K.K.K.K.K.K.U.U.U.U.U.U.U.U.U.U.U.U.K.K.K.K.K.K.K.K.K.K.K.K.U.K.K.K.K.K.K.K.K.K.F.K.K.K.K.K.K.K.K.K.K.K.K.K.K.K.K.K.K.K.K.F.K.K.K.K.K.K.F.F.F.F.F.F.F.F.F.F.S.F.F.F.S.F.F.F.F.B.v.z.K./ z ",
"F.F.F.F.F.F.F.F.F.K.K.K.K.K.K.K.F.F.K.K.K.K.K.K.K.K.K.K.K.K.U.U.U.K.K.K.K.K.K.K.K.K.K.K.K.U.U.U.U.U.U.U.U.U.U.U.U.U.U.U.U.U.U.K.U.U.F.U.U.F.S.e.+...+.....-.8.e.8.#./ / ..s.R.F.K.F.S.S.S.S.S.S.F.F.F.F.S.S.S.S.S.S.S.S.F.F.F.F.F.F.F.F.F.F.F.F.F.F.F.F.F.F.F.F.F.F.F.F.F.F.F.F.F.F.F.F.F.F.F.F.F.F.F.F.F.F.F.F.F.F.F.F.F.F.F.F.F.F.F.F.F.F.F.F.F.F.F.F.F.F.F.F.F.F.F.F.F.F.F.F.K.K.F.F.F.F.K.K.K.K.F.F.F.F.F.F.F.F.F.F.F.F.F.F.F.F.F.F.F.F.F.F.F.F.F.F.F.F.K.K.F.F.K.K.K.K.K.K.F.F.K.K.F.F.K.K.F.F.K.S.K.U.F.K.e.+.+.....#.4.v.S.v.B.B.S.B.8.-.e.y.S.S.S.K.B.K.K.K.K.K.K.K.K.K.K.S.F.K.S.v.z.k.z.v.B.S.K.K.K.K.K.F.F.F.F.K.K.K.K.K.K.K.K.K.K.K.K.F.F.F.F.F.F.F.K.K.K.K.K.K.K.K.K.K.U.U.U.K.K.K.K.U.K.K.K.K.K.K.K.K.K.K.K.K.K.U.K.K.K.K.U.U.K.K.U.K.K.K.K.K.F.K.K.U.K.K.K.F.S.F.U.K.U.S.F.!.U.F.U.K.K.K.K.K.K.K.U.U.U.U.U.U.U.U.U.U.K.K.K.K.K.K.F.F.F.K.K.K.U.K.K.K.K.K.F.F.F.F.K.K.K.F.U.3.N I G / -.3.4.8.4.4.4.-.( I ( y.U.K.K.K.K.K.K.K.F.F.F.F.F.F.F.F.K.K.K.F.F.F.F.F.K.K.F.F.F.K.K.K.K.K.K.K.K.K.K.K.U.K.U.U.U.U.U.U.U.U.U.U.U.U.U.U.U.K.K.K.K.K.K.K.K.K.K.K.U.K.K.K.K.K.K.K.K.K.K.K.U.K.K.K.K.K.K.K.K.K.K.K.K.K.K.K.K.K.K.K.K.K.K.K.K.K.F.F.F.F.F.K.K.F.F.F.S.F.F.F.S.F.S.S.F.S.B.B.U./ k ",
"F.F.F.F.S.S.S.F.K.K.K.K.K.K.K.K.K.F.K.K.K.K.K.K.K.K.K.K.K.U.U.U.U.K.K.K.K.K.K.K.K.K.K.K.K.U.U.U.U.U.U.U.U.U.U.U.U.U.U.U.U.U.U.U.U.U.S.U.K.v.B.e.+.+.] ....+.8.s.4...( / ( e.U.S.F.F.S.F.F.S.S.F.F.F.F.F.S.S.S.S.S.S.S.F.F.F.F.F.F.F.F.F.F.F.F.F.F.F.F.F.F.F.F.F.F.F.F.F.F.F.F.F.F.F.F.F.F.F.F.F.F.F.F.F.F.F.F.F.F.F.F.F.F.F.F.F.F.F.F.F.F.F.F.F.F.F.F.F.F.F.F.F.F.F.F.F.F.F.F.F.K.K.K.K.K.K.K.K.K.K.F.F.F.F.F.F.F.F.F.F.F.F.F.F.F.F.F.F.F.F.F.F.F.F.F.F.F.F.K.K.F.F.F.K.K.K.K.F.F.F.K.K.F.F.K.K.K.S.U.F.K.U.F.U.e./ G m G ..3.k.B.z.B.B.B.B.e.;.3.8.S.S.S.U.S.U.U.U.K.K.K.K.K.K.K.S.S.F.S.z.z.v.z.v.S.F.K.K.F.K.K.F.F.F.F.K.K.K.K.K.K.K.K.K.K.K.K.K.K.K.K.K.K.K.K.K.K.K.K.K.K.K.K.K.U.U.U.K.K.K.U.U.U.U.U.U.U.U.U.K.K.U.K.K.K.K.K.K.K.U.U.K.K.K.U.K.K.U.U.K.K.K.K.K.K.K.K.K.F.K.K.U.R.F.S.U.U.F.U.K.F.K.K.U.K.K.U.U.U.U.U.U.U.U.U.U.U.K.K.K.K.K.K.K.K.K.K.K.K.K.K.F.K.K.K.K.K.K.K.U.U.K.U.3.C I G I -.3.3.4.3.;.3.-.( I ( e.U.K.K.K.K.K.K.K.K.F.F.F.F.F.F.F.K.K.F.F.F.F.F.F.K.K.F.F.F.F.K.K.K.K.K.K.K.U.U.U.K.K.K.K.U.U.U.U.U.U.U.U.U.U.U.U.U.K.K.K.K.K.K.K.K.K.F.K.K.K.K.K.K.K.U.K.K.K.K.K.U.K.K.K.K.K.K.K.K.K.K.K.K.F.K.K.K.K.K.K.K.K.K.K.K.K.K.F.F.F.F.K.K.K.F.F.S.F.F.S.S.F.S.S.F.F.S.S.R.( k ",
"K.K.F.F.F.F.F.F.K.K.K.K.K.K.K.K.K.K.K.K.K.K.K.U.K.K.K.U.U.U.U.U.U.K.K.K.K.K.K.U.K.K.K.K.K.U.U.U.U.U.U.U.U.U.U.U.U.U.U.R.R.R.U.U.R.R.F.U.K.v.v.8.+.#.] ....+.8.y.4...( ( Q 4.K.S.S.S.S.F.F.S.S.S.S.S.S.S.S.S.S.S.S.S.S.F.F.F.F.F.F.F.F.F.F.F.F.F.K.K.K.F.F.F.K.F.F.F.F.F.F.F.F.F.F.F.F.F.F.F.F.F.F.F.K.F.F.F.F.F.F.K.K.F.F.F.F.K.K.K.K.F.F.F.F.F.F.F.K.K.F.F.F.F.F.F.F.F.F.F.F.F.F.K.K.K.K.K.K.F.F.F.F.F.F.F.F.F.F.F.F.F.F.F.F.F.F.F.F.F.F.F.F.F.F.F.F.F.F.F.K.K.F.F.K.K.K.K.F.F.F.F.K.F.F.F.F.K.F.S.R.F.K.K.F.R.4.C 0 3 z ..4.z.B.v.S.B.v.v.e.;.-.4.F.F.S.R.K.K.U.U.K.K.K.K.K.K.K.F.S.F.S.z.k.v.k.v.S.F.K.K.F.K.K.K.F.F.K.K.K.K.K.K.K.K.K.K.K.K.K.K.K.K.K.K.K.K.K.K.K.K.K.K.K.K.K.K.K.U.U.U.K.K.U.U.U.U.U.U.U.U.U.U.U.U.U.U.U.K.K.U.K.U.U.K.K.K.U.K.K.U.K.K.K.K.K.U.K.K.K.K.F.K.K.R.!.K.F.U.R.U.R.U.K.K.U.U.U.U.U.U.U.U.U.U.U.U.U.U.U.K.K.K.K.K.K.K.K.K.K.K.K.K.K.F.K.K.U.U.U.K.U.U.U.K.U.3.C J G I #.;.;.4.3.3.3.#.( I ( e.U.K.K.K.K.K.K.K.K.F.F.F.F.F.F.F.F.K.F.F.F.F.F.F.F.K.F.F.F.K.F.K.K.K.K.K.K.U.U.U.K.K.K.K.K.K.K.K.K.K.U.U.U.U.U.U.U.K.K.K.K.K.K.K.K.K.F.K.U.K.K.K.U.K.U.K.K.K.F.F.K.K.K.K.K.K.K.K.K.K.K.K.K.K.K.K.K.K.K.K.K.K.K.K.K.K.F.K.F.F.K.K.K.K.K.F.S.F.F.S.S.F.F.F.F.F.F.S.!.( z ",
"K.K.K.F.F.F.F.F.K.K.K.K.K.K.K.K.K.K.K.K.K.K.K.U.K.K.K.U.K.K.U.U.U.K.K.K.U.U.U.U.U.K.K.K.U.U.U.U.U.U.U.U.U.U.U.U.U.U.U.R.U.R.U.U.U.R.F.U.K.B.v.8.#.+...+.+.#.8.e.4.] ( ] Q 3.F.B.S.S.F.F.S.S.S.S.S.S.S.S.S.S.S.S.F.S.S.S.F.F.S.S.S.F.F.F.F.F.F.F.K.K.K.K.K.K.F.F.F.F.F.F.F.F.F.K.F.F.F.F.F.F.K.K.K.K.K.K.F.F.F.F.K.K.K.K.K.K.K.K.K.K.F.F.F.F.F.F.F.F.K.K.F.F.F.F.F.F.F.K.K.F.F.F.K.K.K.K.K.K.F.K.F.F.F.F.F.F.F.F.F.F.F.F.F.F.F.F.F.K.F.F.F.F.F.F.F.F.F.K.F.F.K.K.F.F.K.K.F.F.F.F.F.K.K.F.F.F.F.F.F.F.U.F.K.F.K.!.3.N , 6 C #.8.s.z.S.F.B.v.k.e.;.#.3.S.K.S.U.R.F.K.K.K.K.K.K.K.K.K.F.S.F.F.v.z.v.z.B.S.F.K.F.F.K.U.K.K.K.K.K.K.U.K.K.K.K.K.K.K.K.K.K.K.K.K.K.K.K.K.K.K.K.K.K.F.K.K.K.K.U.U.U.U.K.U.U.U.U.U.U.U.U.U.U.U.K.K.K.K.K.U.U.K.K.K.K.K.K.K.K.K.K.K.K.K.K.K.U.K.K.K.F.K.U.U.R.R.K.F.U.R.K.R.U.K.K.U.U.U.U.U.U.U.U.U.U.U.U.U.U.U.U.K.K.K.K.K.K.K.K.F.F.F.K.K.K.K.U.U.U.U.U.U.U.U.K.U.4.C G G / -.3.3.4.4.3.3.#.( I ( e.U.K.K.K.K.K.K.K.K.F.F.F.F.F.F.F.K.K.F.F.F.F.F.F.F.K.F.F.F.K.K.K.K.K.K.K.K.K.U.U.U.U.K.K.K.K.K.K.K.K.U.U.U.U.U.U.K.K.K.K.F.K.K.K.K.F.K.U.U.U.U.U.U.U.U.K.K.K.F.F.K.K.F.K.K.K.K.K.K.K.K.K.K.K.K.K.K.K.K.K.K.K.K.K.K.K.K.K.F.F.F.K.K.K.K.F.S.F.F.S.S.F.F.F.F.F.F.S.!.( z ",
"F.F.F.F.F.F.F.F.K.K.K.K.K.K.K.K.K.K.K.K.U.K.K.K.K.K.U.K.K.K.U.U.U.K.K.K.U.U.U.U.U.K.K.K.U.U.U.U.U.U.U.U.U.U.U.U.U.U.U.U.U.U.U.U.U.U.K.U.K.F.v.4.#.+...+...+.3.8.4.] ( ] / 3.F.B.S.S.F.F.F.S.S.S.S.S.S.S.S.S.S.S.F.S.S.S.S.S.S.B.S.S.S.F.F.F.F.F.K.K.F.K.F.F.F.F.K.F.F.F.F.K.K.K.K.K.K.K.K.K.K.K.K.K.K.K.F.F.F.F.K.K.K.K.K.K.K.K.K.K.F.F.S.F.F.F.F.F.F.F.F.F.F.F.F.F.K.K.K.K.F.F.K.K.K.K.K.K.K.K.K.F.F.F.F.F.K.F.K.F.K.F.F.F.F.F.K.K.K.K.F.F.F.F.F.K.K.K.F.F.F.F.F.F.F.K.F.F.F.F.F.F.K.F.F.K.F.F.F.K.K.S.F.S.U.!.3.m , k ( #.3.4.k.S.v.v.z.y.e.4.-.3.z.F.S.K.R.F.K.K.K.K.K.K.K.K.K.K.F.F.K.B.v.B.v.S.F.F.K.K.K.U.U.U.K.K.K.K.K.K.K.K.K.K.K.K.K.K.K.K.U.K.K.K.K.K.K.K.K.K.K.K.K.F.K.K.K.U.U.U.U.K.U.U.U.U.U.U.U.U.K.U.K.K.K.K.U.U.K.K.K.K.U.U.U.U.K.K.K.K.K.K.K.K.K.K.K.K.K.F.F.U.R.U.U.K.F.K.U.F.U.U.K.U.U.U.U.U.U.U.U.U.U.U.U.U.U.U.U.U.U.U.U.U.K.K.K.F.F.F.F.F.F.K.K.U.K.K.F.K.U.K.U.F.K.4.C C J ] -.3.4.3.3.3.;.#.] Q ( e.K.K.K.K.K.K.K.K.K.K.K.K.F.F.F.F.F.F.K.K.F.F.F.F.F.F.F.K.K.K.K.K.K.K.K.K.K.K.K.K.U.U.U.U.U.U.U.U.U.U.U.U.U.U.U.K.K.K.K.K.F.K.K.K.K.F.K.U.U.U.K.U.U.U.U.K.U.K.F.F.K.U.K.K.K.K.K.K.K.K.K.K.K.K.K.K.K.K.K.K.K.F.K.K.K.K.K.K.F.F.K.K.K.K.K.F.S.S.S.S.S.F.F.F.K.F.F.S.R.( z ",
"F.K.K.K.K.K.K.K.K.K.K.K.K.K.K.K.K.K.K.K.K.K.K.K.K.K.K.K.K.U.U.U.U.K.K.U.U.U.U.U.U.U.K.K.U.U.U.U.U.U.U.U.U.U.U.U.U.U.U.U.U.U.U.K.U.U.U.U.U.U.B.4.-...] ..] ] #.4.4.( / ] ( 4.F.S.S.S.S.S.S.S.S.S.S.S.S.S.S.S.S.S.S.S.S.B.B.B.B.B.B.S.S.F.F.F.F.F.K.K.F.F.F.F.F.F.K.K.K.K.K.K.K.F.K.K.K.K.K.K.K.K.K.K.K.K.K.F.F.F.K.K.K.K.K.K.K.K.K.K.F.F.F.F.K.K.F.F.K.K.K.K.K.K.K.K.K.K.K.K.F.F.K.K.K.K.K.K.K.K.K.K.F.F.F.F.K.K.K.K.K.F.F.F.F.F.K.K.K.K.K.F.F.F.K.K.K.K.F.F.F.F.F.F.F.K.F.F.F.F.F.F.K.F.F.F.F.F.F.K.F.B.S.B.U.!.8.C , C +.#.3.4.s.B.s.k.k.4.4.4.-.3.y.S.K.F.R.K.K.K.K.K.K.K.K.K.K.U.K.K.K.S.B.S.B.S.F.K.U.U.K.K.U.U.U.K.K.K.K.K.K.K.K.K.K.K.K.K.K.K.U.K.K.K.K.K.K.K.K.K.K.K.K.K.K.K.K.K.U.U.U.K.U.U.U.U.U.U.U.U.K.K.K.K.K.K.U.U.K.K.K.K.K.K.U.U.U.U.K.K.K.U.U.U.K.U.K.K.K.F.F.K.U.U.K.K.F.F.U.U.U.U.U.U.U.U.U.U.U.U.U.U.U.U.U.U.U.U.U.U.U.U.U.U.K.K.K.F.F.F.F.K.F.K.U.U.F.S.S.F.U.K.U.F.K.4.C N G ..#.3.4.;.4.4.-.#.] / ] e.K.K.K.K.F.F.K.K.F.F.K.K.K.F.F.F.F.F.K.K.F.F.F.F.F.F.K.K.K.K.K.K.K.K.K.K.K.K.K.K.U.U.U.U.U.U.U.U.U.U.U.U.K.K.K.K.K.F.K.F.F.K.K.K.K.F.K.K.U.K.K.K.K.K.U.K.U.K.F.K.U.U.K.K.K.K.K.K.K.F.K.K.K.K.K.K.K.K.K.K.K.K.K.K.K.K.K.K.K.K.K.K.K.K.K.F.S.S.S.S.S.F.F.F.K.F.F.S.R.( k ",
"F.K.K.K.K.K.K.K.K.K.K.K.K.K.K.K.K.K.K.K.K.K.K.K.K.K.K.K.U.U.K.K.U.K.K.K.K.K.U.U.K.K.U.U.U.U.U.U.U.U.U.U.U.U.U.U.U.U.U.U.U.U.U.U.U.U.R.U.U.K.v.3.;.+.] ......#.3.;.#.( ( ( 3.F.B.F.S.S.S.S.S.B.S.S.S.S.S.S.S.S.S.F.S.S.B.B.B.B.B.v.B.S.F.F.F.F.F.K.K.F.K.K.F.K.K.F.K.K.K.K.F.F.F.K.K.K.K.K.K.K.K.K.K.K.F.F.F.F.K.K.K.F.F.F.F.K.K.F.F.F.F.F.F.K.K.K.K.K.K.K.K.K.K.K.K.K.K.K.F.F.K.K.K.K.K.K.K.K.K.K.K.K.K.K.K.K.K.K.K.K.K.K.K.F.F.F.F.F.F.F.F.K.K.F.K.K.F.F.F.K.K.K.K.F.F.F.F.K.K.K.K.K.F.F.F.F.F.F.K.k.k.B.y.B.U.3.G 0 I ;.;.4.;.e.y.e.s.z.8.3.4.#.3.3.B.R.S.U.K.U.U.K.K.K.K.K.K.K.K.K.U.K.S.S.F.S.S.F.K.U.K.K.F.K.K.K.K.K.K.K.K.K.K.K.K.K.K.K.K.K.K.K.K.K.K.K.K.K.K.K.U.U.K.K.K.K.K.K.K.K.K.K.U.U.U.U.U.U.U.U.U.U.K.K.K.K.K.K.U.K.K.K.K.K.K.K.K.K.K.K.K.K.U.U.U.U.K.K.K.F.S.F.K.R.U.K.F.F.K.U.U.K.K.U.U.U.U.U.U.U.U.U.U.U.U.U.U.U.U.U.U.U.U.U.U.K.K.K.K.F.F.K.F.F.F.F.U.S.F.F.S.K.K.U.F.U.y.C C I ..-.3.4.3.3.8.-.-.../ ..y.K.K.K.F.F.K.K.K.F.F.F.F.F.F.F.F.F.F.K.K.F.F.F.F.F.F.F.K.K.K.K.U.U.U.U.K.K.K.K.K.U.U.U.U.U.U.U.U.U.U.U.U.U.U.U.K.K.K.K.F.K.K.K.K.F.K.K.K.K.K.K.K.K.K.K.U.U.U.K.K.U.U.K.K.F.F.K.K.K.K.K.K.K.K.K.K.F.F.K.K.K.K.K.K.K.K.K.K.K.K.K.K.K.K.K.F.F.S.S.S.S.S.F.F.F.F.F.B.R./ k ",
"K.K.K.K.K.K.K.K.K.K.K.K.K.K.K.K.F.F.K.K.K.K.K.K.K.K.K.U.U.U.U.K.U.K.K.K.K.U.U.U.U.U.U.U.U.U.U.U.U.U.U.U.U.U.U.U.U.U.U.U.U.U.U.U.U.U.R.U.K.K.v.8.3.#.....+...#.3.3.+.( ( ( 4.F.B.F.S.S.S.S.S.B.B.S.S.S.S.S.S.S.S.F.S.S.S.B.B.B.B.B.B.S.F.F.F.F.F.F.K.K.K.K.F.K.K.K.K.K.K.K.K.K.K.K.F.F.F.F.F.F.F.K.K.K.K.F.F.F.K.K.K.K.K.F.K.K.K.K.F.F.F.F.K.K.K.K.K.K.K.K.K.K.K.K.F.K.K.K.F.F.K.K.K.K.K.K.K.K.K.K.K.K.K.K.K.K.K.K.K.K.F.F.F.F.F.F.F.F.F.F.F.F.F.F.K.K.F.F.F.F.K.F.F.F.F.F.F.F.F.F.F.F.F.K.K.K.K.K.S.k.e.s.s.z.S.;.J 6 J 3.;.4.#.#.4.e.s.z.e.3.3.;.4.4.B.R.F.U.K.K.K.K.K.K.K.K.K.K.F.K.K.K.S.S.F.S.S.F.K.K.K.K.F.K.K.K.K.K.K.K.K.K.K.K.K.K.K.K.K.K.K.K.K.K.K.K.K.K.K.U.U.U.K.K.K.K.K.K.K.U.K.U.U.U.U.U.U.U.U.U.U.U.K.K.K.K.K.K.U.K.K.U.U.K.K.K.K.K.K.K.K.K.K.U.U.U.K.K.K.F.S.F.K.U.U.K.F.F.K.U.U.K.K.U.U.U.U.U.U.U.U.U.U.U.U.K.U.U.U.U.U.U.U.U.U.R.K.F.F.F.K.K.B.S.B.B.R.K.F.K.F.K.U.U.F.K.e.G C Q ] -.4.4.3.4.8.;.-.+./ ] y.K.K.U.K.K.K.K.K.F.K.K.K.K.K.K.K.K.K.K.K.K.K.K.K.K.K.K.K.K.K.U.U.U.U.U.K.K.K.K.U.U.U.U.U.U.U.U.U.U.U.U.U.U.U.U.U.K.K.K.K.K.K.K.K.K.K.K.K.K.K.K.K.K.K.K.U.U.K.K.K.U.K.K.K.K.K.K.K.K.K.K.K.K.K.K.K.K.K.K.K.K.K.K.K.K.K.K.K.K.K.K.K.K.K.K.F.F.S.S.S.F.F.F.F.F.F.S.B.R./ d ",
"K.K.K.K.K.K.K.K.K.K.K.K.K.K.K.K.F.F.F.K.K.K.K.K.K.K.K.U.U.U.U.U.U.U.K.U.U.U.U.U.U.U.U.U.U.U.U.U.U.U.U.U.U.U.U.U.U.U.U.U.U.U.U.U.U.U.R.K.F.F.B.e.4.#...+.+...#.3.3...( ( ( 8.F.B.F.S.B.B.B.B.B.S.B.S.S.S.S.S.S.S.S.S.S.S.S.B.B.B.B.B.S.S.S.F.F.F.K.U.F.S.B.v.S.F.K.F.F.F.F.K.F.F.F.F.F.F.F.F.F.F.F.F.K.K.K.F.K.K.K.K.K.K.K.K.K.K.K.F.F.F.K.K.K.K.F.F.F.F.F.F.F.F.F.F.K.K.K.F.F.K.K.K.K.K.K.K.K.K.K.K.K.K.K.K.K.K.F.F.F.F.F.F.F.F.F.F.F.F.F.F.F.F.F.K.F.F.F.F.K.K.F.F.F.F.F.F.F.F.F.F.F.K.K.K.K.F.F.s.k.y.z.k.;.....J J ( 3.4.+.+.;.e.8.4.4.4.8.8.8.8.8.B.U.U.K.K.K.K.K.K.K.K.F.F.K.F.F.K.F.S.S.F.K.K.K.K.K.K.K.K.K.K.K.K.K.K.K.K.K.K.K.K.K.K.K.K.K.K.K.K.K.K.K.U.K.K.U.U.K.K.K.K.K.K.K.U.U.U.U.R.U.U.U.U.U.U.U.U.U.K.K.K.K.K.K.K.U.U.U.U.U.U.K.K.K.K.K.K.K.U.U.U.U.K.K.K.F.F.F.K.K.K.K.K.K.K.U.U.K.K.U.U.U.U.U.U.U.U.U.U.U.U.U.U.K.K.U.U.U.U.U.U.K.K.K.K.K.U.F.z.y.4.8.K.K.S.S.B.U.U.U.S.S.8.J G / ..-.4.4.3.8.e.3.#.#.( ( s.K.K.U.U.K.K.K.K.K.K.K.K.K.K.K.K.K.K.K.K.K.K.K.K.K.K.K.K.K.K.U.U.U.U.U.U.U.U.U.U.U.U.U.U.U.U.U.U.U.U.U.U.U.U.U.U.U.U.U.K.K.K.K.F.K.K.U.K.K.K.K.K.K.K.K.K.U.K.K.K.K.K.K.K.K.K.K.K.K.K.K.K.K.K.K.K.K.K.K.K.K.K.K.K.K.K.K.F.K.K.K.K.F.K.K.F.F.S.S.F.F.F.F.S.F.S.S.B.U./ k ",
"K.K.K.K.K.K.K.K.K.K.K.K.K.K.K.K.F.F.F.F.K.K.K.K.K.K.K.U.U.U.U.U.U.U.U.U.U.U.U.U.U.U.U.U.U.U.U.U.U.U.U.U.U.U.U.U.U.U.U.U.U.U.U.U.U.U.R.K.S.F.S.s.4.-.+.+...] +.;.3.] ] ( ( e.S.B.S.B.B.B.B.B.S.S.S.S.S.S.F.S.S.S.S.S.S.S.S.S.S.S.B.S.S.S.S.S.F.K.K.K.v.k.k.s.v.S.K.K.F.F.F.F.F.F.F.F.F.F.F.F.F.F.F.F.K.K.K.K.K.K.K.K.K.K.K.K.K.K.K.F.F.F.K.K.K.F.F.F.F.F.F.F.F.F.F.F.K.K.K.K.F.K.K.K.K.K.K.K.K.K.K.K.F.F.K.K.K.K.F.F.F.F.F.F.F.F.F.F.F.F.F.F.F.F.F.K.F.F.F.F.K.K.F.F.F.F.F.F.F.F.F.F.F.K.K.K.F.S.B.8.s.e.8.3.+.../ G Q / -.y.#.#.4.e.8.3.3.3.4.4.e.8.e.v.U.U.K.K.K.K.K.K.K.F.F.F.K.F.F.F.F.S.S.F.U.K.K.K.K.K.K.K.K.K.K.K.K.K.K.K.K.K.K.K.K.K.K.K.U.U.U.U.K.U.U.U.U.U.U.U.K.K.K.K.K.K.U.U.U.U.R.R.U.U.U.U.U.U.U.U.U.K.K.K.K.K.K.K.U.U.U.U.U.K.K.K.K.U.U.U.U.U.U.U.U.K.K.K.F.F.F.K.F.K.K.K.K.U.U.U.K.K.U.U.U.U.U.U.U.U.U.U.U.U.U.U.K.K.K.U.U.U.U.U.K.R.R.U.F.F.z.8.;.-.-.S.K.B.F.v.K.K.K.S.B.4.I J ( ..#.3.4.e.s.y.3.#.-.( / y.F.K.U.U.K.K.K.K.K.K.K.K.K.K.K.K.K.K.F.F.K.K.K.K.K.K.K.K.K.U.U.U.U.U.U.U.U.U.U.U.U.U.U.U.U.U.U.U.U.U.U.U.U.U.U.U.U.U.U.K.K.K.F.F.K.K.U.U.K.K.K.K.K.K.K.K.K.K.K.K.K.K.U.K.K.K.K.K.K.K.K.K.K.K.K.K.K.K.K.K.K.F.K.K.F.K.K.K.K.K.K.K.K.K.K.F.F.F.F.F.K.K.F.S.S.S.S.B.U./ k ",
"K.K.K.K.K.K.K.F.K.K.K.K.F.K.K.K.F.F.F.K.K.K.K.K.K.K.K.U.U.U.U.U.K.U.U.U.U.U.U.U.U.U.U.U.U.U.U.U.U.U.U.U.U.U.U.U.U.U.U.U.U.U.U.K.K.U.R.K.S.F.S.s.4.-.+.....] ..;.4.] ] ] ] e.S.B.S.B.B.B.B.S.S.S.S.S.F.S.F.S.S.S.S.S.F.F.S.S.S.S.S.S.S.S.S.F.F.F.K.F.k.e.y.y.z.B.F.K.K.K.K.K.K.F.F.F.F.F.F.F.F.F.F.F.K.K.K.K.K.K.F.F.F.F.F.F.F.F.F.F.F.F.K.K.K.F.F.F.F.F.F.F.F.F.F.F.K.K.K.K.K.K.K.K.K.K.K.K.K.K.K.F.F.F.K.K.K.K.F.K.K.F.F.F.F.F.F.F.F.F.F.F.F.F.F.F.F.F.F.F.F.K.F.K.K.K.F.F.F.F.K.F.F.K.K.F.S.v.z.y.z.z.y.;...Q z m N ( ;.;.3.-.8.e.3.;.;.;.4.4.8.4.y.v.K.U.F.U.K.K.K.K.K.F.F.F.F.S.S.S.S.S.S.F.K.K.K.K.K.K.K.K.K.K.K.K.K.K.K.K.K.K.K.K.K.K.K.K.U.U.K.K.K.U.U.U.U.U.U.K.K.K.U.U.K.U.U.U.U.U.R.R.U.U.R.R.R.U.U.U.U.U.K.K.K.K.U.K.U.U.U.U.U.U.K.K.K.K.U.U.U.U.U.U.U.K.K.K.F.F.F.F.F.K.K.K.K.K.U.U.K.U.U.U.U.U.U.U.U.K.U.U.U.U.U.U.U.U.U.U.U.U.U.U.K.R.R.K.F.B.s.-.+.;.4.F.S.B.K.S.K.K.U.F.S.8.Q I ] +.#.-.4.s.v.y.4.#.-.( / e.S.K.K.K.K.F.F.K.K.F.F.K.K.F.K.K.F.F.F.F.K.K.K.K.K.K.K.K.U.U.U.U.U.U.U.U.U.U.U.U.U.U.U.U.U.U.U.U.U.U.U.U.U.U.U.U.U.U.U.K.F.F.F.F.F.K.K.K.K.K.K.K.K.K.K.K.K.U.K.K.K.K.U.U.K.K.K.K.K.K.K.K.K.K.K.K.K.K.K.K.K.K.K.K.K.K.K.K.K.K.K.K.K.K.K.K.F.F.F.K.K.K.F.S.S.S.S.B.U./ k ",
"K.K.K.K.K.K.K.K.K.K.K.K.K.K.K.K.F.K.K.K.K.K.K.K.K.K.K.U.U.U.U.U.K.U.U.U.U.U.U.U.U.U.U.U.U.U.U.U.U.U.U.U.U.U.U.U.U.U.U.U.U.U.K.K.K.U.U.K.F.F.S.s.4.-.+.+...] +.3.8.#...] ] 8.S.S.S.S.B.B.S.S.S.S.S.S.F.S.S.S.S.S.S.S.F.F.F.S.S.S.S.S.S.S.F.F.F.F.K.S.8.-.3.4.y.z.S.F.K.K.K.K.K.K.F.F.F.F.F.F.F.F.F.K.K.K.K.K.K.K.F.F.F.F.F.F.F.F.F.S.F.F.K.K.F.F.F.F.F.F.F.F.F.F.F.F.F.K.K.K.K.F.K.K.K.K.K.K.K.K.K.F.F.F.K.K.K.K.F.F.K.F.F.F.F.F.K.F.K.K.F.K.K.K.F.F.F.F.F.F.K.F.K.K.K.K.K.K.K.F.K.K.F.F.F.F.B.v.z.z.k.k.B.v.z.4.z u m #.3.+.+.-.s.e.;.#.#.;.8.e.4.4.e.v.K.K.F.U.K.K.K.K.F.F.F.F.F.F.S.F.F.S.S.F.F.K.K.K.K.K.K.K.K.K.K.K.K.K.K.K.K.K.K.K.K.K.K.K.K.U.K.K.K.K.U.U.U.U.U.U.K.U.U.U.K.U.U.U.U.R.R.R.U.U.U.R.U.U.U.U.U.U.K.K.K.K.U.U.K.U.U.U.U.U.K.K.K.K.U.U.U.U.U.K.U.K.K.K.F.F.F.F.F.K.K.K.K.K.U.U.U.U.U.U.U.U.U.U.U.U.U.U.U.U.U.U.U.U.U.U.U.U.U.U.F.K.U.U.K.S.e...Q 4.z.U.S.B.F.S.F.K.K.K.K.8.Q Q ..+.#.-.8.z.v.y.4.-.-.( / 4.B.K.F.K.K.F.F.K.K.F.F.F.F.F.F.F.F.F.F.F.K.K.K.K.K.K.K.K.U.U.U.U.U.U.U.U.U.U.U.U.U.U.U.U.U.U.U.U.U.U.U.U.U.U.U.U.U.U.K.K.K.K.K.F.K.K.K.U.U.U.U.K.K.K.K.K.K.U.U.K.K.K.U.U.K.K.K.K.K.K.K.K.K.K.K.K.K.K.K.K.K.K.K.K.K.K.K.K.K.K.K.K.K.K.K.K.K.F.F.K.K.F.F.S.F.S.S.B.R./ k ",
"K.K.K.K.K.K.F.K.K.K.K.K.K.K.K.K.K.K.K.K.K.K.K.K.K.K.K.K.K.K.U.U.U.U.U.U.U.U.U.U.U.U.U.U.U.U.U.U.U.U.U.U.U.U.U.U.U.U.U.U.U.U.K.K.K.K.U.K.F.K.S.y.4.-.+.......-.8.8.;.] ( ( 3.B.F.S.S.S.B.B.S.S.S.S.S.S.S.S.S.S.F.S.S.S.F.F.F.S.S.S.S.S.F.F.F.F.F.F.B.4.#.;.3.e.k.S.F.K.F.F.F.K.F.K.K.K.K.K.K.K.K.K.K.K.K.F.F.K.K.K.F.F.F.F.F.S.S.S.S.F.F.K.K.F.F.F.F.F.F.F.F.F.F.F.F.F.K.K.K.F.F.F.F.F.F.F.F.F.F.K.F.F.F.F.F.F.F.F.F.F.F.F.F.F.F.F.F.F.F.F.F.K.K.F.F.F.F.F.F.F.F.F.F.K.K.K.K.K.K.K.K.F.F.F.S.S.S.v.K.K.B.F.S.F.F.+.u k ( -.-...-.e.e.3.;.-.3.e.8.8.4.8.z.F.F.F.K.U.K.K.K.K.F.F.K.F.F.F.F.K.F.F.F.F.K.U.K.K.K.K.K.K.K.K.K.K.U.U.K.K.K.K.K.K.K.K.K.K.K.K.K.K.K.K.K.K.K.K.K.K.K.K.K.U.U.U.U.U.R.R.U.R.R.R.U.U.U.U.U.U.U.K.K.K.U.U.U.K.K.K.U.K.K.K.K.K.K.K.U.U.K.K.K.U.K.K.F.K.F.F.F.K.K.K.K.K.K.U.U.U.U.U.U.U.U.U.U.U.U.U.U.U.U.K.U.U.U.U.U.U.U.U.U.U.U.R.U.F.v.4.] / s.K.R.K.F.F.S.F.U.K.K.U.8.Q / ] #.#.3.y.z.z.y.4.;.-...( ;.v.K.F.K.K.F.F.K.K.F.F.F.F.F.F.F.F.F.F.F.K.K.K.K.K.K.K.K.K.U.U.U.U.U.U.U.U.U.U.U.U.U.U.U.U.U.U.U.U.U.U.U.U.U.U.U.U.U.U.K.K.K.K.K.K.K.U.U.U.U.U.U.U.U.U.K.K.K.U.K.K.K.U.K.K.K.U.U.U.U.K.K.K.K.K.K.K.K.K.F.K.K.K.K.K.K.K.K.K.K.K.K.K.K.K.K.K.F.F.K.K.F.S.S.S.F.S.B.U./ k ",
"K.K.K.K.K.K.K.K.K.K.F.K.K.K.K.K.K.K.K.K.K.K.K.K.K.K.K.K.K.K.K.K.U.U.U.U.U.U.U.U.U.U.U.U.U.U.U.U.U.U.U.U.U.U.U.U.U.R.U.U.U.U.K.K.K.K.U.K.F.K.B.y.3.#.........;.e.e.4.] / / -.v.S.S.S.B.B.B.S.S.S.S.S.S.S.S.S.S.F.S.S.S.S.S.F.F.F.S.S.S.S.S.F.F.F.K.K.k.y.z.z.v.S.F.K.K.F.F.K.K.F.K.K.K.K.K.K.K.K.K.K.K.K.F.F.K.K.K.K.K.F.F.F.S.S.S.S.F.K.K.K.F.F.F.F.F.F.F.F.F.F.F.F.F.F.K.K.F.F.F.F.F.F.F.F.F.F.K.F.F.F.F.F.F.S.S.S.F.F.F.F.F.K.F.F.F.F.F.F.K.K.F.F.F.F.F.F.F.F.F.F.F.K.K.K.K.K.K.K.F.F.S.F.F.F.S.U.U.F.R.F.F.R.+.d u / #.#.-.-.4.4.;.-.-.3.e.8.8.8.8.k.S.F.F.K.U.K.K.U.K.K.K.K.K.K.K.K.K.K.F.F.F.K.K.K.K.K.K.K.K.K.K.K.K.U.K.K.K.K.K.K.K.K.K.K.K.K.K.K.K.K.K.K.K.K.K.K.U.K.K.K.K.U.U.U.U.R.R.U.R.R.R.U.U.U.U.U.U.U.K.K.K.K.U.U.K.K.K.K.K.K.K.K.K.K.K.K.K.K.K.K.K.K.K.F.F.K.K.K.F.K.K.K.K.U.U.U.U.U.U.U.U.K.U.U.U.U.U.U.U.U.U.U.U.U.U.U.U.U.U.K.K.K.K.S.B.z.y.3.3.S.R.K.S.K.F.S.K.R.F.U.R.8.Q ( ] #.-.4.k.z.k.y.4.4.-.+.] -.z.K.F.K.K.K.K.K.K.F.F.F.F.F.F.F.F.F.F.F.K.K.U.K.K.K.K.K.K.U.U.U.U.U.U.U.U.U.U.U.U.U.U.U.U.U.U.U.U.U.U.U.U.U.U.U.U.U.U.U.U.U.U.U.U.U.U.U.U.U.K.U.U.U.U.K.K.K.K.K.K.K.K.K.K.K.U.U.U.U.K.K.K.K.K.K.K.K.K.K.K.K.K.F.K.K.K.K.K.K.K.K.K.K.K.K.K.K.F.K.F.S.S.S.S.F.S.B.U./ k ",
"K.K.K.K.K.K.K.K.F.F.K.K.K.K.K.K.K.K.K.K.K.K.K.K.K.K.K.K.K.K.K.U.U.U.U.U.U.U.U.U.U.U.U.U.U.U.U.U.U.U.U.U.U.U.U.U.U.R.U.U.U.U.K.U.K.U.U.K.K.U.B.4.3.#.] ....+.4.e.8.4.] ( ] +.z.F.S.S.S.S.S.S.S.S.S.S.S.F.S.S.S.S.S.S.S.S.S.S.S.S.S.S.S.S.S.F.F.F.F.S.B.B.B.B.S.S.F.F.F.F.F.F.F.F.F.F.F.F.F.F.F.F.F.F.K.F.F.K.K.F.K.K.K.K.F.F.S.S.S.F.F.K.K.K.K.F.F.F.F.K.K.K.K.K.K.F.F.F.F.F.F.F.F.F.F.F.F.F.F.F.F.F.F.F.F.F.F.F.F.F.F.F.F.F.F.F.K.F.F.F.F.F.F.F.F.F.K.F.K.K.F.F.F.F.K.F.F.K.F.S.S.B.B.S.S.S.F.S.B.k.F.z.K.R.K.(.;.C 0 I 3.;.3.+.3.8.3.-.#.;.8.e.e.4.4.s.B.B.F.F.K.K.U.U.K.K.K.K.U.K.K.U.U.K.F.F.F.K.K.K.K.K.K.K.K.K.K.K.K.K.K.K.K.K.K.K.K.K.U.U.U.K.K.K.K.K.K.K.K.K.K.K.K.K.K.K.K.U.U.U.U.R.R.U.R.U.U.U.U.U.U.U.U.U.K.K.K.K.U.U.K.K.K.K.U.U.U.U.K.K.K.K.K.K.K.K.F.F.F.F.F.F.F.K.K.K.K.K.K.K.K.U.U.U.U.U.U.U.U.U.U.U.U.U.U.U.U.K.U.U.U.K.K.K.K.K.K.S.v.z.v.B.B.v.F.K.R.F.F.R.S.B.K.K.K.R.R.8.I / ] ..;.e.e.y.k.s.4.e.;...] -.k.K.K.K.K.K.K.K.K.K.K.K.F.F.F.F.F.K.F.F.K.K.K.K.K.K.K.K.K.K.K.U.K.K.K.K.U.U.U.U.U.K.U.U.U.U.U.U.U.U.U.U.U.U.U.U.U.U.K.U.U.U.U.U.U.U.U.U.U.U.K.K.K.K.K.K.K.K.U.U.U.U.U.K.F.K.K.K.K.K.K.K.K.K.K.K.K.K.K.K.K.K.K.K.K.K.K.F.K.K.K.K.K.K.K.K.K.F.F.K.F.S.B.S.F.S.S.B.R./ k ",
"K.K.K.K.K.K.K.K.F.K.K.K.K.K.K.F.K.K.K.K.K.K.K.K.K.K.K.K.K.K.K.U.U.U.U.U.U.U.U.U.U.U.U.U.U.U.U.U.U.U.U.U.U.U.U.U.U.R.U.U.U.U.K.U.K.U.K.U.U.F.v.8.;.#...+...+.4.e.8.4.] ( ] #.z.F.S.S.S.S.S.S.S.S.S.S.S.F.S.S.S.S.S.S.S.S.S.S.S.S.S.S.S.S.S.F.F.F.F.F.F.F.F.F.S.F.F.F.F.F.F.F.F.F.F.F.F.F.F.F.F.F.F.K.K.K.K.K.K.K.K.K.K.K.F.F.F.S.S.F.F.K.K.K.K.F.F.F.F.K.K.F.F.K.K.F.F.F.F.F.F.F.F.F.F.F.F.F.F.F.F.F.F.F.F.F.F.F.F.F.F.F.F.F.F.F.F.F.F.F.F.K.K.K.K.F.K.F.S.F.F.U.F.F.K.F.S.F.S.B.B.v.z.z.v.B.B.B.B.z.S.z.F.K.K.R.-.N t / 3.3.;...;.8.3.;.-.;.4.8.4.3.3.s.B.B.S.S.K.K.K.K.K.K.K.K.U.K.K.U.U.K.F.F.F.K.K.K.K.K.K.K.K.K.K.K.K.K.K.K.K.K.K.K.K.K.K.K.K.K.K.K.K.K.K.K.K.K.K.K.U.U.K.U.U.U.U.U.U.R.R.U.R.U.U.U.U.U.U.U.U.U.K.K.K.U.U.U.K.K.K.K.U.U.U.U.K.K.K.K.K.K.K.K.K.K.K.F.F.K.K.K.K.K.K.K.U.U.U.U.K.K.K.K.K.K.K.K.K.K.U.K.K.U.U.K.K.K.K.K.K.K.K.K.F.S.B.B.S.F.F.F.U.U.!.F.F.R.S.B.K.K.F.U.U.8.Q ( ] ] -.8.8.e.s.y.8.e.-.....;.s.F.K.K.K.K.K.K.K.K.K.K.F.F.F.F.K.K.F.K.K.K.K.K.K.K.K.K.K.K.K.K.K.K.K.K.U.U.U.U.U.U.U.U.U.U.U.U.U.U.U.U.U.U.U.U.U.U.U.U.U.U.U.U.U.U.U.K.K.K.K.K.K.K.K.K.K.K.U.K.K.U.U.K.F.K.K.K.K.K.K.K.K.K.K.K.K.K.K.K.K.K.K.K.K.K.K.K.K.K.K.F.K.K.K.K.K.F.F.K.F.S.B.S.F.S.S.B.R./ k ",
"K.K.K.K.K.K.K.F.K.K.K.K.F.F.F.F.K.K.K.K.K.K.K.K.K.K.K.K.K.U.U.U.U.U.U.U.U.U.U.U.U.U.U.U.U.U.U.U.U.U.U.U.U.U.U.U.U.U.U.U.U.U.K.K.K.K.K.U.U.S.k.8.-.#.+.#.+.+.4.e.4.3...] ] -.v.F.S.S.S.S.S.S.B.B.S.S.S.F.S.S.S.S.S.S.S.S.S.S.S.S.S.S.S.S.S.F.F.F.F.F.F.K.K.F.F.F.F.F.F.F.F.F.F.F.F.F.F.F.F.F.F.F.K.U.U.U.K.K.K.K.K.K.K.K.F.F.F.F.F.F.F.K.K.K.F.F.F.F.F.F.F.F.F.F.K.F.F.F.F.F.F.F.F.F.F.F.F.F.F.F.F.F.F.F.F.F.F.F.F.F.F.F.F.F.F.F.F.F.S.S.F.F.F.F.F.S.K.F.S.F.F.F.U.F.F.v.s.y.4.3.3.8.8.e.z.B.v.B.B.v.S.z.F.F.U.U.-.N d ( 4.4.;.] -.8.4.3.;.-.;.3.3.;.;.s.B.S.S.S.F.K.K.K.K.K.K.U.K.K.K.K.K.K.F.F.F.K.K.K.K.K.K.K.K.K.K.K.K.K.K.K.K.K.K.K.K.K.K.K.K.K.K.K.K.K.K.K.K.K.K.U.U.U.U.U.U.U.U.U.U.R.R.U.R.U.U.U.U.U.U.U.U.U.K.K.K.K.U.U.U.U.K.K.K.K.K.K.K.K.K.K.K.K.K.K.K.K.K.F.F.K.K.U.K.K.K.U.U.U.K.K.F.F.F.K.K.K.K.F.K.F.F.K.F.F.F.K.K.K.K.K.K.F.F.F.F.F.F.K.K.K.K.K.U.K.R.K.K.R.K.K.K.K.K.K.U.e./ ( +...3.e.8.y.z.s.e.8.-...#.;.s.S.K.K.K.K.K.K.K.K.K.F.F.F.F.K.K.F.K.K.K.K.K.K.K.K.K.K.K.K.K.K.K.K.K.K.K.U.U.U.U.U.K.U.U.U.U.U.U.U.U.U.U.U.U.U.U.U.U.U.U.U.U.K.K.K.F.F.F.K.U.U.U.U.U.K.K.K.K.K.K.K.K.K.F.K.K.K.K.K.U.U.K.K.K.K.K.K.F.K.K.K.K.K.K.K.K.K.K.K.K.K.K.K.K.K.K.K.K.K.F.S.B.S.F.F.S.S.R.( k ",
"K.K.K.K.K.K.F.F.F.F.F.F.K.K.K.K.K.K.K.K.K.K.K.K.K.K.K.K.U.U.U.U.U.U.U.U.U.U.U.U.U.U.U.U.U.U.U.U.U.U.U.U.U.U.U.U.U.U.U.U.U.U.K.K.U.K.F.R.R.B.y.3.#.+.+.-.#.+.4.e.4.3...] ..3.B.F.S.S.S.S.S.B.B.B.S.S.S.S.S.S.S.S.S.S.S.S.S.S.S.S.S.S.S.S.S.F.F.F.F.F.F.F.F.F.F.F.F.F.F.F.F.F.F.F.F.F.F.F.F.F.F.F.K.U.U.U.K.K.K.K.K.K.F.F.F.F.F.F.F.F.F.F.F.F.F.F.F.F.F.F.F.F.F.F.K.K.F.F.F.F.F.F.F.F.F.F.F.F.F.F.F.F.F.F.F.F.F.F.F.F.F.F.F.F.F.F.S.S.S.B.S.S.S.S.F.v.F.U.U.U.S.k.k.y.y.8.4.8.4.3.8.s.s.s.B.B.v.B.B.S.F.v.K.F.R.U.;.N d / 4.e.;.] -.8.8.8.3.-.-.-.-.#.-.s.S.S.F.S.F.F.F.K.K.K.K.K.K.K.K.K.K.F.F.F.F.K.K.K.K.K.K.K.K.F.F.K.K.K.K.K.K.K.K.K.K.K.K.K.K.K.K.U.U.U.K.K.K.K.K.U.U.U.U.U.U.U.U.U.U.R.R.R.R.U.U.U.U.U.U.U.U.U.K.K.K.K.U.K.U.U.U.U.K.K.K.K.K.K.K.K.K.K.K.U.K.K.K.F.F.K.K.U.K.K.U.K.F.F.F.F.S.F.F.K.K.K.K.F.F.F.F.F.S.B.B.S.F.F.F.F.F.F.K.K.K.K.U.U.U.K.K.K.K.K.K.K.K.U.K.U.U.U.K.U.U.y.( ] +.+.3.e.4.e.k.y.y.e.-.+.-.;.s.S.U.K.K.K.K.K.K.F.F.F.K.F.F.K.K.K.K.K.K.K.K.K.K.K.K.K.K.K.K.K.K.K.K.K.K.U.U.U.U.U.K.U.U.U.U.K.U.U.U.U.U.U.U.U.U.U.U.U.K.K.K.K.K.F.S.B.S.F.K.U.U.U.U.K.K.K.K.K.K.K.K.K.K.K.K.K.K.K.U.U.K.K.K.K.K.K.K.K.K.K.K.K.K.F.K.K.K.K.K.K.K.K.K.K.K.K.K.K.F.S.B.B.S.F.F.S.!.( k ",
"K.K.K.K.K.K.F.F.F.F.F.F.K.K.K.K.K.K.K.K.K.K.K.K.K.K.K.K.U.U.U.U.U.U.U.U.U.U.U.U.U.U.U.U.U.U.U.U.U.U.U.U.U.U.U.U.U.U.U.U.R.U.K.K.U.U.K.U.U.v.8.#.....+.#.+.#.4.e.8.3.+.] ] 4.S.S.S.S.S.S.S.B.B.B.S.S.S.S.S.S.S.S.S.S.S.S.S.S.S.S.S.S.S.S.S.S.F.F.F.F.F.F.F.F.F.F.F.F.F.F.F.F.F.F.F.F.F.F.F.F.F.K.K.U.U.K.K.K.K.F.K.K.F.F.F.F.F.F.F.F.F.F.F.F.F.F.F.F.F.F.F.F.F.F.F.F.F.F.F.K.F.F.K.F.F.F.F.F.F.F.F.F.F.F.F.F.F.F.F.F.F.F.F.F.F.F.F.S.S.B.B.B.B.B.k.y.z.B.S.F.z.8.8.4.e.e.y.z.v.B.S.K.F.B.S.S.B.S.S.F.F.B.K.F.!.R.4.N u Q 8.e.;.] -.4.8.8.4.-.-.-.-.#.-.s.S.F.F.F.F.F.F.F.K.K.K.F.F.K.K.K.K.F.F.F.F.K.K.K.K.K.K.F.F.F.F.K.K.K.K.K.K.K.K.K.K.K.K.K.K.K.U.U.U.U.U.U.K.K.U.U.U.U.U.U.U.U.U.U.U.R.R.U.R.U.U.U.U.U.U.U.U.U.K.K.K.K.K.K.U.U.K.K.K.U.K.K.U.U.K.K.K.U.U.U.K.K.F.F.F.F.F.K.K.U.U.F.B.B.B.S.F.F.F.K.K.K.K.F.F.F.K.K.S.v.v.S.F.F.F.F.F.K.U.U.U.U.U.U.U.U.K.K.U.K.K.K.K.U.K.U.U.R.K.K.U.y.( ( ..+.3.e.8.e.k.y.s.e.-.#.-.;.s.F.U.K.K.K.K.F.F.F.F.F.K.K.F.F.F.F.K.K.K.K.K.K.K.K.K.K.K.K.U.U.K.K.K.K.K.U.U.U.U.U.K.U.U.U.K.K.K.U.U.U.U.U.U.U.U.U.U.K.K.K.F.F.F.F.S.S.S.F.K.K.K.F.K.K.K.K.K.K.K.K.K.K.K.K.U.U.U.U.U.U.U.U.K.K.K.K.K.K.K.F.K.K.K.K.K.K.K.K.K.F.K.K.F.K.K.F.F.K.F.S.B.B.S.S.S.S.R.( k ",
"K.K.K.K.K.K.F.F.F.F.F.F.K.K.K.K.K.K.K.K.K.K.K.K.K.K.U.U.U.U.U.U.U.U.U.U.U.U.U.U.U.U.U.U.U.U.U.U.U.U.U.U.U.U.U.U.U.R.U.U.R.U.K.K.U.R.K.U.U.v.3...] ....+.+.#.8.e.8.3.+.( ( 4.S.S.B.S.S.S.B.B.B.B.S.S.F.S.S.S.S.F.S.S.S.S.S.S.S.S.S.S.S.S.S.S.F.F.F.F.F.F.F.F.F.F.F.F.F.F.F.F.F.F.F.F.F.F.F.F.K.K.K.U.U.K.K.K.K.F.K.K.K.F.F.F.F.F.F.F.F.F.F.F.F.F.F.F.F.F.F.F.F.F.F.F.F.F.F.K.F.F.K.F.F.F.F.F.F.F.F.F.F.F.F.F.F.F.F.F.F.F.F.F.F.F.F.F.S.S.B.B.B.B.v.k.B.S.F.K.S.v.B.v.S.S.S.F.F.F.F.K.F.S.F.S.B.S.F.K.K.B.K.F.R.R.4.G u / e.e.-.] #.3.8.8.4.-.-.-.;.-.-.s.S.F.F.S.F.F.F.F.K.K.F.F.F.K.U.K.F.F.F.F.K.K.U.K.K.K.F.F.F.F.F.K.K.K.U.U.U.U.K.K.K.K.K.K.K.U.U.U.U.U.U.U.K.U.U.U.U.U.U.U.U.U.U.U.U.R.R.U.R.U.U.U.U.U.U.U.U.U.K.K.K.K.K.K.K.K.K.K.U.U.K.K.U.U.K.K.K.K.U.U.K.K.F.F.S.S.F.F.K.U.U.F.B.v.B.S.F.K.K.K.U.U.K.K.K.K.U.U.K.F.S.F.K.F.K.F.K.U.U.R.R.R.R.U.U.U.K.K.U.K.K.U.U.K.K.K.K.U.K.K.K.e./ / +.-.4.e.e.y.k.s.s.y.;.#.-.;.s.F.U.K.K.K.F.F.F.F.F.F.K.K.F.F.F.F.K.K.K.K.K.K.K.K.K.K.K.K.U.U.K.K.K.K.K.U.U.U.U.U.K.U.U.K.F.F.K.U.U.U.U.U.U.U.U.U.U.K.F.F.F.F.F.F.F.S.S.F.K.K.F.F.K.K.K.K.K.K.K.K.K.K.K.K.U.U.U.U.U.U.U.U.K.K.K.K.K.K.K.K.K.K.K.K.K.K.K.F.K.K.K.K.F.K.K.F.F.K.F.S.B.B.B.S.S.S.R.( k ",
"K.K.K.K.K.K.F.F.F.F.F.F.F.K.K.K.K.K.K.K.K.K.K.K.K.K.U.U.U.U.U.U.U.U.U.U.U.U.U.U.U.U.U.U.U.U.U.U.U.U.U.U.U.U.U.U.U.U.U.U.R.U.K.K.U.R.K.U.U.z.3.+...+...] ..-.e.e.8.3.+./ / 4.S.B.B.B.S.S.B.B.B.S.S.S.S.S.S.S.S.F.S.S.S.S.S.S.S.S.S.S.S.S.S.S.F.F.S.F.F.F.F.F.F.S.F.F.F.F.F.F.F.F.F.F.F.F.F.F.K.K.K.U.U.K.K.K.K.K.K.K.K.K.K.F.F.F.F.F.F.F.F.F.F.F.F.F.F.F.F.F.F.F.F.F.F.F.F.F.F.F.F.F.F.F.F.F.F.F.F.F.F.F.F.F.F.F.F.F.F.F.F.F.F.F.F.F.F.S.S.S.S.S.B.B.S.S.S.F.F.F.U.K.U.K.F.K.F.S.F.F.F.K.K.F.B.B.F.F.K.S.K.F.U.R.3.I d ( y.3.#...#.3.4.e.8.;.;.;.;.#.-.y.S.F.F.S.F.F.F.F.K.K.K.F.F.K.U.K.F.F.F.F.K.K.U.K.K.F.K.F.F.F.F.K.K.U.U.U.U.K.K.K.K.U.K.U.U.U.U.U.U.U.U.U.K.K.U.U.U.U.U.U.U.U.U.U.U.R.R.R.R.U.U.U.U.U.U.U.U.U.K.K.K.K.K.U.K.K.K.K.U.U.U.K.U.U.K.K.K.K.K.K.K.K.F.F.S.S.F.F.K.U.U.K.S.B.S.K.U.U.K.U.U.U.U.K.K.U.U.U.U.U.U.K.K.K.K.K.U.U.R.R.R.R.R.R.U.K.K.K.K.K.K.K.U.U.U.U.K.U.K.K.K.8.Q / ..-.4.8.e.e.y.y.s.s.3.-.-.;.s.S.U.K.K.K.F.F.F.F.F.F.K.K.K.F.F.F.K.K.K.K.K.K.K.K.K.K.K.K.U.U.U.K.K.K.K.U.U.U.U.U.U.U.U.K.S.S.F.U.U.U.U.U.U.U.U.U.U.K.F.F.F.K.F.F.F.S.F.F.K.K.K.K.K.K.K.K.K.K.K.K.K.K.U.U.U.U.U.K.U.U.U.K.K.K.K.K.K.K.K.K.K.K.K.K.K.K.K.K.K.K.K.K.F.K.F.F.F.K.K.F.B.B.B.B.S.B.R.( k ",
"K.K.K.K.K.K.F.F.F.F.F.F.F.F.K.K.K.K.K.K.K.K.K.K.K.U.U.U.U.U.U.U.U.U.U.U.U.U.U.U.U.U.U.U.U.U.U.U.U.U.U.U.U.U.U.U.U.U.U.U.R.R.K.K.U.U.F.U.U.k.3.#.+.+...] ] ;.e.e.8.;.+.Q Q 4.S.B.B.B.S.B.B.B.B.S.S.F.F.S.S.S.S.F.S.S.S.S.S.S.S.S.S.S.S.S.S.S.F.F.F.F.F.F.F.F.F.F.F.F.F.F.F.F.F.F.F.F.F.F.F.F.F.K.U.U.U.K.K.K.K.K.K.K.K.K.K.F.F.F.F.F.F.F.F.F.F.F.F.F.F.F.F.F.F.F.F.F.F.F.F.F.F.F.F.F.F.S.F.F.F.F.F.F.F.F.F.K.K.K.K.K.F.F.F.F.F.F.F.F.F.F.F.F.F.F.S.S.F.S.S.F.B.S.F.S.F.S.S.F.F.F.K.B.B.S.F.F.S.S.F.S.K.B.K.F.U.!.3./ k ] e.-.+.+.-.3.4.e.8.;.-.;.-.#.#.y.S.F.F.S.F.F.F.F.K.K.K.K.F.K.U.K.F.F.F.F.K.K.U.K.K.F.F.F.F.F.F.K.K.U.U.U.U.U.U.U.K.K.K.K.U.U.U.U.U.U.U.U.K.K.K.U.U.U.U.U.U.U.U.U.U.R.R.R.R.U.U.U.U.U.U.U.U.U.K.K.K.K.K.U.K.K.K.K.U.U.K.K.U.U.K.K.K.U.K.K.K.K.K.F.F.F.F.F.K.U.U.K.F.F.K.U.U.U.U.U.U.U.U.U.U.U.K.K.U.R.R.K.K.K.U.U.U.R.R.R.U.R.R.U.U.K.K.K.K.U.K.K.K.K.U.K.U.U.K.K.K.8.Q ( +.3.8.8.e.e.e.y.s.s.4.-.-.3.s.S.U.K.K.K.F.F.F.F.F.F.K.K.K.F.F.F.K.K.K.K.K.K.K.K.K.K.K.K.U.U.U.K.K.K.K.U.U.U.U.U.U.U.U.F.S.S.F.U.U.U.U.U.U.U.U.U.U.K.K.F.K.K.K.K.K.F.K.K.K.K.K.K.K.K.K.K.K.K.K.K.K.K.U.U.K.U.U.K.U.U.U.K.K.K.K.K.K.K.K.K.K.K.K.K.K.K.K.K.K.K.K.K.F.K.F.F.F.K.K.F.B.v.v.B.S.B.R.( k ",
"K.K.U.K.K.K.F.F.F.S.S.F.F.F.F.F.K.K.K.K.K.K.K.K.K.U.U.U.U.U.U.U.U.U.U.U.U.U.U.U.U.U.U.R.U.R.R.R.U.U.U.U.U.U.U.U.U.U.K.K.U.U.U.K.K.U.F.K.F.y.3.-.+.+.] / ( 4.k.e.s.;.+.Q J 4.F.v.S.S.B.S.B.B.B.S.F.F.S.S.S.S.S.F.S.S.S.S.S.S.S.S.S.S.S.S.S.S.F.F.F.F.F.F.F.F.F.F.F.F.F.F.F.F.F.F.F.F.F.F.F.F.F.K.K.U.U.K.K.K.K.K.K.K.K.K.K.K.F.F.F.F.F.F.F.F.F.F.F.F.F.F.F.F.F.F.F.F.F.F.F.F.F.F.F.F.F.F.F.F.F.F.F.F.K.F.F.F.F.F.K.K.K.K.F.F.F.F.F.F.F.F.F.K.K.F.F.F.K.K.K.K.F.F.K.K.F.F.F.S.S.S.F.F.S.S.F.F.F.F.K.S.F.S.K.F.U.R.3.Q z ] 4.+.#.+.-.;.3.4.3.;.-.-.#.#.+.s.B.F.F.S.F.F.K.K.K.K.U.K.K.K.K.K.F.S.S.F.K.K.K.K.K.F.F.F.F.F.F.F.K.K.K.K.K.U.U.U.U.K.K.U.U.U.U.U.U.U.U.U.K.K.U.U.U.U.U.U.K.U.U.U.U.R.R.U.R.R.U.U.U.U.U.U.U.U.K.K.K.K.U.U.K.K.K.K.K.K.K.K.U.K.K.K.K.K.K.K.K.K.K.F.F.F.K.K.K.K.U.U.U.U.U.U.K.K.U.U.U.U.U.K.U.U.U.U.U.U.U.U.K.K.K.K.U.U.U.R.U.R.R.U.U.U.U.K.U.U.K.K.K.K.K.U.U.K.U.K.U.e./ ( -.3.e.8.8.e.e.y.k.s.4.-.-.;.y.B.K.K.K.K.K.K.F.F.F.F.F.F.F.F.F.F.K.K.K.K.K.K.K.K.K.K.K.K.U.U.U.U.K.K.K.U.U.U.U.U.U.U.U.K.K.F.K.K.K.K.U.K.U.K.K.U.K.F.F.F.F.F.K.K.F.F.K.K.K.K.F.F.K.K.K.F.K.K.K.K.K.K.K.K.K.K.K.K.K.K.U.U.K.K.K.K.K.K.K.K.F.K.K.K.K.K.K.K.K.K.K.K.K.F.F.F.K.K.K.K.S.z.v.B.S.S.R./ k ",
"K.U.U.K.K.K.F.F.F.S.S.F.F.F.F.F.F.K.K.K.K.U.K.K.K.U.U.U.U.U.U.U.U.U.U.U.U.U.U.U.U.U.U.U.U.U.R.R.U.U.U.U.U.U.U.U.U.U.K.K.U.U.U.K.K.U.K.K.B.e.;.-...+.( / / ;.k.s.y.4.+.I I 4.S.B.F.S.B.B.B.B.S.S.S.S.S.S.S.S.S.S.S.S.S.S.S.S.S.S.S.S.S.S.S.S.F.F.F.F.F.F.F.F.F.F.F.F.F.F.F.F.F.F.F.F.F.F.F.F.F.F.K.U.U.U.K.K.K.K.U.K.K.K.K.K.F.F.F.F.F.F.F.F.F.K.F.F.F.F.F.F.F.F.F.F.F.F.F.F.F.F.F.F.F.F.F.F.F.F.F.F.F.F.F.F.F.F.F.F.F.K.F.F.F.F.F.F.F.F.F.K.F.F.F.F.F.F.F.F.F.F.F.F.F.F.F.F.F.F.K.K.F.F.F.F.F.F.F.S.F.S.K.F.K.R.3./ z ( 3.....;.-.-.-.;.-.-.-.-.#.#.+.s.B.S.F.S.F.F.K.K.K.K.K.K.K.K.K.K.K.F.S.F.K.K.K.K.K.F.F.F.F.F.F.F.K.K.K.K.K.U.U.U.U.K.U.U.U.U.U.U.U.U.U.U.K.K.U.U.U.U.U.U.U.U.U.U.U.R.R.U.R.R.U.U.U.U.U.U.U.U.K.K.K.K.U.U.K.K.K.K.K.K.K.K.K.K.K.K.K.K.K.K.K.K.K.K.K.K.K.K.K.K.U.U.U.U.U.U.K.K.U.U.U.U.U.U.U.U.U.U.U.U.U.U.K.K.K.K.K.U.U.U.U.R.R.U.U.U.U.K.U.U.K.K.K.K.K.K.U.K.U.K.U.e./ ] #.3.y.y.e.y.y.y.k.s.4.;.-.;.y.S.K.K.K.K.K.K.F.F.F.F.F.F.K.F.F.F.K.K.K.K.K.K.K.K.K.K.K.K.U.U.U.U.K.K.U.U.U.U.U.U.K.K.K.K.K.K.K.K.U.U.K.K.K.K.K.U.K.K.F.F.F.K.K.K.F.K.K.K.K.K.K.F.K.K.K.K.K.K.K.K.K.K.K.U.K.K.K.K.K.K.U.U.K.K.K.K.F.K.K.K.K.K.K.K.K.K.K.K.K.K.K.F.K.F.F.F.K.K.K.K.F.v.v.B.B.B.R.( k ",
"U.U.U.K.F.F.F.F.F.F.F.F.F.F.F.F.F.K.K.K.K.U.K.K.K.U.U.U.U.U.U.U.U.U.U.U.U.U.U.U.U.U.U.U.U.U.U.U.U.U.U.U.U.U.U.U.U.U.K.K.K.U.K.K.K.U.K.F.z.4.;.;.4.3.../ I ..k.v.y.4...G I 4.S.S.F.S.B.B.B.S.S.S.S.S.S.S.S.S.S.S.S.S.S.S.S.S.S.S.S.S.S.S.S.F.F.F.F.F.F.F.F.F.F.F.F.F.F.F.F.F.F.F.F.F.F.F.F.F.F.F.F.K.U.U.K.K.U.U.U.U.K.K.K.K.F.F.F.F.F.F.F.F.F.K.F.F.F.F.F.F.F.F.F.F.F.F.F.F.F.F.F.F.F.F.F.F.F.F.F.F.F.F.F.F.K.K.F.F.F.F.F.F.F.F.F.F.F.F.F.K.K.F.F.F.F.F.F.F.F.F.F.F.F.F.F.K.K.K.K.K.F.F.F.F.F.F.F.S.F.S.K.F.K.U.;./ z G +.] ( -.-.-.#.#.#.-.-.-.-.#.+.s.B.S.F.F.F.F.K.K.K.K.K.K.K.K.K.K.K.F.F.K.K.K.K.K.K.F.F.F.F.F.F.F.K.K.U.U.K.U.U.U.U.U.U.U.U.K.K.K.K.K.K.K.K.K.U.U.U.U.U.U.U.U.U.U.U.R.R.R.R.R.R.U.U.U.U.K.U.U.U.K.K.K.K.U.K.K.U.K.K.K.K.K.U.U.U.U.U.U.U.U.U.U.K.K.K.K.K.K.K.U.U.U.U.U.U.U.K.K.U.U.U.U.K.K.U.U.U.K.K.K.K.K.U.K.K.K.K.K.K.U.U.U.R.R.U.U.U.U.U.U.K.K.K.K.K.K.K.K.U.K.U.e.( ..+.;.y.s.y.s.s.y.s.y.4.;.;.3.y.K.K.K.K.K.K.K.K.K.F.F.F.F.F.K.K.K.K.K.K.K.K.K.K.K.K.K.K.K.U.U.U.U.U.U.U.U.U.U.K.K.K.K.K.K.K.K.K.U.U.U.K.K.K.K.K.K.K.K.K.F.F.K.K.K.K.K.K.K.K.K.K.K.K.K.K.K.K.K.K.K.K.K.K.U.U.U.K.K.K.K.U.U.U.K.K.K.K.K.K.K.K.K.K.K.K.K.K.K.K.K.K.K.K.F.F.F.K.K.K.K.K.B.B.v.v.v.R.( k ",
"U.U.K.F.F.F.F.F.F.F.F.F.F.F.F.F.F.K.K.K.K.K.K.K.K.U.U.U.U.U.U.U.U.U.U.U.U.U.U.U.U.U.U.U.U.U.U.U.U.U.U.U.U.U.U.U.U.U.U.K.U.K.K.K.K.U.F.v.e.;.3.3.e.8.#.+.] ..y.k.y.3...J I 3.B.F.F.S.B.B.S.S.S.B.B.B.S.S.S.S.S.S.F.F.F.F.F.F.F.F.S.S.S.S.S.F.F.F.F.F.F.F.F.F.F.F.F.F.F.F.F.F.F.F.F.F.F.F.F.F.F.F.F.K.U.U.U.U.U.U.U.K.K.K.F.F.F.F.F.F.F.F.F.F.F.F.F.F.F.F.F.F.F.F.F.F.F.F.F.F.F.F.F.F.F.F.F.F.F.F.F.F.F.F.F.F.K.K.F.F.F.F.F.F.F.F.F.F.F.F.F.F.K.F.K.F.F.F.F.F.F.K.F.F.F.F.F.K.K.K.F.F.F.F.F.F.F.F.F.S.F.F.K.F.U.U.3.( m N ] +.+.#.-.-.-.-.;.;.;.;.-.#.+.y.v.B.S.F.F.K.K.K.K.K.K.K.K.K.K.K.K.F.F.K.K.K.K.K.F.F.F.F.F.S.S.F.F.K.K.U.K.U.U.U.U.U.U.U.K.K.K.K.K.K.K.K.K.K.U.U.U.U.U.U.U.U.U.U.U.U.R.R.R.R.R.R.U.U.U.K.U.K.K.K.K.K.K.K.U.U.U.U.U.U.U.U.U.U.U.U.U.U.U.U.U.U.U.U.U.U.U.U.U.U.U.U.U.U.U.U.K.U.U.U.U.K.K.K.U.U.K.K.K.K.K.K.U.K.K.K.K.K.K.K.U.U.R.R.U.U.U.U.U.U.K.K.K.K.K.K.K.K.U.K.U.e.( ..+.-.e.y.y.k.k.s.y.8.3.;.;.;.y.K.K.K.K.K.K.K.K.K.K.K.K.F.F.K.K.K.K.K.K.K.K.K.K.K.K.K.K.K.K.U.U.U.U.U.U.U.U.U.K.K.K.K.K.K.K.K.K.K.K.U.K.K.K.K.U.U.K.K.K.K.K.K.K.K.K.K.K.K.K.K.K.K.K.K.K.K.K.K.K.K.K.K.K.K.U.K.K.K.K.K.U.U.U.K.K.K.K.K.K.K.K.K.K.K.F.K.K.K.K.K.K.K.K.K.F.K.K.K.K.K.K.B.v.v.z.v.R.( k ",
"U.U.K.F.F.F.F.F.F.S.F.F.F.F.F.F.F.K.K.K.K.U.U.K.U.U.U.U.U.U.U.U.U.U.U.U.U.U.U.U.U.U.U.U.U.U.U.U.U.U.U.U.U.U.U.U.U.U.U.U.U.K.K.K.U.U.S.k.4.3.8.8.4.4.#.#.+.#.e.y.s.;.../ I -.v.F.F.S.S.B.B.S.S.B.B.B.S.S.S.S.S.S.F.F.F.S.F.F.F.F.S.S.S.S.F.F.F.F.F.F.F.F.F.F.F.F.F.F.F.F.F.F.F.F.F.F.F.F.F.F.F.F.F.K.U.U.U.U.U.K.U.K.K.F.F.F.F.F.F.F.F.F.F.F.F.F.F.F.F.F.F.F.F.F.F.F.F.S.F.K.F.F.F.F.F.F.F.F.F.F.F.F.F.F.F.F.K.K.F.F.F.K.K.K.K.K.K.F.F.F.F.F.F.F.F.F.F.F.F.F.F.F.F.F.F.K.K.K.K.F.F.F.F.F.F.F.F.F.F.F.F.F.K.F.U.R.3./ N C / +.-.#.#.-.-.;.3.4.4.3.-.#.#.s.v.v.S.F.F.K.K.K.K.K.K.K.K.K.K.K.U.K.F.F.K.K.K.K.F.F.F.F.F.S.S.S.F.K.K.K.K.K.U.U.U.U.U.U.U.K.K.K.K.K.K.K.K.U.U.U.U.U.U.U.U.U.U.K.K.U.R.R.R.R.R.R.U.U.K.K.K.K.K.K.K.K.K.K.U.U.U.U.U.U.U.U.U.U.U.U.U.U.U.U.U.U.U.U.U.U.U.U.U.U.U.U.U.U.U.K.U.U.U.U.U.K.K.K.K.K.K.K.U.U.K.K.U.U.K.K.K.K.K.K.K.U.R.R.U.U.U.U.U.U.K.K.K.K.U.U.U.K.K.F.R.y./ ..+.#.4.y.y.k.k.e.8.3.;.;.;.3.e.K.K.K.K.K.K.K.K.U.K.K.K.K.K.K.K.K.K.K.K.K.K.K.K.K.K.K.K.U.K.U.U.U.U.U.U.U.U.U.K.K.K.K.K.K.K.K.K.K.K.U.U.K.K.U.U.U.K.K.K.K.K.K.K.K.K.K.K.K.K.K.K.K.K.K.K.K.K.K.K.K.K.K.K.K.K.K.K.K.K.K.K.K.K.K.K.K.K.K.K.K.K.K.K.K.K.K.K.K.K.K.K.K.K.K.K.K.K.K.K.K.F.B.z.z.z.v.R./ k ",
"K.U.K.F.F.F.F.F.S.S.F.F.F.F.F.F.K.K.K.K.K.K.U.K.U.U.U.U.U.U.U.U.U.U.U.U.U.U.U.U.U.U.U.U.U.U.U.U.U.U.U.U.U.U.U.U.U.U.U.U.U.K.K.K.K.K.B.s.4.4.e.8.3.-.+.+.-.;.8.y.k.;.+...Q +.k.F.F.F.S.B.B.B.S.B.B.S.S.S.S.S.S.S.F.F.F.F.F.F.F.F.F.F.S.S.F.F.F.F.F.F.F.F.F.F.F.F.F.F.F.F.F.F.F.F.F.F.F.F.F.F.F.F.F.K.U.U.K.K.K.K.U.K.K.F.K.F.F.F.F.K.K.F.F.F.F.K.K.F.F.F.F.F.F.F.F.F.F.F.F.K.F.F.F.F.F.F.F.F.F.F.F.F.F.F.F.F.K.K.F.F.K.K.K.K.K.K.F.F.F.F.F.F.F.K.F.F.F.F.F.F.F.F.F.F.F.F.K.K.K.F.F.F.F.F.F.F.F.F.F.F.F.S.K.F.U.R.;.I m J Q ( +.+.-.-.-.-.3.4.4.4.-.#.+.s.v.v.S.F.F.F.K.K.K.K.K.K.K.K.K.K.K.F.S.F.K.K.K.K.K.F.F.F.F.S.S.S.F.K.K.K.K.K.U.U.K.K.U.U.U.U.U.U.K.K.U.K.K.U.U.U.U.U.U.U.U.U.U.K.K.U.U.U.R.R.R.U.U.U.U.K.K.K.K.K.K.K.U.U.U.U.U.U.U.U.U.U.U.U.U.U.U.U.U.U.K.K.U.U.U.U.U.U.U.U.U.U.U.U.U.U.U.U.U.U.U.K.K.K.K.K.K.K.U.U.K.K.K.U.K.K.U.U.U.U.K.U.R.R.U.U.U.U.U.U.K.K.K.K.U.U.K.K.F.S.U.e.Q ] +.+.4.y.s.k.s.4.4.;.;.;.3.4.e.F.K.K.K.U.U.U.U.K.K.K.K.K.K.K.K.K.K.K.K.K.K.K.K.K.K.K.K.U.K.U.U.U.U.U.U.U.U.U.K.K.K.K.K.U.K.K.K.K.K.U.U.K.K.U.U.U.K.K.K.K.K.K.K.K.K.F.K.K.K.K.F.K.K.K.K.F.K.K.K.K.K.K.K.K.K.K.K.K.K.K.K.K.K.K.K.K.K.K.K.K.F.K.K.K.K.F.K.K.K.K.F.K.K.K.K.K.K.K.K.K.F.B.v.v.v.B.!./ k ",
"K.U.K.K.F.F.F.F.F.F.F.F.F.F.F.F.K.K.K.K.K.K.K.K.U.K.K.K.K.K.K.K.K.K.K.U.U.U.U.U.U.U.U.U.U.U.U.U.U.U.U.U.U.U.U.U.U.U.U.U.U.K.K.K.K.K.F.z.e.8.e.;.] ..-.;.4.8.3.4.y.3.#.../ +.s.K.F.F.F.S.B.B.B.B.B.S.S.S.S.S.S.S.F.F.F.F.F.F.F.F.F.F.F.F.F.F.F.F.S.S.F.F.F.F.F.F.F.F.F.F.F.F.F.F.F.F.F.F.F.F.F.F.F.K.U.U.K.K.K.K.U.U.K.K.K.K.F.F.F.F.K.K.F.F.K.K.F.F.F.F.F.F.F.F.F.F.F.F.F.F.F.F.F.F.F.F.F.F.F.F.F.F.K.K.F.F.F.K.F.K.K.K.K.K.K.K.F.F.F.F.F.F.F.K.K.K.K.K.K.K.K.K.F.F.F.F.K.K.K.F.F.F.F.F.F.F.F.F.F.S.F.S.F.F.U.U.;.Q k G / / #.#.;.;.-.-.-.3.3.;.-.#.+.s.v.B.B.S.F.F.K.K.K.K.K.K.K.K.K.K.K.F.S.F.K.K.K.K.K.K.F.F.F.F.S.F.F.F.K.K.K.K.K.K.K.K.K.U.U.U.K.K.U.U.U.U.U.U.U.U.U.U.U.U.U.U.U.K.K.U.U.U.U.U.U.U.U.U.U.U.K.K.K.K.K.U.U.U.U.U.U.U.U.U.U.U.U.U.U.U.U.U.U.U.K.K.U.U.U.U.U.U.U.U.K.K.U.U.U.U.U.U.U.U.U.K.K.K.K.K.K.K.U.U.U.K.K.K.K.K.U.U.U.U.U.U.R.U.U.U.U.U.U.U.K.K.K.U.U.U.K.K.F.S.U.e.Q ( +...3.y.y.k.s.4.3.;.4.3.4.4.e.F.K.K.K.U.K.K.K.K.K.K.K.K.K.K.K.K.K.K.K.K.K.K.K.K.K.K.K.K.K.U.U.U.U.U.U.U.U.U.K.K.K.K.K.K.K.K.K.K.K.U.U.U.U.U.U.K.K.K.K.K.K.K.K.K.K.K.K.K.K.K.K.K.K.K.K.K.K.K.K.K.K.K.K.K.K.K.K.K.K.K.K.K.K.K.K.K.K.K.K.K.K.K.K.K.K.K.K.K.K.K.K.K.K.K.K.K.K.K.K.K.F.S.S.S.S.S.!.( k ",
"K.U.U.K.K.K.F.F.F.F.F.K.K.F.F.F.F.K.K.F.F.K.K.K.U.K.K.K.K.K.K.K.K.K.K.K.U.U.U.U.U.U.U.U.U.U.U.R.U.U.U.U.U.U.U.U.U.U.U.U.K.K.K.K.K.U.K.B.s.e.4.+./ ( -.;.4.8.;.4.8.3.#.( ( +.e.K.S.F.F.S.B.B.B.B.B.S.S.S.S.S.S.S.F.F.F.F.F.F.F.F.F.F.F.F.S.S.S.S.S.S.S.F.F.F.F.F.F.F.F.F.F.F.F.F.F.F.F.F.F.F.F.F.F.K.K.K.K.K.U.U.U.U.K.K.K.K.K.F.F.F.F.F.F.F.F.F.F.F.F.F.F.F.F.F.F.F.F.F.F.F.F.F.F.F.F.F.F.F.F.F.F.F.K.K.F.F.F.F.F.K.K.K.K.F.F.F.F.F.F.F.F.F.F.K.K.K.F.F.F.F.K.K.F.F.F.K.K.K.F.F.F.F.F.F.F.F.F.F.F.S.F.S.F.F.U.U.-.I 0 k / ..;.-.-.-.-.#.-.;.;.-.-.#.+.s.B.B.B.S.F.F.K.K.K.K.K.K.K.K.F.F.K.F.S.S.K.K.K.K.K.K.F.F.F.F.F.F.F.K.K.K.K.K.K.K.K.K.K.K.K.K.K.U.U.U.U.K.U.U.U.U.U.U.U.K.U.U.U.K.U.U.U.U.U.R.U.U.U.U.U.U.K.K.K.K.U.U.U.U.U.U.U.U.U.U.U.U.U.U.U.U.U.U.U.U.U.U.U.U.U.U.U.U.U.U.K.K.U.U.U.K.U.U.U.U.U.K.K.K.K.K.K.K.U.U.K.K.K.K.K.K.U.U.K.K.U.U.R.U.U.U.U.U.U.U.K.K.K.K.U.U.K.U.K.S.R.e.I ] ..] 3.e.e.s.s.4.3.3.8.4.4.8.e.F.K.K.K.K.K.K.K.K.K.K.K.K.K.K.K.K.K.K.K.K.K.K.K.K.K.K.K.K.K.U.U.U.U.U.U.U.U.U.K.K.K.K.K.K.K.K.K.K.K.U.U.K.U.U.U.K.K.K.F.K.K.K.K.K.K.K.K.K.K.K.K.K.K.K.K.K.K.K.K.K.K.K.K.K.K.K.K.K.K.K.K.K.K.K.K.K.K.F.K.K.K.K.K.K.K.K.K.K.K.K.K.K.K.K.K.K.K.K.K.K.K.F.F.F.F.F.(.( k ",
"K.U.U.K.K.K.K.F.S.F.K.K.K.K.K.K.K.F.F.F.F.F.F.K.K.K.K.K.K.K.K.K.K.K.K.K.U.U.U.U.U.U.U.U.U.U.U.U.U.U.U.U.U.U.U.U.U.U.K.K.K.K.F.F.F.K.U.F.s.4.;.#.Q / ;.;.3.e.;.8.4.e...( ] ..s.F.F.F.F.S.B.B.S.S.B.B.S.S.S.S.S.S.F.F.F.F.F.F.F.F.F.F.F.F.F.F.S.S.S.S.S.S.S.S.F.F.F.F.F.F.F.F.F.F.F.F.F.F.F.F.F.F.F.F.K.K.K.K.K.K.U.U.K.K.F.K.K.K.F.F.F.F.F.F.F.F.K.F.F.F.F.F.F.K.F.F.F.F.F.F.F.F.F.F.F.F.F.F.F.F.K.K.K.K.F.F.F.K.K.F.F.K.K.F.F.F.F.F.F.F.F.K.K.F.K.K.K.K.K.K.K.K.K.K.K.K.F.F.F.F.F.F.F.F.F.F.F.F.S.F.F.B.F.K.U.R.;./ $ z ] ] ;.;.;.#.-.-.-.-.-.#.-.#.#.y.B.B.S.S.F.K.K.K.K.K.K.K.K.K.K.K.K.K.F.F.K.K.K.K.K.K.F.K.F.K.K.F.F.K.K.K.F.K.K.K.U.K.K.U.K.K.U.U.K.K.K.K.U.U.U.U.U.U.U.U.U.U.U.U.U.U.R.R.U.U.U.U.U.U.U.U.U.U.U.U.U.U.U.U.U.U.U.U.U.U.U.U.U.U.U.U.U.K.U.U.U.U.U.U.U.U.U.U.U.U.U.K.U.U.U.U.U.U.U.U.U.K.K.K.U.U.K.K.K.K.U.U.U.U.K.K.K.K.U.U.U.U.U.R.R.R.U.U.U.U.U.K.K.U.K.K.K.K.U.F.U.e./ ......;.8.e.s.k.e.3.8.8.4.4.4.y.F.K.K.K.K.K.K.K.K.K.K.K.K.K.K.K.K.K.K.K.K.K.K.K.K.K.K.U.U.K.K.U.U.U.U.U.U.U.U.K.K.K.K.K.K.K.K.U.U.K.K.U.U.U.U.U.K.F.F.F.K.K.K.K.K.K.F.K.K.K.K.K.K.K.K.K.K.K.K.K.K.K.K.U.U.K.K.K.K.K.K.K.F.K.K.K.K.K.K.K.K.K.K.K.K.K.K.K.K.K.K.K.K.K.K.K.K.K.K.K.K.K.F.K.K.F.F.(.( k ",
"U.U.U.K.K.K.K.K.F.K.K.K.K.F.F.K.K.F.S.F.F.K.K.K.K.K.K.K.K.K.K.K.K.K.K.K.K.K.U.U.U.U.U.U.U.U.U.U.U.U.U.U.U.U.U.U.U.U.K.K.K.K.F.F.F.F.K.F.k.4.-.#.....3.3.4.e.3.8.4.e...( ] ..s.F.S.F.F.S.B.B.S.S.S.S.S.S.S.F.S.S.F.F.F.F.F.F.F.F.F.F.F.F.F.F.F.S.S.S.S.S.S.S.F.F.F.F.F.F.F.F.F.F.F.F.F.F.F.F.F.F.F.F.K.K.K.K.K.U.U.U.K.K.K.F.F.F.F.F.F.F.F.F.F.F.K.F.F.F.F.F.F.K.F.F.F.F.F.F.F.F.F.F.F.F.F.F.F.F.K.K.K.F.F.F.F.K.F.F.F.F.F.F.F.F.F.F.F.F.F.F.F.F.K.K.K.K.K.K.K.K.K.K.K.F.K.F.F.F.F.F.F.F.F.F.F.F.F.F.K.S.K.K.U.R.;./ * m ..( -.-.#.#.-.;.;.;.;.#.;.-.-.s.B.v.S.F.F.K.K.K.K.K.U.K.K.K.K.K.K.K.K.K.U.U.U.K.K.K.K.K.F.F.K.F.F.K.K.K.F.K.K.K.K.K.K.U.K.K.U.U.K.K.K.U.U.U.U.U.U.U.U.U.U.U.U.U.U.U.U.R.U.U.U.U.U.U.U.U.U.U.U.U.U.U.U.U.U.U.U.U.U.U.U.U.U.U.U.U.U.U.U.U.U.U.U.K.U.U.U.U.U.U.U.U.U.U.U.U.U.U.U.U.U.K.K.K.U.U.U.K.K.K.U.U.U.U.K.K.K.U.U.U.K.U.U.U.U.U.U.U.U.U.U.K.K.U.K.K.U.K.U.K.U.y.( ..+.+.;.8.e.y.s.4.4.e.8.4.4.4.s.K.K.K.K.K.K.K.K.K.K.K.K.K.K.K.K.K.K.K.K.K.K.K.K.K.K.K.K.K.K.K.U.U.U.U.U.U.U.U.K.K.K.K.K.K.K.K.K.K.K.K.K.U.U.U.K.K.K.K.K.K.K.K.F.F.K.K.K.K.K.K.K.F.K.K.K.K.K.K.K.K.K.K.K.K.K.K.K.K.K.K.K.K.K.K.K.K.K.K.K.K.K.K.K.K.K.K.K.K.K.K.K.F.K.K.K.K.K.K.K.K.K.F.K.K.K.F.(.( k ",
"U.U.U.U.K.U.K.K.K.K.K.K.K.K.F.F.K.F.F.F.K.K.K.K.K.K.K.K.K.K.K.K.K.K.K.K.K.K.U.U.K.U.U.U.U.U.U.U.U.U.R.U.U.U.U.U.U.K.K.K.K.K.F.K.K.F.K.K.z.4.-.#.+.#.;.;.8.e.8.8.e.e.+.] ] ..y.K.S.F.F.S.B.B.S.S.S.S.S.S.S.S.F.S.F.F.F.F.F.F.F.F.F.F.F.F.F.F.F.F.F.F.S.S.S.S.S.F.F.F.F.F.F.F.F.F.F.F.F.F.F.F.F.F.F.F.K.U.U.U.U.U.U.U.K.K.K.K.F.F.F.F.F.F.F.F.F.F.K.F.F.F.F.F.F.K.F.F.F.F.F.F.F.F.F.K.K.K.F.F.F.F.F.F.F.F.F.F.K.K.F.F.F.S.S.S.F.F.F.F.F.F.F.F.F.F.F.F.F.F.F.F.F.F.K.K.K.K.K.K.F.F.F.F.F.F.F.F.F.F.F.F.K.S.K.K.U.U.-.I * N +.] #.-.#.#.-.3.3.3.;.#.-.;.-.s.B.z.F.F.F.K.K.K.K.K.K.K.K.K.K.K.K.K.K.K.U.U.U.U.K.K.F.F.F.F.F.F.F.K.K.K.F.K.F.F.K.K.K.U.U.U.K.K.U.U.U.U.K.K.K.K.K.K.K.K.U.U.U.U.U.U.U.U.U.U.U.U.U.U.U.U.U.U.U.U.U.U.U.U.U.U.U.U.U.U.U.U.U.U.U.U.U.U.U.U.U.U.U.U.U.K.U.U.U.U.U.U.U.U.U.U.U.U.U.U.U.U.K.K.U.U.K.K.K.K.U.U.U.U.K.K.K.K.U.U.K.K.U.U.U.U.U.U.U.U.K.K.K.U.K.K.K.F.U.F.U.e./ ..+.+.;.4.4.e.e.3.4.8.3.;.-.;.y.F.K.K.K.K.K.K.K.K.K.K.K.K.K.K.K.K.K.K.K.K.K.K.K.K.K.K.K.K.K.K.U.U.U.U.U.U.U.U.K.K.K.K.K.K.K.K.K.K.K.K.K.U.U.K.K.K.K.K.K.K.K.K.F.F.K.K.K.K.K.K.K.K.K.K.K.K.K.K.K.K.K.K.K.K.K.K.K.K.K.K.K.K.K.K.K.K.K.K.K.K.K.K.K.K.K.K.K.K.K.K.K.K.F.K.K.K.K.F.K.K.K.F.K.K.F.F.!.( k ",
"U.U.U.U.U.U.U.K.K.K.K.K.K.F.F.F.K.K.F.K.K.K.K.K.K.K.K.K.K.K.K.K.K.K.K.K.K.K.K.K.K.K.U.U.U.U.U.U.U.U.U.U.U.U.U.U.K.K.K.K.K.K.K.K.K.F.K.U.B.y.3.#.+.#.#.;.8.e.y.y.y.y.#.( ( ..y.K.S.F.F.F.S.S.S.S.F.F.F.S.F.S.S.S.F.F.F.F.F.F.F.F.F.F.F.F.F.F.F.F.F.F.F.S.S.S.S.S.F.F.F.S.S.F.F.F.K.K.K.F.F.F.F.F.F.F.K.U.U.U.U.U.U.U.U.U.U.K.K.F.F.F.F.F.F.F.F.F.F.F.F.F.F.F.F.F.F.F.F.F.F.F.F.F.F.K.K.F.F.F.F.F.F.F.F.F.F.F.K.K.F.F.F.S.S.F.F.F.F.F.F.F.F.F.F.F.F.F.F.F.F.K.F.F.F.F.K.K.K.K.F.F.F.F.F.F.F.F.F.F.F.F.F.S.K.K.U.K.#.I * C #.] #.;.#.-.;.4.4.4.3.#.#.;.+.y.S.z.F.F.F.K.K.K.K.K.K.K.K.K.K.K.K.K.U.U.U.U.U.K.K.F.F.F.F.F.F.F.F.K.K.K.F.K.F.F.U.U.K.U.U.U.K.K.U.U.U.U.U.U.U.U.U.U.U.U.U.U.U.U.U.U.U.U.U.U.U.U.U.U.U.U.U.U.U.U.U.U.U.U.U.U.U.U.U.U.U.U.U.U.U.U.U.U.U.U.U.U.U.U.U.U.U.U.U.U.U.U.U.U.U.U.U.U.U.U.U.K.K.K.K.K.K.K.K.K.U.U.U.U.K.K.K.K.U.K.K.K.K.K.K.K.K.K.U.U.K.K.K.U.U.K.K.F.K.F.K.e./ ] +.#.;.3.3.4.8.3.8.e.4.;.#.-.y.F.K.K.K.K.K.K.K.K.K.K.K.K.K.K.K.K.K.K.K.K.K.K.K.K.K.K.K.K.K.K.U.U.U.U.U.U.U.K.K.K.U.K.K.K.K.K.K.K.K.K.U.U.U.U.U.K.K.K.K.K.K.K.K.K.K.K.K.K.K.K.K.K.K.K.K.K.K.K.K.K.K.K.K.K.K.K.K.K.K.K.K.K.K.K.K.K.K.K.K.K.K.F.K.K.F.K.K.K.K.K.K.K.K.K.K.K.K.K.K.K.K.F.K.K.F.F.!.( k ",
"K.U.U.U.K.U.U.K.K.K.K.K.K.F.F.F.K.K.K.K.K.K.K.K.K.K.K.K.K.K.K.K.K.K.K.K.K.K.K.K.K.K.U.U.U.U.U.U.U.U.U.U.U.U.U.U.K.K.K.K.K.K.K.K.K.K.K.K.F.v.y.3.+.#.#.;.8.e.s.s.k.s.-.( ( ..e.F.F.F.F.F.F.S.S.S.F.F.F.S.F.F.S.S.F.F.F.F.F.F.F.F.F.F.F.F.F.F.F.F.F.F.F.S.S.S.S.S.F.F.S.S.S.S.F.F.K.K.K.F.F.F.F.F.F.K.K.U.U.U.U.U.U.U.U.U.U.K.F.F.F.F.F.F.F.F.F.F.F.F.F.K.K.F.F.F.F.F.F.F.F.F.F.F.F.K.F.F.F.F.F.F.F.F.F.F.F.K.F.K.F.K.F.F.F.F.K.F.F.F.F.F.F.F.F.F.F.F.F.F.F.F.F.F.F.F.F.F.K.K.F.F.F.F.F.F.F.F.F.F.F.F.F.B.K.K.K.K.;.I * N +...#.-.#.-.3.4.4.8.3.#.+.-...8.S.B.F.S.F.K.U.K.K.K.K.K.K.K.K.K.K.K.K.K.K.K.K.K.K.F.F.F.F.K.F.F.F.K.K.K.K.K.K.K.U.U.U.U.R.U.U.K.U.U.U.K.U.U.U.U.U.U.U.U.U.U.U.U.U.U.U.U.U.U.U.U.U.U.U.U.U.K.U.U.U.U.U.U.U.U.U.U.U.U.U.U.U.U.U.U.U.U.U.U.U.U.U.U.U.U.U.U.U.U.U.U.U.U.U.U.U.U.U.U.U.K.K.K.K.K.K.K.K.K.K.U.K.K.K.K.K.K.K.K.K.K.K.K.U.U.U.U.U.U.K.K.K.U.U.K.K.F.U.F.U.e./ ..+.;.4.4.4.4.8.4.e.e.4.;.#.-.y.F.K.K.K.K.K.K.K.K.K.K.K.K.K.K.K.K.K.K.K.K.K.K.K.K.K.K.K.K.K.K.U.U.U.U.U.K.K.K.K.K.K.K.K.K.K.K.K.K.K.U.U.U.U.U.U.U.K.K.K.K.K.K.K.K.K.K.K.K.K.K.K.K.K.K.K.K.K.K.K.K.K.K.K.K.K.K.K.K.K.K.K.K.K.U.U.K.K.K.K.K.K.K.K.K.K.K.K.K.K.K.K.K.K.K.K.K.K.K.K.K.K.F.K.K.K.F.!.( k ",
"K.U.U.K.K.U.K.K.K.K.K.K.K.K.F.F.K.K.K.K.K.K.K.K.K.K.K.K.K.K.K.K.K.K.K.K.K.K.K.K.K.K.U.U.U.U.U.U.U.U.U.U.U.U.U.K.K.K.F.K.K.K.K.U.K.U.U.K.K.F.z.4.+.#.+.-.4.y.k.k.z.z.3.] ( ..e.S.F.F.F.F.F.S.S.F.F.F.S.S.S.S.S.S.F.F.F.F.F.F.F.F.F.F.F.F.F.F.F.F.F.F.F.F.S.S.F.F.F.F.S.B.B.S.F.F.F.F.F.F.F.F.F.F.F.K.K.U.U.U.U.K.K.K.K.K.K.F.F.F.F.F.F.F.F.F.F.F.F.F.F.K.K.F.F.F.F.F.F.F.F.F.F.F.F.K.F.F.K.F.F.F.F.F.F.F.F.F.K.K.K.K.K.F.F.K.K.F.F.F.K.F.F.F.F.K.F.F.F.F.F.F.K.F.F.F.F.F.K.K.F.F.F.F.F.F.F.F.F.F.F.F.F.S.K.K.K.K.-.J $ d ( ] +.#.#.-.3.3.3.4.3.#.+.#...3.B.F.F.F.F.K.K.K.K.K.K.K.K.K.K.K.K.K.K.K.K.K.K.K.K.K.F.F.K.K.K.F.F.K.K.K.K.K.K.K.U.U.K.U.U.U.U.U.U.U.K.K.U.U.U.U.U.U.U.U.U.U.U.U.U.U.U.U.U.U.U.U.U.U.U.U.U.U.U.U.U.U.U.U.U.U.U.U.U.U.U.U.U.U.U.U.U.U.U.U.U.U.U.U.U.U.U.U.U.U.U.K.U.U.U.U.U.U.U.U.U.K.K.K.K.K.K.K.K.K.U.K.K.K.K.K.K.K.K.K.K.K.K.K.U.U.U.U.K.U.K.K.K.U.U.K.K.F.K.F.U.e./ ..+.3.8.4.4.4.4.4.e.8.4.;.#.-.y.F.K.K.K.K.K.K.K.K.K.K.K.K.K.K.K.K.K.K.K.K.K.K.K.K.K.K.K.K.K.K.U.U.U.U.K.K.K.K.K.K.K.K.K.K.K.K.K.K.K.K.K.U.U.U.U.U.K.K.K.K.K.K.K.K.K.K.K.K.K.K.K.K.K.K.K.K.K.K.K.K.K.K.K.K.K.K.K.K.K.K.K.K.K.U.U.K.K.K.K.K.K.K.K.K.K.F.K.K.K.K.F.K.K.K.K.K.K.K.K.K.K.F.K.K.K.F.!.( k ",
"U.U.U.U.K.U.U.K.K.K.K.K.K.K.F.F.K.F.S.S.F.K.U.K.K.K.K.K.K.K.K.K.K.K.K.K.K.K.K.K.K.K.U.U.U.U.U.U.U.U.U.U.U.U.U.K.K.K.F.K.K.K.K.K.U.U.U.K.K.K.B.e.#.+...+.3.y.s.k.z.v.8...( ..8.B.F.F.F.F.F.F.F.F.F.F.S.S.S.F.F.S.F.F.F.F.F.F.F.F.F.F.F.F.F.F.F.F.F.F.F.F.S.F.F.F.F.F.S.B.B.S.F.F.F.F.F.K.F.F.F.F.F.K.K.U.U.U.K.K.K.K.F.F.F.F.F.F.F.F.F.F.F.F.F.F.F.F.F.K.K.F.F.F.F.F.F.F.F.F.F.F.F.F.F.F.K.K.K.K.K.K.F.F.F.F.F.F.F.K.K.F.F.K.K.F.F.K.F.F.F.F.K.K.K.K.F.F.F.F.F.F.K.F.F.F.K.K.F.K.F.F.F.F.F.F.F.F.F.F.F.S.U.K.K.U.#.J X 0 Q ..#.+.+.-.;.;.-.;.;.+.+.#...-.z.K.F.K.F.K.K.K.K.K.K.K.K.K.K.K.K.K.K.K.K.K.K.K.K.K.K.K.K.K.K.F.F.K.K.K.K.U.U.U.U.K.K.K.U.U.U.U.U.K.U.U.U.U.U.U.U.U.U.U.U.U.U.U.U.U.U.U.U.U.U.U.U.U.U.U.U.U.U.U.U.U.U.U.U.U.U.U.U.U.U.U.U.U.U.U.U.U.U.U.U.U.U.U.K.U.U.U.U.U.U.U.U.K.U.U.U.U.U.U.U.K.U.K.U.U.K.K.K.K.K.K.K.K.K.K.K.K.K.U.U.U.K.U.K.U.K.K.K.U.K.K.K.U.U.K.K.F.K.F.U.y./ ....;.4.4.4.4.4.3.e.4.3.;.#.;.k.K.U.K.K.K.K.U.K.K.K.K.K.K.K.K.K.K.K.K.K.K.K.K.K.K.K.U.K.K.K.K.U.U.U.U.U.K.K.K.K.K.K.K.K.K.K.K.U.U.U.U.U.U.U.U.U.U.U.U.U.U.K.K.K.K.K.K.K.K.K.K.K.K.K.K.K.K.K.K.K.K.K.K.K.K.K.K.K.K.K.K.K.K.K.K.K.K.K.K.K.K.K.K.K.K.K.K.K.K.K.K.K.K.K.K.K.K.K.K.K.K.K.F.K.K.K.F.!.( k ",
"U.U.U.U.U.U.U.K.K.K.K.K.K.K.F.F.F.S.v.v.S.K.K.F.K.K.K.K.K.K.K.K.K.K.K.K.K.K.K.K.K.U.U.R.R.U.U.U.U.U.U.U.U.U.U.K.K.F.F.F.K.K.K.K.K.U.U.K.K.K.B.s.3.-.+...;.e.e.y.s.z.e.../ ..4.v.F.F.F.F.F.F.F.F.F.F.F.S.F.F.F.F.F.F.F.F.F.F.F.F.F.F.F.F.F.F.F.F.F.F.F.F.F.F.F.F.S.F.S.B.B.S.F.F.F.F.K.K.K.F.F.F.F.K.K.U.U.U.K.K.K.K.F.F.F.F.F.F.F.F.F.F.F.F.F.F.F.F.F.K.K.F.F.F.F.F.F.K.K.F.F.F.F.F.F.F.K.K.K.K.K.K.K.F.F.F.F.F.F.K.F.F.S.F.K.F.F.F.K.F.F.F.F.K.K.K.K.K.K.K.K.K.K.F.F.F.F.F.F.K.F.F.F.F.F.F.F.F.F.F.F.F.U.K.K.U.-.J X 6 Q #.-.#.+.#.;.#.+.#.#...+.#.+.+.s.F.F.U.K.K.K.K.K.K.K.K.K.K.K.K.K.K.K.K.K.U.U.U.K.K.K.K.K.K.K.F.F.K.K.K.K.U.U.U.U.K.F.F.K.K.U.U.U.K.U.U.U.U.U.U.U.U.U.U.U.U.U.U.U.U.U.U.U.U.U.U.U.U.U.U.U.U.U.U.U.U.U.U.U.U.U.U.U.U.U.U.U.U.U.U.U.U.U.U.K.U.U.U.U.U.U.U.U.U.U.U.U.U.U.U.U.U.U.U.U.U.U.K.U.K.K.K.K.K.K.K.U.K.K.K.K.K.K.U.U.U.U.U.K.K.K.K.K.U.K.K.K.U.U.K.K.F.K.F.U.y.( ..] ;.4.3.4.e.4.3.4.;.-.#...-.s.F.U.K.K.K.K.U.K.K.K.K.K.K.K.K.K.K.K.K.K.K.K.K.K.K.U.U.K.K.K.K.U.U.U.U.U.K.K.K.K.K.K.K.K.K.K.U.U.U.U.U.U.U.U.U.U.U.U.U.U.U.U.K.K.K.K.K.K.K.K.K.K.K.K.K.K.K.K.K.K.K.K.K.K.K.K.K.K.K.K.K.K.K.K.K.K.K.K.K.K.K.K.K.K.K.K.K.K.K.K.K.K.K.K.K.K.K.K.K.K.K.K.F.K.K.K.F.!.( k ",
"U.U.U.U.U.K.K.K.K.K.K.K.K.K.K.F.F.S.v.v.B.K.K.K.K.K.K.K.K.K.K.K.K.K.K.K.K.K.K.K.K.K.K.U.R.U.U.U.U.U.U.U.U.U.U.U.K.K.F.F.F.F.F.K.F.K.K.K.U.K.F.z.y.;...#.;.e.s.8.y.e.e.+.Q ] 4.B.F.S.S.F.F.S.S.F.F.F.F.F.F.F.F.F.F.F.F.F.F.F.F.F.F.F.F.F.F.F.F.F.F.F.F.F.F.F.F.F.F.S.S.S.S.F.F.F.K.K.F.K.K.F.F.F.F.K.K.U.U.U.K.K.K.F.F.F.F.F.F.F.K.F.F.F.F.F.F.F.F.F.F.K.F.K.F.F.F.F.F.F.F.F.F.F.F.K.K.K.F.F.F.K.K.K.F.F.F.K.K.K.F.F.F.F.F.K.K.K.F.F.F.F.F.F.F.F.F.F.F.F.F.F.F.F.K.K.F.F.F.F.K.K.K.K.F.F.F.F.F.F.F.S.K.B.U.K.K.K.-.J * u Q #.;...#.-.-.-.#.#.+...+.#.#.] 4.v.K.R.K.K.K.K.K.K.K.K.K.K.K.K.K.K.K.K.K.U.U.U.U.K.K.K.U.K.K.F.F.K.K.U.U.K.U.U.U.K.F.S.K.K.U.U.U.U.U.U.U.U.U.U.U.U.K.K.K.U.U.U.U.U.U.U.U.U.U.U.U.U.U.U.U.U.U.U.U.U.K.K.U.U.K.K.K.K.U.U.U.K.U.K.K.U.U.U.U.U.U.U.U.K.K.U.U.U.U.U.U.U.K.U.U.U.U.U.K.K.K.K.K.K.K.K.K.U.U.K.U.U.K.K.K.K.K.K.K.K.K.K.U.U.K.K.K.K.U.U.U.U.U.U.K.S.K.K.F.y.( ] ] #.3.4.e.y.4.;.;.;.#.+.] ..y.S.K.K.K.K.K.K.K.K.K.K.K.K.K.K.K.K.K.K.K.K.K.K.K.K.K.K.K.K.K.K.U.U.U.U.K.K.K.K.K.K.K.K.K.U.U.U.U.U.U.U.U.U.U.U.U.U.U.U.U.U.K.K.K.F.F.F.F.F.F.K.F.F.K.K.U.K.K.K.K.K.U.K.K.K.K.K.K.K.K.U.U.U.K.K.K.K.K.K.K.K.K.K.K.K.K.K.K.K.K.K.K.K.F.K.K.F.F.K.K.K.F.K.K.K.K.F.(.( k ",
"U.U.U.U.U.K.K.K.K.K.K.K.K.K.F.F.F.S.B.B.F.K.K.K.K.K.K.K.K.K.K.K.K.K.K.K.K.K.K.K.K.K.K.U.R.U.U.U.U.U.U.U.U.U.U.U.K.K.F.F.F.F.F.K.F.K.K.K.U.K.F.v.y.4.+.+.4.y.y.8.8.8.8.#.I ( 4.v.F.F.F.F.F.F.F.F.F.F.F.F.F.F.F.F.F.F.F.F.F.F.F.F.F.F.F.F.F.F.F.F.F.F.F.F.F.F.F.F.F.F.F.F.F.F.K.K.K.F.F.F.K.F.F.F.F.K.U.U.U.U.K.K.K.K.K.K.K.F.F.F.K.F.F.F.F.F.F.F.F.F.F.F.F.F.F.F.F.F.F.F.F.F.F.F.F.K.K.F.F.F.F.K.F.K.F.F.F.K.K.K.K.F.F.F.K.K.K.K.F.F.F.F.F.F.F.F.F.F.F.F.F.F.F.K.K.K.F.F.F.F.K.K.F.F.F.F.F.F.F.F.F.S.K.S.K.F.F.K.-.J O u ( #.;.+.#.-.-.-.#.+.+.+.#.#.#.] 3.z.S.K.K.U.K.K.K.K.K.K.K.K.K.K.K.K.U.U.U.U.U.U.U.U.U.U.U.U.K.K.K.K.K.U.U.K.K.U.U.K.F.F.K.K.U.U.U.U.U.K.U.U.U.U.K.K.K.K.K.U.U.U.U.U.U.U.U.U.U.U.U.U.U.U.U.U.U.U.U.U.K.K.U.U.K.K.K.K.U.U.U.K.U.U.U.U.K.K.K.U.K.K.U.U.K.U.U.U.U.U.U.U.U.U.U.U.U.U.U.K.K.K.U.U.U.U.K.K.K.U.U.U.K.K.K.K.U.U.K.K.K.K.U.U.K.K.K.K.U.K.U.U.K.U.K.F.K.K.K.y...] ( #.3.4.e.e.4.;.;.;.+.../ ] y.S.U.U.K.K.K.K.K.K.K.K.K.K.K.K.K.U.K.K.K.K.K.K.K.K.K.K.K.K.K.K.U.U.U.K.K.K.K.K.K.K.K.K.K.K.U.U.U.U.U.U.U.U.U.U.U.U.U.U.U.U.U.K.K.K.K.K.K.K.K.K.K.K.F.K.K.K.K.K.K.K.U.U.K.U.K.K.K.K.U.U.U.U.K.K.K.K.K.K.K.K.K.K.K.K.K.K.F.F.K.K.K.F.K.K.K.K.K.K.K.K.F.K.K.K.K.F.(.( k ",
"U.U.U.U.U.K.K.K.K.K.K.U.K.K.F.F.F.F.F.F.K.U.K.K.K.K.K.K.K.K.K.K.K.K.K.K.K.K.K.K.K.K.K.U.U.U.U.U.U.U.U.U.U.U.U.U.K.K.F.F.F.F.F.K.K.U.K.K.U.U.K.B.s.y.+.] 4.y.8.4.4.e.8.3.Q ] e.S.F.F.F.F.F.F.F.F.F.F.F.F.F.F.F.F.F.F.F.F.F.F.F.F.F.F.F.F.F.F.F.F.F.F.F.F.F.F.F.F.F.F.F.F.F.F.K.K.K.F.F.F.F.F.F.F.F.K.U.U.U.K.K.U.U.U.K.U.K.F.F.F.K.K.F.K.F.F.K.F.F.F.F.F.F.F.F.F.F.F.F.F.F.F.F.F.F.F.F.F.F.F.K.K.F.F.F.F.F.F.K.K.K.K.F.K.K.K.K.K.F.F.F.F.F.F.F.F.F.F.K.K.K.K.K.K.K.F.F.F.F.F.F.F.F.F.F.F.F.F.F.F.F.F.F.F.K.F.F.K.;.I X u ..#.-.-.+.#.-.-.#.+.#.-.-.-.+.] -.z.B.S.K.U.K.K.K.K.K.K.K.K.K.K.K.K.U.U.U.U.U.U.U.U.U.U.U.U.U.K.K.K.U.U.U.K.K.U.U.U.K.K.K.U.U.U.U.U.K.K.K.K.K.K.K.K.K.K.K.U.U.U.U.U.U.U.U.U.U.U.U.U.U.U.U.U.U.U.U.U.K.K.U.U.U.U.K.K.K.K.K.K.U.U.K.F.B.v.F.K.K.K.U.U.U.K.U.U.U.U.U.U.U.U.U.U.U.U.U.U.K.K.U.U.U.U.U.K.K.U.K.K.K.K.K.K.U.U.K.K.K.K.U.U.K.K.K.K.K.K.K.K.K.K.K.K.F.U.F.e.+.] ..-.3.3.4.4.3.3.4.3.-.] Q ] y.S.U.K.K.K.K.K.K.K.K.K.K.K.K.K.K.K.K.K.K.K.K.K.K.K.K.K.K.K.K.K.U.U.K.K.K.K.K.K.K.K.K.K.K.K.K.U.U.U.U.U.U.U.U.U.U.U.U.U.U.U.U.U.U.U.K.K.K.K.K.K.K.K.F.K.U.K.K.K.K.K.U.K.K.K.K.K.K.U.K.U.U.K.K.K.K.K.K.K.K.K.K.K.K.K.K.K.F.F.K.K.K.F.K.K.K.K.K.K.K.K.F.K.K.K.K.F.(.( k ",
"U.U.U.U.U.K.K.K.K.K.K.U.K.F.F.F.F.F.K.K.U.U.U.K.K.K.K.K.K.K.K.K.K.K.K.K.K.K.K.K.K.K.K.U.U.U.K.U.U.U.U.K.U.U.U.U.K.K.K.F.F.F.F.K.K.K.F.K.U.U.K.S.k.y.+.( 3.y.8.3.-.4.;.3.I ( 8.B.F.F.F.F.F.F.F.F.F.F.F.F.F.F.F.F.F.F.F.F.F.F.F.F.F.F.F.F.F.F.F.F.F.F.F.F.F.F.F.F.F.F.F.F.F.F.F.K.K.F.F.F.F.F.F.F.F.F.K.U.U.U.K.K.U.U.U.U.U.K.F.F.K.K.F.F.F.F.K.K.F.F.F.F.F.F.F.F.F.F.F.F.F.F.F.F.F.F.F.F.F.F.K.K.F.F.F.F.F.F.F.F.K.K.K.K.K.K.K.F.F.F.F.F.F.F.F.F.F.F.K.K.F.F.K.K.K.K.F.F.F.F.F.F.F.F.F.F.F.F.F.F.F.F.F.K.F.K.S.U.;.I X d #.+.+.#.#.#.-.-.#.+.+.#.-.#.....-.v.v.B.K.K.K.K.K.K.K.K.K.K.K.K.K.K.K.U.K.U.U.U.U.U.U.U.U.U.U.U.K.K.U.U.K.K.K.U.U.U.U.U.U.U.U.U.U.U.U.U.K.K.K.K.K.K.K.K.K.U.U.U.U.U.U.U.U.U.U.U.U.U.U.U.U.U.U.U.U.U.U.K.U.U.U.U.U.K.K.K.K.K.U.K.S.v.s.s.v.F.K.K.K.U.U.K.U.U.U.U.U.U.U.U.U.U.K.U.U.U.U.U.U.F.F.U.U.K.K.U.K.K.K.U.U.U.U.K.K.K.K.U.U.U.K.K.K.K.K.K.K.K.K.K.U.K.F.K.F.e.+.] +.-.3.3.4.4.3.3.3.3.;.+.( +.s.S.U.K.K.K.K.K.K.K.K.K.K.K.K.K.K.K.K.K.U.U.K.K.K.K.K.K.K.K.K.K.K.U.K.K.K.K.K.K.K.K.K.K.K.K.K.K.U.U.U.U.U.U.U.U.U.U.U.U.K.K.K.U.U.U.U.K.K.K.K.K.K.K.K.K.U.U.K.U.U.K.U.K.K.K.K.K.K.U.K.U.U.K.K.K.K.K.K.K.K.K.K.K.K.K.K.K.K.K.K.K.K.K.F.K.K.F.F.K.K.K.F.K.K.K.K.F.(.( k ",
"U.U.U.U.U.U.U.U.K.K.K.U.K.F.F.F.F.F.K.K.K.U.U.K.K.K.K.K.K.K.K.K.K.K.K.K.K.K.K.K.K.K.K.U.U.U.K.U.U.U.U.K.U.U.U.U.K.K.K.F.F.F.F.F.K.K.F.K.U.U.K.S.k.e.+.] ;.y.y.4.#.;.#.;.J / 3.v.F.F.F.S.S.F.S.S.S.S.F.F.F.F.F.F.F.F.F.F.F.F.F.F.F.F.F.F.F.F.F.F.F.F.F.F.F.F.F.F.F.F.F.F.F.F.F.F.F.F.F.F.F.F.F.F.F.F.K.U.U.U.K.K.K.K.U.U.K.F.F.F.K.K.K.F.K.K.K.K.K.K.F.F.F.F.F.F.F.F.F.F.F.F.F.F.F.F.F.F.F.F.K.K.K.K.F.F.F.F.F.F.F.F.F.F.K.K.F.F.F.F.F.F.F.F.F.F.F.F.F.F.F.F.F.F.K.K.K.F.F.F.F.F.F.F.F.F.F.F.F.F.F.F.F.K.F.K.S.U.;.I X d #.+.] ] -.-.;.;.-.+...+.#.+...+.-.v.v.v.F.K.K.K.K.U.K.K.K.K.K.K.K.K.K.K.K.K.K.U.U.K.K.K.U.K.K.K.K.K.K.K.K.K.U.U.U.U.U.U.U.U.U.U.U.U.U.U.U.U.U.K.K.K.K.K.K.K.U.U.U.U.U.U.U.U.U.U.U.U.U.U.U.U.U.U.U.U.U.U.U.U.U.U.U.K.K.K.U.U.R.F.z.y.8.8.z.F.U.K.K.U.U.U.U.U.U.U.U.U.U.U.U.U.U.U.U.U.U.U.K.B.B.F.U.U.K.U.K.K.U.U.U.U.K.K.U.U.U.U.U.U.U.U.K.K.K.K.K.K.K.K.U.K.S.F.S.e.#.+...#.;.4.8.4.;.-.-.;.3.-...#.y.S.U.K.K.K.K.K.K.K.K.K.K.K.K.K.K.K.K.K.U.K.K.K.K.K.K.K.K.K.K.K.K.K.K.K.K.K.K.K.K.K.K.K.K.K.K.K.U.U.U.U.U.U.U.U.U.U.U.U.K.K.K.K.K.U.K.K.K.K.K.K.K.F.K.K.U.U.U.U.U.U.U.U.K.K.K.K.U.U.K.U.U.K.K.K.K.K.K.K.K.K.K.K.K.K.K.K.K.K.K.K.K.K.F.K.K.F.F.K.K.K.F.K.F.K.K.F.(.( k ",
"U.U.U.U.U.U.K.K.K.K.K.K.K.F.F.F.F.F.K.K.K.K.K.K.K.K.K.K.K.K.K.K.K.K.K.K.K.K.K.K.K.K.K.U.U.K.K.U.U.U.U.K.U.U.U.U.K.K.K.F.F.S.F.F.K.K.S.K.U.K.K.S.s.8.+...-.y.z.y.;.3.#.;.Q ] ;.v.S.F.F.S.S.S.S.S.S.S.S.F.F.F.F.F.F.F.F.F.F.F.F.F.F.F.F.F.F.F.F.F.F.F.S.F.F.F.F.F.F.F.F.F.F.F.F.K.F.F.S.F.F.F.F.F.F.F.F.K.U.U.K.F.K.K.U.U.K.F.F.F.K.K.F.F.F.F.K.K.F.K.F.F.F.F.F.F.F.F.F.F.F.F.F.F.F.F.F.F.F.F.K.K.K.K.F.F.F.F.F.F.F.F.F.F.F.F.F.F.F.F.F.F.F.F.F.F.F.F.F.F.F.F.F.F.F.F.F.F.F.F.F.F.F.F.F.F.F.S.S.F.F.F.S.F.S.F.S.U.;.I O u ] #.....#.#.-.;.-.#.+...+...] +.-.v.v.v.S.F.K.K.K.U.U.K.U.K.K.U.K.K.K.K.K.K.K.K.K.K.K.K.K.K.K.K.K.K.K.K.K.K.U.U.U.U.K.K.K.U.U.U.U.U.U.U.U.U.U.U.U.K.K.K.K.K.U.U.U.U.U.U.U.U.U.U.U.U.U.U.U.U.U.U.U.U.U.U.U.U.K.K.K.K.U.U.U.U.U.S.s.4.3.4.z.F.R.U.U.U.U.U.U.U.U.U.U.U.U.U.U.U.U.U.U.U.U.U.K.B.v.F.U.U.U.U.K.K.U.U.K.K.K.K.K.K.U.U.K.U.U.U.K.K.K.K.K.K.U.U.K.K.S.S.S.y.#.#.#.-.;.;.3.-.+...#.-.3.;.#.-.e.S.U.K.K.K.K.K.K.K.K.K.K.K.K.K.K.K.K.K.K.K.K.K.K.U.K.K.K.K.K.K.K.K.K.K.K.K.K.K.K.K.K.K.K.K.K.U.U.U.U.U.U.U.U.U.U.U.U.U.K.K.K.K.K.K.K.K.K.K.F.F.F.F.K.K.U.U.U.U.U.U.U.U.K.K.K.K.U.U.K.U.U.K.K.K.K.K.K.K.U.U.K.K.K.U.U.K.K.K.K.K.K.K.K.K.K.K.K.K.K.K.F.K.F.F.K.F.(.( k ",
"U.U.U.U.U.K.K.K.K.K.K.K.K.F.F.F.F.K.F.F.F.K.K.K.K.K.K.K.K.K.K.K.K.K.K.K.K.K.K.K.K.K.K.U.U.K.K.U.U.U.U.K.U.U.U.U.K.K.F.F.F.S.S.F.F.F.S.K.U.K.F.B.s.8.+...#.8.k.s.4.4.-.-.] ..-.v.S.F.F.S.S.F.S.S.S.S.F.F.F.F.F.F.F.F.F.F.F.F.F.F.F.F.F.F.F.F.F.F.F.F.F.F.F.F.F.F.F.F.F.F.F.F.F.K.K.F.S.S.S.S.F.F.F.F.K.U.U.U.K.F.K.K.U.U.K.F.F.F.K.K.F.F.F.F.F.F.F.F.F.F.F.F.F.F.F.F.F.F.F.F.F.F.F.K.F.F.F.F.F.F.K.K.F.F.F.F.F.F.F.F.F.F.F.K.F.F.F.F.F.F.F.F.F.F.F.F.F.F.F.F.F.F.F.F.F.F.K.F.F.F.F.F.F.F.F.F.F.F.F.F.S.F.S.F.S.U.;.Q t z / +.#.#.+.+.#.-.-.#.+.+.+.] ..+.-.v.v.z.B.F.F.F.F.K.K.K.U.U.K.K.K.K.K.K.K.K.K.K.K.K.F.K.F.F.K.F.F.F.F.F.F.K.U.U.U.U.K.K.K.K.K.U.U.U.U.U.U.U.U.U.K.K.K.K.K.K.U.K.K.U.U.U.U.U.U.U.U.U.U.U.U.U.U.U.U.U.U.U.K.K.K.K.K.U.U.U.U.K.K.B.y.4.3.e.B.K.U.U.U.U.U.U.U.U.U.U.U.U.U.U.U.U.U.U.U.U.U.U.U.S.B.F.U.K.U.R.K.K.U.K.K.U.K.K.K.K.K.K.K.K.U.U.U.U.K.K.K.K.U.U.K.U.S.B.S.s...-.3.;.-.#.+...] ..#.#.;.;.;.#.4.F.U.K.K.K.K.K.K.K.F.K.K.K.K.K.K.K.K.K.K.K.K.K.U.K.K.K.K.K.K.K.K.K.K.K.K.K.K.K.K.K.K.K.K.U.U.U.U.U.U.U.U.U.U.U.U.U.U.K.K.K.K.K.K.K.K.K.K.F.F.F.F.F.K.K.U.K.K.U.U.K.U.U.U.K.K.K.K.U.K.U.U.K.K.K.K.K.K.K.U.U.U.K.U.U.U.K.K.K.K.K.K.K.K.K.K.K.K.K.K.K.K.K.F.F.F.F.(.( k ",
"U.U.U.U.U.K.K.K.K.K.K.K.F.F.F.F.K.K.F.F.F.K.K.F.K.K.K.K.K.K.K.K.K.K.K.K.K.K.K.K.K.K.K.U.U.K.K.U.U.U.U.K.U.U.U.U.K.F.F.F.S.S.S.F.F.F.S.K.U.K.F.B.y.8.+.] +.3.e.y.e.8.;.;.+.-.;.B.F.F.F.S.S.F.F.S.S.S.F.F.F.F.F.F.F.F.F.F.F.F.F.F.F.F.F.F.F.F.F.F.F.F.F.F.F.F.F.F.F.F.F.F.F.F.F.F.K.F.S.S.S.S.S.F.F.F.K.U.U.U.K.K.K.K.U.U.K.F.F.F.K.F.F.F.F.F.F.F.F.F.F.F.F.F.F.F.F.F.F.F.F.F.F.F.F.K.K.K.F.F.F.F.F.K.F.F.F.F.F.F.F.F.F.F.K.K.K.F.F.F.F.F.F.F.F.F.F.F.F.F.F.F.F.F.F.F.F.F.F.F.F.F.F.F.F.F.F.F.F.F.K.F.F.S.F.S.S.U.-...I Q ( ......#.+.#.-.-.+.....+.....+.-.v.B.v.v.S.S.S.S.F.K.K.K.K.K.K.K.K.K.K.K.K.K.K.K.F.F.F.F.F.F.F.F.F.F.F.F.K.U.K.K.K.K.K.K.K.K.K.U.U.U.U.U.U.U.U.K.K.K.K.K.K.U.K.K.U.U.U.U.U.U.U.U.U.U.U.U.U.U.U.U.U.U.U.K.K.K.K.K.U.U.U.U.U.U.S.k.e.8.s.S.K.U.U.U.U.K.K.U.U.U.U.U.U.U.U.U.U.U.U.U.U.U.U.U.K.F.K.K.K.K.R.K.K.U.K.K.K.K.K.K.K.K.K.K.K.U.K.U.U.K.K.K.U.U.U.K.U.F.v.S.y.] #.;.;.#.+...] ] ..#.#.-.-.-.+.;.K.U.K.K.K.K.K.K.K.F.K.K.K.K.K.K.K.K.F.F.K.K.U.U.K.K.K.K.K.K.K.K.K.K.K.K.K.K.K.K.K.K.K.U.U.U.U.U.U.U.U.U.U.U.U.U.U.U.K.K.K.K.K.K.K.K.K.K.K.K.K.K.K.F.K.K.K.K.K.K.K.U.U.U.K.K.K.U.U.K.U.U.K.K.K.K.K.K.K.U.U.U.K.U.U.K.K.K.K.K.K.K.K.K.K.K.F.F.K.K.K.K.K.F.K.F.F.(.( k ",
"U.U.U.U.U.U.K.K.K.K.K.K.F.F.F.F.K.K.F.F.F.K.K.K.K.K.K.K.K.K.K.K.K.K.K.K.K.K.K.K.K.K.K.U.K.K.K.K.U.U.U.U.U.U.U.U.K.K.F.F.S.S.S.S.S.K.F.F.U.U.K.S.s.4.+...#.-.;.4.8.8.3.;.-.-.-.B.F.F.F.F.F.F.F.F.S.F.F.F.F.F.F.S.F.F.F.F.F.F.F.F.F.F.F.F.F.F.F.F.F.S.S.F.F.S.S.F.F.F.F.F.F.F.F.F.K.F.S.S.S.S.S.S.F.F.K.K.K.K.K.F.F.K.K.U.K.K.F.F.K.F.F.F.F.F.F.F.F.F.F.F.F.F.F.F.F.F.F.F.F.F.F.F.F.F.F.F.F.F.F.F.K.F.F.F.F.F.F.S.F.F.F.K.K.K.K.F.F.F.F.F.F.F.F.F.F.F.F.F.F.F.F.F.K.K.F.K.K.F.F.F.F.F.F.F.F.F.K.K.K.F.F.F.F.F.S.U.-.] ( Q / +.+.#.#...#.-.-.+.........+.#.-.v.v.v.B.v.v.v.B.B.F.K.K.K.K.K.K.K.K.U.K.K.U.U.U.K.F.F.F.F.F.F.K.F.F.F.F.K.U.U.K.K.K.K.F.K.K.K.U.U.U.K.K.K.U.U.K.K.K.U.K.K.K.K.K.U.U.U.U.U.U.U.U.U.U.U.U.U.U.U.U.U.U.K.U.K.K.K.U.U.U.U.U.U.K.F.B.z.k.z.K.K.K.U.U.K.K.K.K.K.K.U.U.U.U.U.K.U.U.K.K.U.U.K.U.U.U.U.U.K.K.U.K.K.K.U.U.U.K.K.K.K.K.K.K.K.K.K.U.U.U.U.K.K.K.U.U.F.K.v.S.4.Q ..#.;.#...+...] ..+...#.+.;.#.;.K.K.K.K.U.U.K.K.K.K.K.K.F.F.F.K.K.K.K.F.K.K.U.K.K.K.K.K.K.K.K.K.K.K.K.K.U.K.K.K.K.K.K.U.U.U.K.U.U.U.U.U.U.U.U.U.K.U.K.K.K.K.K.F.K.F.F.K.K.F.F.F.K.K.K.K.U.U.K.K.K.K.U.U.U.K.K.K.U.U.U.U.K.K.K.K.K.K.K.U.K.K.U.U.K.K.K.K.K.K.K.K.K.K.K.K.F.S.F.F.K.K.F.K.K.F.F.(.( k ",
"U.U.U.U.U.U.K.K.K.K.K.K.F.F.F.F.K.K.F.F.F.K.K.K.K.K.K.K.K.K.K.K.K.K.K.K.K.K.K.K.K.K.K.K.K.K.K.U.U.U.U.U.U.U.K.K.K.K.F.F.S.S.S.S.F.K.F.K.R.U.K.F.s.3.] ( +.-.;.4.8.e.3.-.-.-.;.B.K.F.F.F.F.F.F.F.S.F.F.F.F.F.F.S.F.F.F.F.F.F.F.F.F.F.F.F.F.F.F.F.F.S.S.S.S.S.S.S.F.F.F.F.F.F.F.F.K.F.S.S.S.S.S.F.F.F.K.K.K.K.F.F.F.K.K.U.K.K.F.F.K.K.F.F.K.K.K.F.F.F.F.F.F.F.F.F.F.F.F.F.F.F.F.F.F.F.K.K.K.K.K.K.K.K.K.F.F.F.F.F.F.F.F.F.F.F.K.K.F.F.F.F.F.F.F.F.F.F.K.F.F.F.F.F.K.K.F.K.F.F.F.F.F.F.F.F.F.F.K.U.U.K.K.S.K.K.F.R.4.Q G J Q +.-.#.#.+.#.-.#.+...] ] ....+.-.v.v.v.v.z.z.z.v.B.S.F.K.K.U.K.K.F.F.K.K.K.K.K.K.F.F.K.K.F.F.F.F.F.F.F.F.K.K.K.F.F.F.K.F.F.K.K.K.K.K.K.U.U.U.K.K.K.K.K.F.K.K.K.K.K.U.U.U.U.U.U.U.U.U.U.U.U.U.U.U.U.U.U.U.K.K.K.K.U.U.U.U.U.U.U.F.S.S.S.U.K.U.U.U.K.K.K.U.U.U.U.U.U.U.U.U.K.K.R.R.K.K.U.U.U.U.K.U.K.K.R.K.K.K.K.K.K.K.K.K.K.K.K.K.K.K.K.K.U.K.K.K.K.K.K.U.K.F.z.S.8.I / ..-.#...+.+...+.] ] +.+.;.+.;.K.K.K.K.K.K.K.K.K.K.K.K.K.F.F.F.F.K.K.F.K.K.K.K.K.K.K.K.K.K.K.K.K.K.K.K.U.K.K.K.K.K.U.U.U.U.K.U.U.U.U.K.K.K.U.K.K.K.U.U.K.F.K.U.F.F.F.K.K.K.K.K.F.K.K.K.K.K.K.K.K.K.K.K.U.K.K.K.K.U.U.U.U.K.K.K.K.K.K.U.K.K.U.K.K.K.K.K.F.K.K.K.F.F.K.F.S.S.S.F.F.K.F.F.F.F.F.(.( k ",
"U.K.K.K.K.K.K.K.K.K.K.K.F.F.F.F.K.K.K.K.K.K.K.K.K.K.K.K.K.K.K.K.K.K.K.K.K.K.K.K.K.K.K.K.K.K.K.U.U.U.U.U.K.K.K.K.K.K.F.F.F.F.S.S.S.S.v.F.U.F.F.S.k.3.] ( #.3.4.e.4.8.#.....#.;.z.K.K.F.F.F.F.F.F.S.F.F.S.F.F.F.F.F.F.F.F.F.F.F.F.F.F.F.F.F.F.F.F.F.S.S.S.S.S.S.F.F.F.F.F.F.F.F.F.K.F.F.S.S.S.S.F.F.F.F.K.K.F.F.F.F.K.U.U.K.K.K.F.K.K.F.F.K.K.K.F.F.F.F.F.F.F.F.F.F.F.F.F.F.F.F.F.F.F.F.F.F.F.K.K.F.F.K.F.F.S.F.F.F.F.F.F.S.S.F.K.F.F.F.F.F.F.F.F.K.K.K.F.F.F.F.F.K.F.F.F.K.F.F.F.F.F.F.F.F.F.K.U.K.K.U.S.U.F.K.(.3.G z G I ] -...+.#.#.#.+.+.+...] ] ..+.-.v.v.z.z.z.k.z.v.v.B.S.B.S.F.K.F.F.F.F.U.U.U.K.F.S.F.U.F.F.F.F.F.F.F.F.K.K.K.F.F.F.F.K.F.F.F.K.K.K.U.U.K.U.K.F.U.U.K.K.F.K.K.K.K.K.K.K.K.U.U.U.U.U.U.U.U.U.U.U.K.K.U.U.K.K.K.K.K.K.U.U.K.K.K.K.K.F.F.F.K.K.K.K.K.K.K.K.U.U.U.U.U.U.U.U.R.U.U.R.U.K.F.K.U.U.U.K.K.K.K.R.U.U.U.U.U.U.U.K.U.U.U.U.K.K.K.K.U.U.U.U.U.U.U.U.U.U.F.v.F.e.J I I ] ..( ( ] ] ....#.-.#.;.#.3.U.K.K.K.K.K.K.K.K.F.F.F.F.F.F.F.F.K.F.F.K.K.K.K.K.K.K.K.K.K.K.K.K.K.K.K.U.K.K.K.K.U.U.U.U.K.K.K.U.U.K.K.K.K.K.K.K.K.R.U.U.K.K.R.F.F.F.F.F.K.K.K.F.K.F.F.K.K.K.F.K.K.K.K.U.U.U.U.K.K.K.K.U.U.K.K.K.K.K.U.K.K.K.K.K.K.K.F.F.F.F.F.F.F.K.K.F.S.F.F.K.F.F.F.F.F.F.(.( k ",
"U.K.K.K.K.U.U.K.K.K.K.K.K.K.K.K.K.K.K.K.K.K.K.K.K.K.K.K.K.K.K.K.K.K.K.K.K.K.K.K.K.K.K.K.K.K.K.U.U.U.K.K.K.K.K.K.K.K.K.F.F.F.F.F.F.B.B.F.K.K.K.S.e.;.( / +.;.4.e.8.e.#.....#.3.k.K.K.F.S.F.F.F.S.S.F.F.S.S.F.F.F.F.F.F.F.F.F.F.F.F.F.F.F.F.F.F.F.F.S.S.F.F.S.S.F.F.F.F.F.F.F.F.F.K.F.F.F.S.S.S.F.F.F.F.F.F.F.F.F.F.K.U.U.K.K.K.K.K.K.F.F.K.K.K.F.F.F.F.F.F.F.F.F.F.F.F.F.F.F.F.F.F.F.F.F.F.F.F.F.F.F.F.F.F.S.S.S.F.F.F.F.B.B.S.F.F.F.F.F.F.F.F.F.F.F.F.F.F.F.F.F.K.K.F.K.F.F.F.F.F.F.F.F.S.F.K.U.K.F.U.F.U.v.S.(.s.] C I I Q +.( #.#.+.+.+.+.+...( ( ( ..-.v.z.z.z.k.k.k.z.v.v.v.v.S.K.K.K.K.U.K.K.K.K.K.S.B.S.K.F.F.F.F.F.F.F.F.K.K.F.F.F.F.F.F.F.F.F.K.K.K.U.U.K.K.F.F.U.U.K.U.K.K.K.K.K.K.K.K.K.K.K.U.U.U.U.U.U.U.U.U.K.K.K.U.R.R.U.U.R.R.R.R.R.U.U.U.R.U.U.U.U.U.U.U.U.U.U.U.K.K.K.K.K.K.K.K.F.K.K.F.K.U.R.R.K.U.K.U.U.U.K.U.U.U.U.U.U.U.U.U.K.K.U.K.K.K.K.U.K.K.K.K.K.K.U.U.K.R.F.v.S.4.N G G ( ..( ( ] ....#.;.;.+.-.#.;.K.K.K.K.K.K.K.K.K.F.F.F.F.F.F.F.F.K.F.F.F.K.K.K.K.K.K.K.K.K.K.K.K.K.K.U.U.K.K.K.K.U.U.U.K.K.K.K.U.U.U.K.F.F.K.U.U.U.U.K.!.U.S.U.S.U.U.K.K.K.K.U.U.K.K.K.K.K.K.K.K.K.K.K.K.K.K.K.K.F.F.F.K.K.K.K.K.F.K.K.K.K.K.K.K.K.K.F.F.F.K.K.K.K.K.K.F.F.F.K.K.F.S.F.F.S.F.(.( k ",
"U.U.K.K.U.U.U.U.K.K.K.K.K.K.K.K.K.K.K.K.K.K.K.K.K.K.K.K.K.K.K.K.K.K.K.K.K.K.K.K.K.K.K.K.K.F.F.K.K.K.K.K.K.K.F.F.K.K.K.K.K.K.F.F.F.S.B.S.F.K.K.v.3.#.( ( +.-.4.y.s.s.;.#.+.+.3.k.K.F.S.S.F.F.S.S.S.F.F.S.S.F.F.F.F.F.F.F.F.F.F.F.F.F.F.F.F.F.F.S.S.S.F.F.F.F.F.F.F.F.F.F.F.F.F.F.F.F.F.S.S.S.F.F.F.F.F.F.F.F.F.K.K.K.K.U.K.K.K.K.K.K.F.F.K.K.K.F.F.F.F.F.F.F.F.F.F.F.F.F.F.F.F.F.F.F.F.F.F.K.K.F.F.F.F.F.F.F.S.S.F.K.K.F.S.S.F.F.K.F.F.F.F.F.F.F.F.F.F.F.F.F.F.F.K.F.F.K.K.F.F.F.F.F.F.F.S.F.K.U.K.U.R.S.K.B.S.U.z.3.I I / / +.] -.+.+.#.#.+...] ( / / ] #.z.z.k.k.k.k.k.k.z.z.z.z.B.F.F.S.F.S.S.F.F.K.F.B.z.v.F.F.F.F.F.F.F.S.S.S.S.S.F.F.F.F.S.F.F.K.K.F.K.K.U.F.K.F.K.U.F.S.U.K.K.K.K.K.K.K.K.K.K.U.U.U.U.U.U.K.U.K.K.K.K.K.U.K.F.F.F.F.F.F.K.K.K.K.K.K.U.U.K.K.K.K.K.F.F.F.S.K.K.K.K.K.K.K.K.U.R.U.K.F.K.K.K.U.U.K.K.U.U.K.K.K.K.K.K.K.K.K.K.K.K.U.K.K.K.K.U.K.K.K.K.K.K.K.K.K.U.B.v.S.-.d z G ( +.] ( ] +.+.;.-.+.] ] ..-.v.K.K.K.K.K.K.K.K.F.F.F.F.F.F.F.F.F.F.F.F.F.F.K.K.K.K.K.K.K.K.K.K.K.K.K.K.K.K.K.K.K.K.K.K.K.K.K.U.U.U.K.F.F.K.K.U.K.K.K.!.U.S.U.S.F.F.F.S.S.S.F.F.K.K.K.K.K.K.K.K.K.F.F.F.K.K.K.K.F.S.S.S.F.F.F.F.F.F.K.K.K.K.K.K.K.K.K.K.K.K.K.K.F.K.K.F.F.F.K.K.F.S.F.F.S.F.(.( k ",
"U.K.K.U.U.U.U.U.U.U.K.U.K.U.K.K.K.K.K.U.K.K.K.K.K.K.K.K.K.K.K.K.K.K.K.K.K.K.K.K.K.K.K.K.K.F.F.F.K.K.K.F.F.F.F.F.F.K.K.K.K.K.F.F.S.F.F.S.F.U.K.k.-...( ] #.-.4.s.v.z.8.;.+.+.-.y.F.F.F.F.F.F.S.S.S.F.F.S.S.F.F.F.F.F.F.F.F.F.F.F.F.F.F.F.F.F.F.S.S.S.F.K.K.F.F.F.F.F.F.F.F.F.F.F.F.F.F.S.S.S.F.F.K.F.F.F.F.F.K.K.F.K.K.K.K.K.K.K.K.K.F.F.F.F.F.K.F.F.F.F.F.F.F.F.F.F.F.F.F.F.F.F.F.F.F.F.K.K.K.F.F.F.F.F.K.F.F.S.S.F.F.F.F.F.F.F.K.F.F.F.S.F.F.F.F.F.F.F.F.F.F.F.F.F.F.K.K.F.F.F.K.K.K.F.F.F.K.U.U.R.!.S.K.U.K.B.8.;.J J ] ....] #.+.#.;.-.#...] / Q Q ( ..k.s.s.k.k.k.k.k.z.z.z.B.F.U.U.K.K.K.F.F.F.K.K.B.k.z.S.F.K.K.K.F.S.S.B.B.B.S.S.S.S.S.S.F.F.K.K.F.F.F.K.K.F.F.U.U.B.v.K.K.K.K.K.K.K.K.K.K.K.U.U.U.U.U.U.K.K.K.K.K.K.K.K.K.K.K.K.K.K.K.K.U.K.K.K.K.K.K.K.K.U.R.R.R.U.U.U.U.U.U.K.K.K.K.K.F.F.F.U.U.U.U.R.U.U.K.K.U.U.U.U.K.K.K.K.K.K.K.K.K.U.R.U.U.U.U.R.U.U.U.U.K.K.K.K.K.K.B.S.F.;.d k J ( ..] ( ] +.+.;...( ( ( +.-.k.K.K.K.K.K.K.K.K.F.K.F.F.F.F.F.F.F.K.K.F.F.F.F.K.F.K.K.K.U.K.K.K.K.K.K.K.K.K.K.K.K.K.K.K.K.K.K.U.U.K.K.F.F.K.K.K.K.U.K.U.F.F.U.F.F.K.U.U.U.K.K.U.K.F.K.K.K.K.K.K.K.F.F.F.F.K.K.K.F.F.F.F.S.S.S.S.S.F.F.F.F.K.K.K.F.K.K.K.K.K.K.K.K.K.K.F.F.K.K.K.F.S.F.F.F.F.(.( k ",
"K.K.K.U.U.U.U.U.U.U.K.U.U.U.K.K.U.U.U.U.U.U.K.K.K.K.K.K.K.K.K.K.K.K.K.K.K.K.K.K.K.K.K.K.K.K.F.F.F.F.K.F.F.F.F.F.F.F.F.F.F.F.F.F.K.K.K.U.K.R.K.y.+./ Q ] #.-.3.y.z.z.s.3...-.;.y.F.F.F.F.F.F.S.S.S.F.F.S.S.F.F.F.F.F.F.F.F.F.F.F.S.F.F.F.F.F.F.F.S.S.F.F.F.F.S.S.F.F.F.F.F.F.S.S.F.F.F.S.S.S.F.F.K.K.F.F.K.K.F.F.F.K.K.K.K.F.F.K.K.F.F.F.S.F.F.K.F.F.F.F.F.F.F.F.F.F.F.F.F.F.F.F.F.S.F.F.F.F.F.S.S.S.F.F.K.F.F.S.S.S.S.F.F.K.F.F.F.F.F.F.F.F.S.S.F.F.F.F.F.F.S.S.F.F.F.K.K.F.F.F.K.K.K.F.F.F.K.U.K.U.!.F.S.K.S.k.8.3.Q I ....( ( +.+.-.;.-.#.+.] / Q I / ] y.y.s.k.k.z.k.k.k.k.k.k.S.K.K.F.K.K.F.K.F.K.K.S.z.z.S.K.K.K.K.F.S.B.B.S.S.B.B.B.B.B.B.S.F.K.K.F.F.F.K.K.F.F.U.K.B.B.F.F.K.K.K.K.K.K.K.K.K.U.U.U.U.U.U.K.K.K.K.K.K.K.K.K.K.K.F.F.F.F.F.F.F.S.B.B.B.B.B.B.S.K.K.K.U.U.U.U.K.K.K.K.K.K.K.K.K.K.U.K.K.F.K.K.U.K.F.K.K.K.K.K.K.K.K.K.K.K.U.K.U.R.U.U.K.U.U.U.U.U.U.U.K.K.U.K.R.S.F.S.-.z m Q ( ....] ..#.+.-./ Q ] ] #.;.s.K.K.K.K.K.K.F.F.K.K.K.K.F.F.F.F.F.F.K.K.F.F.F.F.K.K.K.K.K.K.K.K.K.K.K.K.K.K.K.K.K.K.K.K.K.K.K.K.U.K.K.F.F.K.K.K.F.K.U.K.F.F.K.K.F.F.K.K.K.K.F.F.S.S.F.K.K.K.K.K.K.F.F.F.F.F.F.F.S.S.S.S.S.S.F.F.F.F.K.K.K.K.K.K.F.K.K.K.K.K.F.F.K.K.K.K.K.K.U.K.F.S.F.F.F.F.(.( k ",
"K.K.K.U.U.U.U.U.U.U.U.U.K.U.K.K.U.K.U.U.U.K.K.K.K.K.K.K.K.K.K.K.K.K.K.K.K.K.K.K.K.K.K.U.U.K.F.F.F.K.F.F.F.F.F.F.F.F.F.F.F.F.F.F.F.F.K.U.K.U.S.8.+.Q J ( -.-.;.e.y.y.y.#.( -.-.e.F.F.F.F.F.F.F.F.S.F.F.S.S.F.F.F.F.F.F.F.F.F.F.F.S.F.F.F.F.F.F.F.S.S.S.F.F.S.S.S.S.F.F.F.F.F.S.S.F.F.F.S.S.S.F.F.K.K.F.F.F.F.F.F.F.K.K.K.K.K.F.K.F.F.F.S.S.S.F.K.F.F.F.F.F.F.F.F.F.F.F.F.F.F.F.F.F.F.F.F.F.F.S.B.B.S.F.F.F.F.F.F.S.S.S.F.K.K.K.F.F.F.F.F.F.F.S.S.S.S.F.F.F.F.S.S.S.S.F.F.K.F.F.F.F.F.F.F.F.F.K.U.K.K.U.K.z.z.s.8.e.;.Q J / / ( ..+.#.;.#.....] / Q I I Q ( e.y.s.s.k.z.k.s.s.s.s.s.B.K.F.F.K.K.F.K.F.K.K.S.z.v.F.F.K.K.F.S.S.S.S.S.S.B.v.z.z.z.v.v.S.F.K.F.F.F.K.K.S.F.U.K.S.F.K.K.K.K.K.K.K.K.K.K.K.K.K.K.K.K.K.U.K.K.K.K.U.K.F.K.K.K.F.S.S.S.F.F.S.B.v.v.v.B.v.v.B.S.S.S.S.S.S.F.F.K.K.K.K.K.K.K.U.U.F.S.F.F.S.B.F.K.F.F.F.K.K.F.F.F.F.F.F.F.F.F.K.U.K.F.F.F.K.F.F.F.F.F.F.F.K.K.R.F.S.s...k m I / ] ] ] ..+...+.J J ] ( +.-.8.F.F.F.F.F.F.F.F.K.K.K.K.K.F.F.F.F.F.K.K.K.F.F.F.K.K.K.K.K.K.K.K.K.K.K.K.K.K.K.K.K.U.K.K.K.K.K.K.K.K.K.F.F.F.F.K.F.F.K.U.U.F.S.U.F.F.S.F.F.S.S.B.B.B.S.F.K.K.K.K.K.F.F.S.S.S.B.B.B.B.B.B.B.S.S.S.F.F.K.K.K.K.K.F.F.K.K.K.K.F.F.F.F.K.K.F.F.K.K.K.F.F.F.F.S.F.(.( k ",
"K.K.K.U.K.U.U.U.U.K.K.K.K.K.K.K.K.K.K.K.K.K.K.K.K.K.K.K.K.K.K.K.K.K.K.U.K.K.K.K.F.U.F.U.U.F.K.K.K.F.F.F.F.F.K.K.F.F.F.F.F.F.K.K.K.F.R.K.F.U.k.+.] I G / +.#.#.#.#.-.#.Q J ] -.e.K.F.F.S.F.F.F.S.F.S.S.S.S.F.F.F.F.S.S.S.S.S.S.F.F.S.S.F.F.F.F.F.F.F.F.F.F.F.S.S.F.S.S.F.F.S.S.S.S.F.F.S.S.S.S.S.S.K.K.F.F.K.F.F.F.K.K.K.K.F.F.F.F.K.F.B.S.F.S.F.K.F.F.F.F.F.F.F.F.F.F.S.S.F.F.F.F.F.F.F.B.z.v.B.v.B.S.S.S.S.S.F.S.F.S.v.v.B.S.S.F.S.S.S.S.B.v.v.v.B.S.S.S.S.S.S.F.S.S.F.F.F.F.F.F.S.S.K.F.S.K.K.F.F.B.v.s.8.4.4.8.( G z N C N ..+.#.+./ J I I I Q Q J / ( 4.y.y.k.y.e.s.e.4.e.4.8.k.F.U.U.U.K.F.U.F.F.K.S.z.z.B.B.S.S.B.B.B.B.B.S.v.k.s.k.k.z.z.z.B.K.K.F.S.F.K.K.K.F.K.F.F.K.U.F.K.K.K.K.K.K.K.K.K.K.K.F.F.F.K.K.K.F.K.F.F.F.B.S.B.B.B.B.v.v.v.v.z.v.v.z.z.v.v.B.v.S.B.v.S.B.B.B.v.v.v.v.v.v.v.B.z.z.k.v.v.k.v.S.B.B.z.z.v.v.z.v.B.S.B.B.S.S.B.B.S.F.S.B.B.B.B.v.B.F.U.U.U.U.U.U.F.B.s.#.N d N J I J G J Q / / ( J Q ( ( +.8.e.K.K.K.F.F.F.K.F.F.F.F.F.F.F.F.K.F.K.K.K.K.K.K.K.K.F.K.K.K.K.K.K.K.K.K.K.K.F.F.F.F.U.U.K.F.F.K.U.U.K.K.F.F.K.K.F.S.K.F.B.S.F.K.K.S.B.B.B.v.B.B.B.v.v.B.F.F.F.F.F.S.S.S.S.S.S.z.s.y.e.k.k.k.v.B.S.F.F.K.K.K.K.K.F.K.F.K.K.K.F.S.F.K.K.K.F.F.F.K.K.F.F.S.F.F.F.!.( k ",
"K.K.K.K.K.K.U.K.K.K.K.K.K.K.K.K.K.K.K.K.K.K.K.K.K.K.K.K.K.K.K.K.K.K.K.K.K.K.K.K.U.U.K.U.U.K.U.K.K.F.F.F.F.F.F.S.U.K.K.K.K.K.K.K.S.R.K.S.U.B.3.( Q G G / ..] / Q J I I N N Q ..8.F.F.F.F.F.F.S.S.S.F.F.F.F.F.F.F.S.F.F.F.S.S.S.S.S.S.S.F.F.F.F.F.F.F.F.S.S.S.S.S.F.F.F.F.F.S.S.S.S.S.S.B.B.S.F.F.K.K.F.S.F.F.F.K.K.K.K.F.F.F.K.K.K.F.S.B.S.S.F.U.K.F.F.F.F.F.F.F.F.F.K.K.F.S.S.F.K.K.S.z.s.k.s.y.z.B.S.S.S.S.S.F.F.S.z.e.e.y.k.z.v.v.B.B.B.v.z.z.k.z.v.B.S.S.S.S.S.S.F.K.F.F.F.F.F.F.S.S.S.S.F.B.B.k.e.4.8.8.8.e.8.] G z m C G / ....] J N N G I I / I Q / 4.y.y.s.s.e.e.3.3.8.-.-.3.y.v.F.K.S.B.F.F.K.F.B.z.v.B.B.z.z.v.v.z.z.B.B.z.k.s.s.k.z.z.k.z.S.K.F.F.K.K.K.K.K.K.K.K.K.U.F.K.U.K.K.K.K.K.K.K.F.S.S.B.S.F.K.F.K.K.S.B.v.k.s.e.8.4.4.4.4.3.3.;.3.4.3.3.3.3.e.e.y.s.s.s.y.y.e.8.8.8.8.8.e.e.8.k.F.F.z.4.#.-.y.s.y.e.8.4.8.8.e.e.y.e.e.e.e.8.y.k.v.v.v.z.z.z.s.e.8.s.S.K.U.K.S.B.k.;.J d d N J I J G J Q ( ( ( I Q Q I ( #.;.B.F.K.K.K.K.F.F.F.F.F.K.K.F.F.F.K.K.K.K.K.K.K.F.F.F.F.F.K.K.K.K.U.U.U.U.K.S.S.S.S.K.U.U.K.K.K.F.F.F.F.K.K.K.F.F.F.U.S.s.k.K.R.F.y.e.e.y.y.e.8.e.k.z.B.F.S.S.S.S.F.S.S.S.S.v.s.e.4.4.8.e.e.k.v.B.F.F.F.F.K.K.K.K.K.F.K.U.K.F.B.B.S.F.S.S.S.S.F.F.F.F.S.F.F.F.(.] k ",
"U.U.U.K.K.U.U.K.K.K.U.U.U.U.K.K.U.K.K.K.K.K.U.U.K.K.K.K.K.U.K.K.K.K.K.K.K.K.K.U.U.K.U.K.K.R.U.F.U.K.K.K.K.K.U.K.F.S.S.S.S.F.F.K.F.U.S.K.F.-.J G m m N J I J N m z z N k k C / 4.F.F.F.F.F.F.S.F.S.F.F.S.S.S.F.F.F.F.F.F.S.S.S.S.B.S.S.F.F.S.B.S.S.F.F.S.S.S.S.F.S.F.F.S.S.F.F.S.F.F.F.F.F.F.F.F.K.F.F.F.K.F.S.F.F.F.F.F.F.F.F.F.S.F.K.F.F.B.B.F.F.F.F.F.F.F.F.F.S.F.F.F.F.S.S.F.U.K.z.e.y.k.s.s.e.y.e.e.s.s.s.s.k.z.y.8.4.8.e.y.z.v.v.z.k.k.s.e.e.y.k.v.S.F.F.F.S.B.S.F.B.B.B.S.B.S.S.F.F.F.B.s.4.4.8.4.8.e.4.8.4./ C C N G Q / ( / Q G N C G J J Q J J I -.8.y.8.4.4.8.3.4.8.#.#.+.+.3.s.z.v.v.z.B.S.B.v.z.z.s.e.3.-.;.4.8.y.k.s.s.y.y.y.s.k.k.k.z.B.F.F.S.F.S.F.F.F.F.F.F.S.S.K.U.K.F.B.B.B.B.v.v.z.k.k.k.z.z.k.k.k.k.y.e.8.3.;.#.....+.+.+.......#.-.-.#.+.+.] ....#.-.+.] ] ......+.+.+.#.#.#.;.4.4.-...+.#.#.#.#.#.+.+.+.#...+.#.#.#.-.-.#.#.3.8.s.z.z.y.3.#.-.#.#.;.8.8.3.3.#.] Q N z N J J J J G J Q ( ( ] ( / / Q / +.;.s.B.F.F.F.F.F.S.K.F.S.S.S.S.S.S.F.F.F.F.F.S.S.S.B.v.v.B.S.S.S.S.B.S.F.F.S.B.v.z.B.S.F.K.U.U.K.S.S.B.B.K.U.U.K.K.U.F.k.;.;.k.z.e.;.-.-.;.;.-.-.;.;.3.e.k.B.K.U.K.v.z.k.k.s.e.4.;.3.;.3.3.3.e.k.v.F.F.F.F.K.U.K.F.B.B.S.K.K.F.B.v.S.S.S.B.v.B.B.S.S.K.S.F.F.F.(.] k ",
"K.K.K.K.U.R.U.K.K.K.K.K.K.K.F.F.K.K.F.F.F.F.K.K.K.K.F.K.K.K.K.K.K.K.K.K.F.F.K.K.F.B.K.F.S.U.F.B.K.F.F.F.F.F.K.K.U.U.K.K.K.K.F.F.F.S.F.F.;.N k z z m C G G N m z m k m z z N Q 4.F.S.F.K.F.F.F.F.S.S.S.S.B.B.S.F.F.F.F.S.S.S.S.S.S.S.S.S.B.z.k.z.v.S.K.K.F.S.S.S.S.S.S.B.B.S.S.S.F.F.F.F.F.F.F.K.F.F.F.K.K.F.S.F.S.F.F.F.F.F.F.F.F.U.U.F.S.K.K.F.S.F.F.F.F.F.F.F.K.K.F.F.F.K.K.K.B.z.8.4.y.y.e.y.s.y.4.3.e.y.e.8.8.e.8.4.e.e.e.8.s.k.k.s.y.y.e.4.3.4.y.k.B.S.F.S.S.B.S.S.S.S.F.F.B.v.k.k.k.e.4.4.4.4.y.8.4.e.4.e.e.( N I Q J Q I / J C C C G G G I J C G I ( ..;.4.-.3.e.e.8.4.+.#.....#.3.e.k.v.z.v.z.k.s.s.8.;.] ] ( ( ] +.-.;.8.8.e.y.y.s.s.s.y.e.y.k.k.k.k.s.s.s.k.k.k.s.y.y.8.8.4.;.#.+.+.+.+.#.#.#.#.-.#.+.#.#.-.-.#.+.+.....] ( ( ] ..] ] / ( ..#.#.+...] ] +.] +.-.] ( ] / / ( ..] ......] ] ( ] ] ] -.#.4.-.+...] / Q Q / ( ] ] ] ......( ( ( ( ..+...( ..#.#.+...] ] ( / N z C C N C G J G G J I Q / ( / ( / / / / ] #.4.s.v.z.z.v.v.z.B.v.z.z.z.z.z.v.z.z.z.z.z.z.z.z.z.z.k.k.z.v.v.v.v.v.v.v.k.y.e.8.8.e.y.s.k.k.s.e.e.8.e.k.v.v.z.z.v.e.;.+...;.4.-.] ..+...+.3.4.4.;.;.3.4.y.z.z.s.y.8.3.3.4.4.3.3.4.3.4.3.;.4.e.s.v.B.S.S.F.F.B.z.y.s.z.B.S.S.B.v.F.F.B.v.k.k.k.z.v.K.F.F.S.B.R./ z ",
"F.K.F.F.U.U.K.F.U.U.U.U.U.U.U.U.U.U.U.U.U.U.U.U.K.K.K.K.K.K.K.K.U.U.U.U.U.U.U.U.R.U.!.R.U.!.R.U.K.K.K.U.K.K.K.K.F.F.F.F.F.F.F.S.S.B.S.4.C k N m N C G G C m z z m z N N N C Q 4.S.S.F.K.F.S.S.F.F.S.S.F.B.v.B.K.F.F.F.S.B.S.S.S.S.B.B.v.z.s.y.s.k.v.S.F.F.F.F.S.K.F.F.F.F.F.F.K.F.S.B.B.S.F.K.K.F.F.F.S.F.F.F.U.K.F.F.F.F.F.F.K.F.S.v.s.k.S.F.S.S.F.F.F.F.F.F.F.S.S.B.v.B.F.S.z.y.e.3.4.y.y.8.e.s.y.4.;.4.4.4.3.4.8.4.4.8.e.8.4.8.e.e.8.8.e.8.4.4.8.e.y.z.B.S.S.B.B.B.B.v.B.v.k.s.y.8.e.y.8.e.s.y.e.y.4.8.y.4.e.8.( m I ] / / Q / J N N C G G G J J C J I I J Q ] Q ( #.;.3.-.] ..+.+.+...+.+...+.+.........] / Q ( ..] / / ( ] ] ] ..+.#.#.#.+.#.+.+.-.-.-.-.-.+.#.#.#.#.#.+.....] ( / Q I I I I / ( ( ] ] ( / Q Q ( ( / / ( / Q Q / / ( / / Q J I ( ..] ( / Q Q ( Q / ] Q Q ( Q Q / ( / ( ] ( ( ( / ( Q I / Q / Q I Q / / / / Q / / / / / ( ( ( ] ] Q I I Q / Q I I Q Q J J Q ( G N G C C G G I J J I / / ( ( / ( / / ( / Q ( +.;.8.4.4.8.8.4.e.e.e.y.y.8.8.8.8.8.8.8.8.8.8.8.e.e.e.8.e.e.e.e.e.e.e.e.8.4.4.3.4.4.4.4.8.8.4.3.3.4.4.8.e.e.e.8.3.#.+.+...+.#.+.+.-.#.....#.#.+.........+.;.8.4.#.] ( ..#.;.;.;.;.;.3.;.-.-.;.;.8.e.e.y.y.y.8.3.+.#.;.4.8.e.y.y.k.s.y.4.3.3.3.3.4.k.s.y.8.3.s.m k ",
"U.U.K.K.U.U.F.K.K.K.K.K.K.F.K.K.K.K.K.K.K.K.K.K.U.U.U.U.K.K.K.U.K.K.K.K.F.F.F.F.F.S.F.S.v.B.S.B.F.S.K.U.K.F.F.S.F.F.F.F.K.F.F.S.B.e.-.G z N N C m C G C N m m m N m C C C C Q ;.B.S.K.K.F.F.F.K.F.S.F.F.S.v.B.F.F.S.S.B.S.S.S.B.v.z.z.z.k.y.e.y.s.k.z.v.v.B.S.S.S.B.B.F.F.S.B.S.K.F.F.F.K.K.K.K.K.K.F.F.K.K.F.F.U.K.K.K.K.K.F.S.S.S.F.F.v.z.B.F.F.F.F.F.F.F.F.F.K.K.F.F.K.U.S.s.8.e.4.;.4.y.y.s.y.s.y.8.4.4.4.4.4.4.3.4.e.y.8.4.3.4.3.;.3.4.8.8.8.8.8.e.s.v.S.S.S.F.F.F.S.v.k.8.8.e.4.;.3.3.3.4.4.8.y.e.e.e.4.8.3.( m J ] ..] / G C C C C G J J I I J J J Q I I Q I Q / +.3.;.+.#.#.#...] ] / J J J J I I Q ( ..] ( ] ] ( / Q / ( ( ] ] ] ] ] ] ( / / / / ( ( / J I Q Q Q I I I I I J J J J J J G G J J I I I J G J I Q I I I I J I I Q Q Q I I J J Q ( / / Q Q J Q I Q Q I Q / I I I I J I Q Q / Q I I G C J G Q Q ( ( ( / / / Q Q / Q I Q Q / Q ( ( / I I I I Q Q I J G G G J J N k d k N J J / Q Q Q / ( ( ( ( ( ( ( ] ( Q Q / ] ......+.+...#.-.4.y.e.;.#.+.+.+.+.#.#.#.#.#.+.+.#.+.+.#.#.+.+.+.#.#.#.-.-.-.+.+.+.#.#.#.#.#.+.#.#.+.+.+.+.] ] ] ....] ] ] ( ( ] ] ....+.+.+...] ( Q Q / ] ( Q J J Q ] ....] ....+.+.] ..] ] ..........+...( Q Q / ( ( ..#.-.;.-.#.....] ] ( ] #.#...( / #.0 d ",
"U.U.F.F.U.F.S.U.K.U.U.U.K.F.F.F.F.K.K.U.U.U.K.K.F.F.S.B.B.B.B.B.F.F.F.F.S.S.S.B.S.S.B.B.v.v.v.v.v.k.k.z.z.k.s.s.s.y.e.8.4.3.;.-.-.Q k k N m k C C C G G G G C C G C J G C G I #.k.B.F.F.F.F.K.K.F.F.S.B.z.z.v.B.B.v.z.v.v.z.z.z.s.y.s.k.k.y.e.y.y.y.e.e.y.k.z.z.z.v.S.K.K.F.S.B.B.v.v.S.S.S.S.S.F.B.v.B.K.F.B.z.F.F.S.S.S.B.z.k.s.z.F.F.s.8.s.B.F.F.F.F.F.F.F.F.F.F.F.K.K.S.k.8.4.8.8.;.-.3.y.k.e.y.e.8.4.3.3.4.3.4.8.e.y.y.8.4.4.3.;.-.;.3.4.8.4.8.4.4.8.s.k.k.y.y.s.z.k.s.e.4.4.8.-.+.-.;.8.s.8.8.8.8.8.4.8.y.3./ C Q ] ( / G m N C C G G J J Q / / I J I / / Q Q Q J / ..( Q / Q Q Q / / / Q Q Q Q Q Q / ( ] ..( / ( ( / / / ] ] ] ] ] ( ( ( ( / / / Q / / I G J I J J G G G J J J J J G J J J G G G G G G G G G I I J J I J I I I I Q / / Q Q I Q / Q Q Q Q I Q / / Q / Q / Q Q Q I J I / ( Q I I I Q Q J J I Q / / Q Q Q Q Q / / Q I Q / ( ( / Q I Q / / / Q ( ( I G C G G J C z z G / ( ( ( ( ( / / ( ( ( / / / / ( ( Q Q I Q Q Q Q / / / ( ..3.e.4.#.] ( ( ( ( ( ( ( ( ( / ( ( ( ] ] ] ( ( ( ] ] ( ( ( / ( ( ( ] ........] ] ] ] ] ( / Q Q / ( ( ( ( ( ( ( ( ( ] ] ( ( ( ( / Q I I Q Q I Q I I Q ( ( / Q / Q / / Q Q I I Q Q Q I I / / Q Q Q / ( ] ..+.#.+.+.......] ] / / ( ] / Q / ] 0 m ",
"S.B.v.v.S.B.v.K.B.B.B.B.z.k.s.s.k.z.z.v.v.v.v.v.z.k.s.s.s.s.s.s.s.s.s.s.y.y.e.e.8.e.8.e.e.4.4.3.-...( ( / Q Q I I J G C C N m m z z k C G z C Q G G G G G C C C G C J G C G I +.e.k.B.S.S.F.K.F.F.F.B.k.y.s.z.z.k.y.y.s.s.y.e.e.8.8.e.s.k.y.e.e.y.e.4.4.8.e.y.e.4.y.z.v.B.B.z.s.e.8.4.8.y.s.z.v.v.e.4.y.B.S.z.k.B.v.k.s.s.y.e.8.4.8.y.8.;.3.k.S.S.F.F.F.F.F.F.F.F.S.S.F.B.s.4.;.4.8.y.e.3.-.4.y.y.y.8.3.4.4.3.3.8.8.8.8.e.e.8.8.3.;.-.-.;.3.4.8.8.e.e.8.8.e.8.4.8.3.4.y.e.3.;.;.;.;.+.#.;.#.-.8.y.e.3.8.y.e.e.y.-.C N ( ] ( / J I I I J I Q Q Q ( ( ] ] I J I Q I I I J Q Q G I Q I J J I J J I Q Q I I / ] ( / / ..#...( ( / / / ( ( ( / / Q Q / / ( / / ( ( Q J Q Q I J G G J I I Q Q Q I Q / Q I J J J J J J I I Q Q I I Q Q / / Q Q Q / ( / ( / / / Q Q / / Q Q ] / Q / I J / / / Q I Q ( ] ( ( ( Q I Q G I J I Q Q Q ( ( ( ( ( ( Q I Q / ( ( ( ( / / ( ( ( ( I J / Q G I ..] ( / ( +...( ( ] ....( / ( ( ] ] ( ( ( ] ] ( / Q I J J I Q / / / ] #.3.;...( ( / / / / / / Q Q Q Q / / ( ( / Q I Q / ( ( ( ( ( ( ( ( ] ....] ( ( ( ] ....( / ( ] ] ( ( ] ( / ] ( ] ] / / / / Q I I / ( Q I Q / Q Q Q / / ( / Q Q I Q I J J J G Q / Q I I / / Q Q / ] +.#.-.#.#.........+...( Q Q Q / Q Q / ( 0 m ",
"k.3...+.-.-.-.4.+.#.....] / / / / ] ( ] ..] ] ( ] / Q I Q I I I I J J J G G G N N m z k d u t d 0 d k d d u u d k z z k z z k z z z z m N C G J C G J G J G G G C G G G G G J I +.e.s.k.z.v.S.S.S.S.v.e.4.y.z.k.e.8.8.4.4.4.4.4.3.3.e.y.8.4.8.e.8.8.4.3.4.8.4.3.-.3.;.3.8.8.4.;.-.3.8.3.3.4.4.3.3.4.4.8.e.8.8.8.4.8.4.;.-.;.3.4.4.8.e.8.4.4.e.k.B.S.F.K.F.F.F.S.S.B.B.v.k.3.-.;.8.e.y.e.3.;.;.4.8.8.4.3.4.4.4.4.4.8.8.8.4.4.4.4.3.;.-.#.-.3.4.8.e.8.4.4.4.4.3.;.3.3.e.y.4.3.3.3.3.-.#.+...] ] ] +.#.#.;.4.4.4.4.( N J ..( ( ../ ..] ( ( ( ( ( ( ] ] ..+.] Q J J I Q ../ Q / Q / ( ( ( Q I Q I / Q Q I Q ( ] ] ( / / / Q / ( ] ] ] ] ] ] ( ( / / ( / / ( / / ( Q I Q / / Q I I Q Q J I Q I I I / Q I J G G G J J J I J J J J Q ( ( ( / / / ( ] ] ( / ( ( / Q / / / Q / Q Q Q C N Q / ( / / ] ..] ( Q ( I J J J +.......] ( / / Q Q / / Q I Q ( ....] ( / / / / / / / ( / I Q / ( / ( ] ] ( ( ] ..#.+...] ..] ] ] ] ( ] ] ] / / ( ( I J J I / ( / / ] +.+.] ( / ( / ( ( / Q / ( Q / Q Q ( ( ( / / Q J I / ] ( / / Q / / / / / / / Q / / / / / / / / / / / / / / / / Q Q Q / / / ( Q Q I I J I Q / Q Q / ( ( ( ( ( ( / / I J J J J / ( / I Q / / Q Q ] ..+.-.-.#.#.+.] ] ..+...( I Q I / Q J Q +.6 z ",
"..G k z N m m C z m k z m z m m N N m m m m N N m m m m m z m m N m m m z z z d k k u t 6 , , 6 0 u u d k z z m C C N m N C C C N N N N C C C G J I I J J J G G J J J G G C C C / -.3.8.y.s.v.S.F.z.8.;.-.4.e.y.8.4.3.3.3.3.3.3.3.4.8.8.4.4.3.;.4.8.4.;.;.;.;.3.3.3.;.3.4.4.4.4.3.3.;.;.3.3.3.3.;.;.;.-.#.#.3.8.4.4.;.+.....#.;.3.3.;.-.#.#.-.;.y.y.y.y.y.y.s.y.y.8.;.-.+.] ( ..e.3.-.;.4.8.3.#.3.3.4.4.8.8.8.4.4.4.4.4.4.4.4.3.;.-.-.-.-.-.-.-.#.;.3.;.-.#.-.-.-.#.;.;.#.#.-.#.+.......+.+.+.#.( ] ] ..#.-.-.;.J Q ] ..] +.+./ ..] ] ] ] ] ( ( ..] ( ( / Q Q / ..] +.( Q ( Q ( J J I I Q / / / / / Q I Q / Q Q / ( ( ( ( ] ] ( ( ( ( ] ] ] ] ( ( / / / / ( ( / Q / ( ( / / / / Q I / Q I / / ( / Q I Q Q I I / Q / / Q Q Q / ( ] ] ] ( ( ] ....( ( ( ( / / ( ( ( Q ( Q Q I z k I / ( ( ( ] ] ] ] ] ..Q N m G #.+...( / / / / / / / / Q Q ( ] ..............+.+.+.( Q J G Q ] +.( ( ] ] ] ] ..+.+.+.....+.+.......] ] ] ( / / ( ( / Q I Q ( ( / ( ( ] ] ( / / ] / ( ( ....( ( ] ] ( ( ( ( ] ] ] ( / ( ..+.] ( / ( ( ( ( ( ( ( ( ( ( ( ( ( ( / / ( ( / / ( ] ] ( ( ( ....] / I I / ( / / / / ( ( ( ( ( ] ] ] ] ] ] ] ( / Q Q I I ( ( / Q Q Q Q Q Q +.;.;.#.....#.+...........] / Q Q ( / Q ( #.t m ",
"m m z d u d d d u d d z N N N C m m m N m m C C z N N N N N N N N N N m z z m z k k u t 6 * * 3 u k k k k k z N I J C N C G G G J G J J J J I I Q / / Q / / Q Q / / Q Q Q I J G J / ..3.e.e.e.8.8.4.4.4.4.4.4.3.8.4.4.4.4.4.4.4.;.;.;.;.;.3.8.4.3.3.;.3.4.3.3.4.4.4.;.;.;.#.-.-.-.-.;.3.-...( ] ......] ( ( ..-.#.-.+.] ] ] ] ..#.+.....+.#.#.#.] ( / / / / ( / / / Q / / / / ( ] ] ....] ( ( ] ..#.-.;.3.3.;.-.#.+.....+.#.+.+.+.....+.+.+...] Q ( ] ( / / ..#.#.+.+.+...] ] ( / / / ( ] ........] ( ( ] ] ] ] ( +.+.....+.........] ....] ] ] ..........] ] ..+.+.-...( ] / ( ( Q ( / Q Q Q J / / / Q Q Q Q / ] +.+.+.......] ] ] ] ..+...] ( / / Q Q / / / / / / / / / / / / / ( ( Q Q ( ( / Q I I Q Q J I / ] ] ] ] ( ( ( ] ..] ] ] ] ......] ] ....( ( ] ] / I ( Q J J z z I / / / ] ] ( / ( ....Q k 0 m +.....] ] ] ] ( ( ( ( ( / ( ] ....] ] ..............Q Q Q ( +.+.......] ] ..+.+.#.+.+.+.#.-.#.+.+.+...] ] ] ( ( ( ( ( / Q / ( / / ( ( ( / / / ( ] ( ] ( ..+.] ] +.] ( ( ( ( ( ......] ] ..+.] ] ........] ] ] ] ] ..] ] ....] ( ( ] ( ( ( ] ....] ..+.-.-.+.] ( / ] ] ] ] ] ] ] ] ] ] ] ] ] ..] ..+...........] ] ( ( / Q / / Q / ( ..+.+.#.#.#.#.+.#.+.......] / / / ] ] / ] -.u k ",
"k G G m z N N m C C N C G N N N C G N C G C G G C C C N N G G N G C G G C C C N k d u d u 3 * 3 d N G N k k m C I J C N C G G G N C G J J J I I Q / / Q Q Q I I Q Q I I Q I G C J J J Q ] ] ] ( ( / / / / ( ] ] ( / / ( ( ( / Q Q / ..+.+.....( ] ] ( ] +.#.#.+.+.+.] ( ( I Q / ( ] #.-.+.( Q / ....] ] ( Q Q Q ( ] ] ( ] ( ( ] #...( ( ] ....] ( / / ( ( ( ( / I / ( ( ( ( / / ] ..+...( Q / ( / ( ..+.#.+.+...+...] ..+.+.+.+.] ] ] ] ....] ( / / / Q Q ( +.#.#.........] ( Q ( ( ( ] ] ....] ....] ] ......+.;.+.( ] +.....-.+.........] ] ] ] ..+.+.+.+.........#.+...+.] ] +.] +.../ / Q I Q Q Q Q / Q Q / ( ] +.#.#.+.+.#.+.....+.#.+...( ] ..( ( ] ( ( ] ] ] ( / / / ( ] ] ....( / ( / I I I / ( / Q Q ( ..+.+.+.] ] ] ] ] ] ] ] ] ..........+.+.] ] ..+.] I ] I N N z z I / / / ] ( Q Q ] +.+.( N u C ..] ............] ] ] ] ] ..+.+...+.+.+.+.+.+.......Q J I ( #.+...+...] ] ] ......#.#.#.+.#.#.+.+.#.+.......] ] ] ( ] ( / ] ] ( ( ( ( ( ( ( ( ( ] ] +.] ( +.+.+.+...] ] ] ] ] ] ..+...] ......+.#.#.#.#.+.+.+.+.+.+.] ] ..+...] ( ..] ] ] ] ......+.+.#.#.+...] ........................................+.+.+.....] ( ( ( ] ( ( ] ..-.;.-.-.;.;.-.#.#.+...+.+...] ] ] +...] ..;.d z ",
"J G N N C G C G J J N C G N C C N C k z G G G I I I I G G J J C G C G G G G G N k d u k k 0 * * 6 N Q J N N J I Q Q I I / ( / / I Q Q / / / / ( ( ..+.+.+.....+.....] ....] Q I Q / Q Q I I / Q m m G ( ..] / Q Q Q Q Q Q Q I J G I ] ..+.#.#.+.....( / ..#.#.+.+...( ] ..( ] ..] ] ] ......] ] ] ( ( ( ........] ..] ( ] ] ] ..+...( ( ] ] ] ( ] ( ] ........] ] ....] ] ] ( ] ........] / / / / ] +.+.+.+.+...+.....+.+.......+.+.+.+.+...] ] ] ( ( ] ..#.#.#.......+.+...] ] ....+.+.+.+.+.+.] ] ] ..+.+.+.#.#...( ] ..+.+.......................+.......+.+.+.+.+.....+.+.#.+...#.+.] ] / I Q / / / ( ( / / / ( +.;.;.+.] ..+.+.+.#.-.-.+...] ..] ( ( ( / ] +.....] ( ] ..+.+...+.] ( ( Q I Q / ] ] ] ( ( ] +.+.+.+...] ] ] ..........+.+.......+.+.....+.+...I / I C J G G ( ] ] ( ..] / ( ..-.#.#.( G / +.] ..+.+...+.+.+.+.#.#.#.#.#.#.#.#.-.-.-.-.-.-.-.3.] / / ] -.-.-.-.#.#.+.#.#.#.#.#.#...] ........+.+.+.+.+.....] ....] ] +.+.....................+.#...] #.#.+.+.#.#.#.+.+...+.+.+.+.+.#.#.#.#.#.-.-.-.-.-.-.-.-.-...] +.#.+...........+.+.+.+.+.+.+.#.#.#.+.....+.+.+.+.+.+.+.+.#.+.+.+.+.+.+.+.+.+.+.+.........+.+.....+...] ..+.-.4.e.e.8.3.;.-.+...+.#.#.+.+.+.+.#.+.+.#.;.k m ",
"J G C G J J J J J J G I Q J I I I Q N N I J C G J Q Q G C N N m C C C G G J G N z k d z z u 3 * , k I Q J I Q I J J J J I Q I I Q Q Q / Q Q Q Q / ] +.+.+.+.+.#.+.+.....+.] / Q I Q Q / Q I Q J d u m / ] / / ..( ( ( / / ( ( ( ( +.+.( / +.-.+...#.+...+.#.#.+.#.+.( ] ....+.+.+.+.+.....+.+...+.+.+.+.+...............+...] ......] ....+.+.+...] ] ......+.+.....( / ] ........+.#.+...] ] +...+.#.-.-.-.-.-.-.-.-.-.#.+...+...+.+.#.+.+.........] ] ..+.+.+.+.#.+.+.#.+.+.+.+.+.#.+.+.+.+.+...+.+.+.#.+.....#.......] +.#.......+.#.#.#.+.+.+.#.#.+.+.+.+.+.#.+.+.+.+.+.+.+.+.] #.-.#.#.] Q / / ( ] ....] ( ] ] -.4.4.#.....#.#.#.-.;.;.-.#.-.-.#.+.+.+.+.#.#.#.#.#.+.+...+.+.....] / ( / / ( ] ....] ] ] ( ....+.+...] ] ] ....+.+.+.+.+.+.+...+.+.....+.+.] Q Q / ( +...] +.+.+.+.#.+...+.+.#.#.;.;.+.+.#...#.;.-.-.-.-.-.#.-.;.;.;.;.;.;.-.-.-.-.-.-.-.-.#.( / / ] +.+...+.+.+.+.#.#.#.+.#.#...( ] ..+.+.#.#.-.-.-.#.#.+.+.+.....+.+...+.+.+.+.....+.+.+.#.#.+.-.3.#.+.-.#.#.#.#.#.#.-.-.#.#.#.#.#.#.#.#.#.#.#.-.-.-.-.#.-.+...+.+.+.........+.+...+.+.#.#.#.#.#.#.+.+...+.#.#.#.#.#.#.+.#.#.+.#.+.+.+...+.#.#.+.............] ..+...] ....] #.8.e.4.;.-.;.+.....+.......+.+.......+.-.u z ",
"N J I J J J J J I I J I I J G J C G G Q / / ( ( / / / I C C N N C N C C N C C m z z z z m k 0 6 0 k J Q I Q Q J J I I J J J G G I I Q Q I I Q Q ] ..+.....] ( ] ] ] ] ] ..] / / ] Q I Q Q Q ( / N C Q ( / I Q ( / ( ( / / ( ] ] ( ..+.+...-.-.+...#.#.#.#.#.+.+.#.#.....+...+.+.] ..+.+.+.+.+.#.....+.#.+.+...+...+...+.#.+.....+.+.+.+.+.......+.] ] ] ( ( ..+.+...] ( ( ] ] ..+.......+.+.....+.#.#.-.-.-.-.#.#.#.#.#.#.....+.] ....+.+.+.+.+.#.+.......+.#.#.#.-.#.#.#.#.+.#.#.#.#.#.#.#.#.+.+.#.#.-.3.;.-.-.;.#...+.+.+.+.#...+.#.#.-.-.-.#.+.+.#.#.#.+.+.+.+.#.#.#.#...........-.;.3.4.#...] ] ( ] +.+...] ] +.-.4.4.3.;.3.3.;.3.3.3.3.3.;.;.-.-.#.#.#.#.#.-.-.-.-.-.#.#.+.#.+.#...] ..] ] +.+.+.+.+.......] ................+.+.+...+.+...+.+.+.....+.#.+.+...] ..+.#.+...#.#.#.#.#.+.+.#.-.-.-.;.3.;.-.-.#.-.;.;.;.;.-.-.-.-.-.-.-.-.;.-.-.-.-.-.-.-.-.-.-.] ( ( ] #.#.-.#.+.#.#.-.-.-.#.-.-.+.] ..+.#.-.-.-.;.3.3.3.;.-.#.+.+.#.+.+.+.+.+.#.#.+.+.#.#.#.#.#.+.;.;.+.#.;.+.#.#.#.#.#.#.#.+.#.+.+...+.+.+.+.+.+.+.+.+.+.+.+.....] ] ( ( ( ] ..] ] ] ] ] ....] ] ] ] ] ] ....+.+.#.#.+.+.+.+.+.#.#.+.+...] ] ] ] ] ] ] ] ] ( ( ( ( ] ] ] ] ..] #.3.;.+.+.#.#.........] ( ] ] ..] ( ] ] +.t z ",
"J G G G J G C G J J C C G C J Q ] ( ] +.( ( #.+.] ] / J G G C C G C C C N C G C m N N N N N z z z m J Q I I Q I I Q I J J J J I Q Q Q / Q Q / ( ( ......+.........+.+.+.+.+.......( ( ..] / ] ] ( +.#...( ] ..( ( ] ..] ] ..+.+.+.] ..+.+.......#.+.] ( ] ] ] ....+.....#.#.#.+.+.......+.+.....+...] ....+.+.+.#.+...] ......+.#.#.#.#.#.+.+.+.+.] ( ( Q / ( ....+.+.] ( ( ] #.#.+.+.+.+.........+.#.#.#.#.+.........+.+...+.+.#.#.+.+.#.#.#.#.#.+.+.+.#.-.#.+.+.#.+.#.-.#...+.#.#.+.+.#.#.#.+.+.+.#.-.;.-.#.#.-.-.+...#.-.#.#.#.#.#.#.#.-.-.-.-.#.#.-.-.#.#.-.-.-.#.#.#.+.#.#.+.-.4.4.4.3.-.#.-.-.#.#.-.-.#.#.#.-.;.;.;.;.;.3.3.3.3.4.4.4.4.4.4.-.-.-.#.-.-.#.-.-.-.-.;.3.;.;.-.;.3.-.+.#.#.+.-.+...+.+.] ] ..] ..............+.+.#.+.+.+.+...+.........+.+...] +...+.+...+.+.+...+.#.+...+.#.-.-.-.#.-.-.#.#.#.-.#.+.+.#.-.#.-.-.#.#.#.#.#.#.#.#.-.-.-.-.-.-.#.] ] ] +.#.#.#.+.+.+.+.-.-.-.#.-.-.+.] ..#.#.-.-.;.;.3.4.4.;.-.-.+.#.-.+.+.+.+.+.#.#.#.#.#.#.#.#.#.#.#.....;.3.-.;.;.-.#.#...] ] +.#.#.+.+.....+.+.+.+...........+.+...] ] ] ] ....] ( ( ( ( ( ( ( ( ( ( ( ( ] ] ..+.+.#.+.+.+.+.#.#.#.#.+.] ] ( ( ( ] ..] ] ( ] ..] ] ] ] ] ] +...+.-.3.8.3.../ ( ] ......] ] ......] ....#.d z ",
"J G J J G G J J I ] / I ( ] #.4.8.y.8.3.+./ ( ..( ( / I I Q Q I Q I Q I J I I Q I Q Q Q I I I I I G / Q J Q Q J / Q J J I / / I Q ( ....+...] ] ] ] ] ........+.+.-.3.4.3.;.-.+.#.+.#.-.#.#.#.-.-...] +.#.-.;.-.+.#.#.+.+.#.#.#.-.+.3.-.] ....] +...#.-.+.......+.+.( ..#...] ......+.+.+.+.+.#.+.+...#.#...] ..] #.#.+.+.#.#.#.;.;.;.-.-.-.-.#.-...+.+.] ..+.-.-.;.3.#.] ( +.;.3.3.-.#.-.#.+.#.#.-.-.;.3.-.-.#.+.#.-.#.+.+.+.-.;.#.+.+.......+...+.#.+...] +.+...+.+.+.+.+.+.+.#.#.+.+.+.#.#.#.+.#.....-.#...#.#.+...+.+.#.-.-.#.-.#.#.#.#.+.+.#.+.-.-.#.-.#.+.#.#.#.#.#.#.+.+.+.;.4.3.;.;.-.-.;.;.;.;.;.;.;.;.3.3.4.8.3.;.3.4.;.3.3.4.e.8.4.4.8.3.-.;.;.;.;.;.3.;.;.-.-.;.3.;.;.3.-.+.+.#.+...+...] ] ................+.+...+.+.+.....+.+.+.............+.+.+.+...] ] ....+.+.+.+.+.#.#.#.#.+.+.+.+...] ] ....#.#.+...+.+.....+.#.#.+.+.+.+.+...+.....+.] ] ] ] ( ] / ( ../ ] / ] ] ..#.+.+.+.-.+.] ..+.#.#.#.-.-.;.4.4.3.;.-.-.#.-.-.#.#.#.+.+.#.-.#.#.#.#.-.#.-.+.#.4.;.#.4.3.;.-.;.;.#.-.3.3.3.3.3.;.#.#.#.-.-.-.#.+.+.+.+.+.-.3.;.;.;.#.#.;.#.+.+.+.+.+.+.+.+.+.....+...] ] +.#.#.-.#.+.#.#.#.-.;.3.;.-.-.#.+.#.#.#.+.+.#.#.-.#.+.-.-.+.#.+.] ..;.y.k.s.8.#.+.....+.#.#.#.+.+.#.-.#.#.4.k z ",
"/ / I I ( / Q / +.-.-.;.3.-.;.4.3.4.3.3.-.+.+.] Q / / / ( ] ] ( ] ] ] ] ....+.#.] ( / ( ] ] ..+.;.-.4.8.-.#.....#.3.8.e.e.e.8.4.3.4.4.4.8.e.8.e.e.e.e.e.y.e.e.y.e.s.k.k.k.k.s.s.y.e.y.y.y.y.y.y.e.e.y.y.4.-.#.#.4.8.e.e.y.y.8.4.3.+.;.3.4.k.z.e.8.8.8.8.8.;.#.-.4.s.y.y.s.4.3.3.-.-.-.-.-.-.;.;.;.;.;.;.3.8.8.4.e.8.3.3.;.-.-.;.;.;.;.;.;.;.;.;.;.-.;.-.-.3.8.8.8.8.4.;.+.+.;.8.y.y.8.3.3.;.;.3.8.8.4.4.e.8.;.;.-.3.4.;.#.+.#.;.4.3.-.-.#.;.4.4.8.e.e.4.#.+.-.3.;.+.] +.#.+...+.+.+.+.+.#.#.#.+.+.#.-.#.#.#.#.+.#.../ ( +.+.#.-.#.+.....#.#.+.#...#.+.+.+.] ] -.+.+.+.+.....+.+.+.#.;.-.-.;.-.#.;.;.-.;.;.;.-.#.;.-.-.-.;.3.;.#.;.3.;.;.8.y.8.4.;.#.+.+.+.+.+.#.#.#.#.#.#.#.#.+.#.#...] ] ..] ] ] ] ] ] ........] ............+...+.+.....................+.+...+.....+.#.#.#.+.+.+.-.;.-.#.#.-.#.-.3.3.;.;.3.;.;.;.;.-.#.+.+.#.+.#.#.+.+.+.+.+.#.-.+.#.#.+.+.+.#.+.+.-.-.#.-.#.#.#.#.-.;.3.;.;.;.#.+.#.-.-.-.-.-.-.;.4.4.4.;.;.#.-.3.3.-.#.#.#.+.#.+.+.#.-.#.+.+.#.#.3.k.y.3.3.y.z.v.y.3.;.;.#.;.3.8.y.e.3.;.;.4.4.3.;.-.-.#.#.#.-.;.4.8.8.;.;.3.3.3.3.;.;.;.;.3.3.3.;.-.#.#.#.+.;.3.;.;.;.-.#.+.-.;.4.8.e.8.e.e.8.8.8.3.-.#.#.;.4.4.3.4.;.#.-.-.3.e.s.s.s.y.e.8.4.;.;.;.3.-.#.#.;.4.8.4.4.y.m m ",
"Q ..( Q / I Q -.8.8.8.y.y.e.3.#.#.#.#.#.+...../ ( ( ] ( ] ..+.+...+.] #.;.-.;.3.+.( ( ] +.#.;.4.4.3.8.8.4.;.#.-.;.8.y.y.e.e.e.e.e.e.8.8.y.y.e.e.y.e.e.e.y.y.e.e.4.8.8.8.4.4.4.4.8.8.8.8.8.e.8.8.4.8.e.e.8.3.-.;.s.s.s.y.y.e.8.3.4.;.;.;.4.B.F.4.z.v.k.k.k.3...+.8.v.B.B.v.k.e.8.e.e.e.e.e.e.e.y.e.8.e.3.;.y.k.s.v.y.4.4.8.3.3.8.8.4.4.8.8.4.4.8.e.8.e.4.4.k.k.e.4.e.y.8.;.-.8.z.v.v.s.8.3.3.3.4.8.8.3.;.y.y.;.4.y.z.k.8.-.#.-.3.#.;.e.y.3.-.4.k.s.y.e.e.8.8.8.8.e.+.( +.3.-.+.#.#.#.-.;.3.3.3.3.3.-.-.-.+.+.;.4.4.3.( I ( +.#.+.#.-.#.+.........-.;.( ] ;.#...#.-.-.-.#.+.+.+.#.#.#.;.-.-.;.;.-.-.-.-.-.;.;.;.-.-.-.-.#.#.;.3.;.-.;.-.-.4.y.4.#.+.#.#.#.#.#.#.-.-.#.#.#.#.-.;.-.#.#.+.+.#.+.+.+.+.+.+.#.#.#.-.-.#.;.;.;.;.-.#.#.;.4.8.3.;.-.-.-.-.-.;.-.-.-.-.-.-.;.3.8.e.y.y.e.3.3.e.s.e.3.4.e.y.y.s.s.e.e.y.e.8.y.s.y.4.3.4.8.e.y.y.e.e.e.e.e.4.8.4.4.8.3.4.4.;.+.( 4.4.-.4.;.3.;.;.3.8.8.8.3.3.-.-.;.3.3.3.;.;.-.;.3.4.4.;.-.-.e.k.s.8.4.4.8.4.4.3.3.8.e.e.8.3.4.e.k.B.z.e.4.8.k.B.e.-.4.4.-.3.4.e.e.8.4.3.4.y.s.y.8.4.e.e.e.8.4.4.e.s.e.;.-.4.y.z.k.y.y.y.s.e.e.e.e.3.#.+.;.s.v.B.k.s.s.e.8.8.e.8.3.3.4.8.y.y.e.y.s.s.y.e.8.4.4.;.3.e.y.e.8.y.s.k.k.s.y.y.e.y.e.e.8.e.e.4.;.#.4.e.e.8.e.k.C k ",
"] 8.s.3.( G ( y.K.F.z.k.v.z.3.I C J ( ....#.-.+.] ] ] ( ] ] ......+.( +.;.+.-.;.] ( ( ..+.#.-.;.-.#.#.#.-.#.+.;.#.+.+.......+...+.#.+.+.#.#.+...+.......+.+.+.+.+.+.+.+.+.+.+.+.+.+.+.....+.+...] ..] ] ....] ..+...] ] +.-.-.-.#.;.;.;.3.B.R.8.s.s.s.k.k.3.....-.8.s.z.B.S.v.z.v.v.B.B.B.B.B.v.v.v.B.e.3.z.B.B.F.z.y.s.z.k.k.B.z.z.z.v.v.z.z.v.z.z.z.y.e.v.v.s.e.k.B.B.k.s.v.F.v.v.k.8.4.8.8.e.s.s.e.3.s.s.;.8.y.s.y.4.;.-.;.4.8.8.s.z.y.;.;.4.y.y.s.s.y.y.y.s.k.-.] ;.y.e.4.8.8.e.y.s.k.k.k.k.e.3.-.-.;.4.y.v.v.B.y.] Q +.;.#.+.8.y.4.3.e.y.e.s.k.#...-.#.4.y.3.4.8.4.4.3.4.4.4.4.4.;.#.-.#.#.#.-.-.#.-.;.3.;.;.;.;.;.#.+.-.3.8.4.;.;.e.k.y.;.#.;.4.4.3.4.4.4.8.4.3.3.3.e.y.s.y.e.e.e.e.e.e.y.y.y.y.e.e.e.e.e.s.k.k.k.k.y.8.8.y.z.B.z.y.e.e.8.y.y.s.s.s.y.y.y.k.k.k.k.k.s.y.y.4.8.y.s.8.3.4.e.y.s.z.z.k.k.z.k.e.s.v.v.k.s.k.v.k.z.k.k.k.k.z.z.k.z.k.k.z.s.k.k.s.+.( s.z.e.k.8.y.8.8.y.k.z.s.8.3.3.3.4.8.e.8.8.4.3.3.4.4.4.;.-.;.s.v.z.k.s.s.k.z.z.k.k.v.z.z.z.k.k.z.v.B.z.s.8.3.3.y.3.;.e.8.4.3.3.3.3.3.;.3.8.y.y.e.4.4.e.s.k.s.y.s.y.s.e.-.+.4.s.B.B.v.v.v.v.z.z.v.z.y.3.3.8.e.k.k.k.z.v.v.v.z.v.s.8.4.8.e.e.s.s.s.k.k.k.y.y.8.4.;.3.y.z.k.k.z.s.y.y.e.y.y.e.8.8.8.8.e.e.8.3.#.4.8.4.4.8.s.C k ",
"/ 3.s.3.I k C ..#.-.] ..8.e.+.J G I +.#.+.+...Q Q / ( ( ] ] ] ] ] ..Q ] #.] +.#.( ] ] ] ..+.+...+.+.] ( ( ( ( ..] ( / / / ( ( / / ( ( ( ] ( / / / / / / ( ( ( / / / ( ( ( ] ] ] ] ....] ] ] ] ] ] ......+.....+.#.#.+.....+...( ] +.#.-...#.8.] ] ] +.-.-...] ( ( ] +.-.4.8.8.8.8.8.8.8.8.8.8.4.4.3.8.#...3.8.8.e.4.;.;.4.3.3.8.4.8.8.8.8.8.8.8.e.8.8.3.3.e.y.8.3.3.4.8.8.8.8.4.8.e.4.;.3.3.3.3.3.4.3.#.3.4.+.3.8.3.;.3.4.3.;.3.3.;.4.e.8.3.8.y.k.s.s.s.y.e.y.y.s.;.#.4.z.v.z.v.k.k.k.k.z.k.k.s.k.k.8.-.8.z.v.z.B.B.S.-.J ..-.-.y.S.F.s.e.y.y.e.s.s.8.e.8.;.8.e.e.s.k.s.y.e.8.e.4.4.4.3.3.4.;.#.3.e.y.8.8.y.s.y.3.-.-.3.4.e.s.k.v.y.3.3.e.z.k.y.y.s.s.y.e.y.s.s.y.e.e.e.e.k.v.v.z.s.e.e.e.8.y.z.z.z.k.s.y.y.y.y.s.k.s.k.k.s.e.8.4.y.s.e.4.3.3.;.3.3.4.8.4.4.3.3.;.3.4.8.8.e.y.y.8.e.y.e.4.4.e.y.8.e.k.z.z.k.s.y.3.8.y.k.k.k.z.z.k.k.k.s.s.k.z.z.z.v.k.z.z.k.k.z.s.( ( s.z.e.e.4.y.e.y.k.v.v.z.e.3.3.3.4.8.e.e.e.8.8.4.8.8.4.3.;.-.y.z.k.k.k.k.z.k.s.y.k.z.s.8.8.s.e.8.8.e.s.y.4.4.;.e.4.3.y.8.;.#.#.#.#.-.-.;.;.4.8.4.;.-.3.8.8.e.y.s.y.e.8.-...-.4.y.y.y.s.s.s.8.8.e.e.4.;.-.;.8.8.4.3.3.3.;.;.;.3.3.-.-.;.;.-.;.;.-.;.3.;.-.-.#.-.-.-.;.;.;.;.3.;.3.3.-.-.;.3.;.;.;.;.3.3.;.-.#.-.-.#.-.;.8.m z ",
"I Q ( ( C m G I C J N C ( / C N G J ( ..] ..( Q Q Q Q / / ( ( ( ( ( I / ] ( ] ..( ....] ] ....] ] ../ J C N J / / / / / Q Q Q Q Q / / Q / / / ( ( ( ( ( ( ( ( ( / ( ( ( ] ] ] ] ( ] ....] ] ] ( ( ( ( ( ..+...] ( ( ( ( ( ] ] ( ( ( ( -.../ ..] ] ( ] ..( ( ] ( ( / ( ] ......#.#.+.+.............( ] / / ....] ] ..] ( ] ..] ] ] +.+.....+.+.+...( ..] ( ........] ] ] ..+.....+.#.+...+.#.+...+.+.#.+.#.-.+.;.;.#.#.4.y.8.;.-.;.3.3.-...+.-.;.8.3.3.8.8.8.3.;.4.-.#.3.s.z.z.z.k.k.s.s.y.y.y.y.y.s.3.#.8.z.z.z.S.s.y.+.I ] +.-.s.z.z.e.8.e.y.y.e.4.4.k.e.;.e.s.y.s.k.k.y.e.8.8.4.3.4.8.s.k.e.;.;.e.k.y.e.s.k.s.8.3.-.-.8.B.R.R.K.s.;.-.3.e.s.s.z.z.k.s.y.y.y.y.e.8.8.8.8.e.s.s.s.y.8.8.e.8.8.y.e.e.8.8.4.3.3.3.3.;.-.-.3.3.;.-.#.-.-.+.+.+.+...#.#.-.-.-.#.+.+...#.-.;.-.-.;.;.;.;.;.-.#.;.4.3.4.4.e.e.e.8.8.3.-.;.3.4.8.e.e.e.8.8.4.3.3.4.8.e.e.y.8.e.e.8.8.e.8.( ..e.s.8.3.3.4.3.4.e.y.y.e.3.-.-.-.;.3.3.4.4.4.4.3.4.3.3.;.;.-.4.8.8.8.4.4.8.4.-.-.4.y.4.+...;.#.+.+.#.;.;.-.;.-.3.-.#.4.3.-.#.+.....+.#.#.#.-.;.;.-.#.#.#.-.-.3.8.4.3.3.+.] ..+.+.+.+.#.-.-.+.#.-.-.-.-.#.+.+.+.....+.+.+.#...+.+...+.#.+.+.........+.+.+.+...+.+.+...+.+.+.] ] ....] ] ....+.........+.........] ..#.+.;.k z ",
"J N N C C J I J C J C C J C N C J J I I Q / Q Q / / Q I Q Q Q / Q Q I Q / / ( ] ( ] ] ] ( ] ] ] ( ( I J C N I ( / / Q I I I I Q I I I I I Q Q / ( ( ( ( ( ( ( ( / / ( / ( ( ( / / / / ( ( / / / ( / Q Q ( ..] / Q / / Q Q ( ] ( ( / ( +.] I / ( ] ] / Q / / Q Q / I / ( ( ( ( ....] ( ( ( ( ( ( ( ] ] ( ( ] ] ( / ] ( / ( ..] ( ( ( ] ( ( ( ( ( ( / ] ] / ( ( ( ] ] ] ] ] ....+.+.+.+.+.+.+.....+...+.+.....+...] ( ] -.8.4.-.+.#.+.+...+.-.-...] ..#.;.#.+.+.#.#.#.+.+.;.4.4.4.;.;.-.#.#.#.#.-.-.#...+.;.8.y.s.k.8.#.] ( ] #.;.4.e.y.8.e.s.y.e.y.y.z.v.4.] ] +.-.3.4.8.4.4.8.8.e.8.8.e.s.k.4.#.-.8.s.s.y.y.k.k.s.8.;.#.-.e.v.B.S.e.;.-.#.;.4.8.8.4.4.4.3.;.-.-.-.-.;.;.-.;.;.;.-.-.#.-.;.#.+.#.#.-.-.-.-.#.#.#.+...] ] ..+.+.+.+.+.+...........+.+.+.+.+.........+.#.#.+.+.+.#.#.+.+.....+.#.#.#.#.#.#.#.-.;.;.#.-.#.#.-.-.;.;.;.;.-.#.#.-.;.;.-.;.#.-.-.#.-.-.#.....-.3.;.#.#.-.-.-.-.;.;.-.-.#.+.+.+.#.#.#.#.-.-.-.-.-.#.#.#.#.#.#.#.+.......+.....#.;.#.] ( ......] ] ] ......+.+.( ] +.#.#.+...] ] ] ..+.+.......+.......+.+.#.-.#.#.#.] ( ..] ( ( ( ( ] ] ( ] ] ..+.+.....( ] ] ] ......+.+.+.] ] ] ..] ........] ] ( ( ( ] ( ( ( ] ..+.....] ......+.+.+.] ....] ] ......] ..] ..+...-.k z ",
"G N N C C C N m C J J G G J / Q Q Q / Q I I G I Q I I Q Q Q Q Q Q I I I Q / ( ( ( ( ] ] ] ] ( ] ( Q J Q Q J Q ( ] ( / / / ( / / / / / Q / / / / / ( ( ( ( ( ( ( / ( ( ( ( ( ] ( ( / Q / / / / ( / ( ....] +.#...] ....] ] ] ] ( / ] ....( Q / / I / I J ( ] ( ( ] Q ( ( ( ] / / ( ( ( ( ] ] ] ( ( ....( / ( ....( ..] ( ] ..] ( ..] ] ..] ( ( ] ..] +.+...+.+.........+.#.#.+...+.+.+.+.#.#.+.#.+.] ..#.....#.] ......#.;.;...] ..] ..+...] ..+.#.....+.+.+.+.+.#.#.+...+.-.-.#.-.#.+...........+.+.#.#...+.#.] ( -.] ] ] I ..;.( ;.4.;.3.4.3.#.+.+.#...] +.+.+.+.+.#.#.#.-.-.;.;.;.3.3.4.8.;.#.-.3.8.e.8.4.8.y.e.3.-.-.#.#.;.3.8.-.+.+...+.#.+.#.+.+.+.+.....+.....+.+...+.+.+...] ( ( ] ( ( ( ( ( ] ......] ] ] ] ( ( ] ] ( ( ] ] ] ] ] ( ( / ] ] ] ] ..] ( ( ( ( ] ] ] ..+.#.#.......] ] ............] ] +.+.+.+.+...] ] ..+.+.+.+.....+.+.+.+.+.....+...+.+...+.] ( ..+.+...#.#.+...+.+.+.#.+.+.+.+.+.+.+.+.+.+.#.#.+.+.+.#.-.+.+.#.+.+.+.+...+...] ] ] ] ] ....] ] ..] ( ( ..+.] ] ..] ] ] ( ( ] ] ] ....+.+...] ..+.+.+.#.#.....] +.+.] ..+.....] ] ] ] ..] ] ] ......] ] ( +.+.] ] ....] ] ] ] ] ..] ] ] ....+...] ] ......+.#.#...] ..] ] ] +.#.#.#.#.+.+.#.-.#.+.+.+.+.+.-.+...#.+.;.z z ",
"G m m J J C G m I J I J G J Q I G J I G G J I I / / Q Q Q / / Q Q / Q Q Q ( ] ( ( ( ( ( ( ] ( ( ( Q / ( ( / / / / ( ( / / / / / / ( ( ( ( ( ( ( ( ....] ] ......................+.( Q Q Q / ( ( / ( ] ....] ..+.] ] ( / ( ........( ] ( ] +...#.....+.] ( ..+.../ ] +.+.] ] ..] ..+.+.....+.#.+.+.+.+.+.....+.#...+.+.+.#.-.#.( ..+.-.;.-.+...+.+.+.#.#.#.#.#.+.#.#.-.-.#.#.-.;.-.-.#.#.#.-.-.;.;.;.#.-.;.;.4.;.3.-.+.#.#.#.+.+.#.#.#.#...( ] ..+.+...+.+.+.#.#.#.-.-.#.+.+.#.-.+...( ( ( / / ( ( ] ] ..] ] ( ( ( Q / ] ( I Q +.] ( ( ..] ..#.] +...+.#.+.+...( ( ( ] ..] ] ......+.+...+.#.#.+.#.#.#.+.+.+.+.+.+.....+.+.+.....+.] ( ( ] ......( ] ] ] ] ] ..+.........] ..+.+.....] ] ] ] ( ] ( ] ( ( ] ( ] / ( ( ( ] ] / Q ( ] ] ] ( ] ] ] / ..] ] ....] ] ] ] ] ( ( ( ( ( ] ] ] ..+.+...] ] +.....] ....] ] ] ....] ] ] ..............+.+...] +.] ..+.....+...+...] ..#.#.+.-.#.+.....+.+.+.+.+.+.+.+.+.+.+.+.+.+.+.+.+.+...+.+.+.#.#.#.#.+.#.#.#.......+.+...( ( ] ] ] ] ] ..] / ] +.....+.....] ] ......+.+.+...+.+.+.+.+.+.#.+.....+.+...+.....+.+.........+.#.#.-.;.-.#.+.+.+.+.#.-.;.;.;.+...#.3.3.;.-.-.-.-.-.-.-.-.-.-.#.#.-.;.-.-.-.;.+.-.#.#.-.;.-.-.;.;.;.-.-.-.-.#.;.;.-.-.#.8.z k ",
"C C N G C N G N C J G C C G I I I I Q J J Q I G I Q Q Q / ( / Q Q / / / / ( ( ( ] ] ( ] ] ( ( ( ( / / ( ( ( ( ( / / / / / ( ( ( ( ( ( / / ( ( ( ] ....] ........+.+.+.+...........] ( ( / ] ....] ....+...........+.#.+.......+.] ] +...+.+.] ] ......( / ( ..] ( ( ] ] ( ] +.+.#.#.#.#.#.#.+.+.#.......+.+.#.#...+.#.+.#.;.-.+.+.#.#.#.+.......+.#.-.-.-.-.;.-.#.#.-.#.#.#.#.-.;.;.;.-.-.-.-.;.3.3.;.;.-.-.;.#.4.;.-.;.;.-.#.#.......] +.#.#.#.......+.#.#.-.-.;.;.3.;.-.;.-.+.#.#.+.+.+.......+.] ( ] ] ( / ( ] ( Q J / ] ( J ] +.+.+...] ] ( ] ( / ( ( ( Q J / Q / / / / ( ( ( ] ] ( ( ] ] ( ( ] ] ] ] ........] ] ......] ] ] ] ( ( ( ( ( ( ( ( ( ( ( ] ............] ..+.+...+.......] ] ] ..( ] ] ( ] ......] ] ] ..] ( ] ] ....] ] ..] ( +...] ] ] ] ] ] ] ] ( / ( ..#.-.....+.+.+.+.....#.+.+.+.+.+.+.+.+.+.+...+.+.#.#...+.+.....#.#.+...#...+.#.+.#.-.+.../ Q ] #.+...+.+.+.+.+.#.#.+.+.+.+.+.+.+.+.+.+.#.#.#.#.+.+.+.+.+.+.+.#.#.#.+...+.#.+.+.+.....] ] ..........] ( #.+...] ( ( ] ....] ..+.+.....+.+.....+.#.-.-.#.#.+.+.+.#.#.+.#.+.+.+.#.+.+.+.-.-.;.;.;.;.;.-.-.-.-.-.-.;.;.;.-.-.-.;.;.-.-.;.;.;.;.-.-.-.;.;.;.;.;.-.-.-.-.#.;.-.4.;.-.#.;.3.-.;.;.;.-.-.-.-.;.;.;.;.;.#.8.z d ",
"z m m G J C J I C I G G Q I G J / Q I G J Q I G Q / ( ( ( ( ( ( / ( ( ( ( ( ] ( / Q Q ( ( / ( ] ] ( ( ] ] ......+...] ] ..............] ] ] ....+.#.-.-.;.;.-.-.+.+.#.#.-.#.#.#.-.#.#.#.#.#.;.;.;.;.;.;.;.-.-.#.#.-.;.-.#...+.#.-.-.;.-.-.-.#.#.-.-.-.+.....+...( ( +.-.#.#.#.#.#.#.#.-.;.-.-.;.-.-.;.;.;.-.-.-.-.;.;.;.;.3.;.-.;.-.-.-.-.-.#.#.#.-.3.3.;.;.3.3.3.3.3.3.;.;.3.3.3.3.3.3.3.3.3.4.8.8.8.e.e.e.s.y.e.8.4.8.8.4.3.3.4.4.3.-.;.3.;.-.;.;.;.3.3.3.3.3.;.;.8.4.;.4.3.-.4.3.3.3.3.3.;.;.-.-.-.;.#...] ..+.-.-...( ] ( / / #.+...#.] ( +.....( Q Q Q I I ( / / / / ( ] ] ( ] ] ( ( ( ( ( / ( ( ( ( ( ( ( ] ( ( ( ( ( ( ] / ( ] ] ] ] ( ( ] ] ] ] ] ] ..+.+...+.......+.+...+.............+.] -.+...;.+.] ....] ] ..+...+...............] +.......+.+.+.#.] ....( ( ....] +...+.+.+.+.+.#.#.#.+.+.#.#.#.#.#.#.+.+.#.-.-.#.+.#.#.#.+.#.#.#.+.-.+.+.#.+.-.-...( / ( +.#.+.+.+.+.+.+.#.#.#.+.+.+.+.+.+.+.+.+.+.+.+.+.+.+.+.+.+.+.+.+.+.+.+.+.#.#.+.+.+.+.+.+...+.+.+.+.+.....#.#...#.-.+...+...+.+.+.#.+.+.-.#.#.#.-.;.;.;.;.;.-.-.;.;.3.3.;.3.;.;.;.;.;.;.;.;.;.;.;.-.;.;.;.;.3.3.;.;.;.;.;.3.3.3.3.3.;.;.3.3.;.3.;.;.;.3.3.3.4.3.;.;.;.;.-.#.+.;.;.3.4.8.8.3.4.4.4.3.3.3.4.4.4.4.4.4.;.e.m k ",
"k z m Q ] G G Q G J G J Q J G I I J I I Q ( ( ( ..#.#.+...+.+.+.#.#.+...] ..+.+.+.] ] ] ..] ..+.] ..-.-.;.3.4.4.3.;.-.;.3.3.3.3.;.3.3.3.3.3.3.3.4.e.e.e.y.y.y.y.s.k.z.v.v.v.v.v.v.z.z.z.k.z.v.z.k.k.k.k.z.k.s.s.k.s.y.y.y.y.s.k.k.k.s.y.e.y.s.s.y.y.s.s.y.y.e.3.;.-.4.y.s.k.z.v.v.z.z.k.s.y.e.y.y.y.y.y.y.e.e.e.8.8.e.e.e.e.8.8.8.8.8.e.y.y.e.e.y.y.k.k.k.s.k.s.s.s.k.k.k.k.k.k.s.s.k.k.z.z.z.v.z.k.k.v.v.v.v.v.v.v.v.v.v.z.z.z.z.z.z.k.k.k.k.k.v.v.v.v.z.z.z.z.z.k.F.v.y.v.z.k.k.k.k.s.s.s.s.s.e.e.8.8.y.s.e.3.#.-.;.3.;.#.#.-.#.4.;.-.4.;.-.3.#.;.-.....] ] ..+.+.#.#.#.#.-.#.+.+.+.+...........] ] ] ] ] ( ( ( ( ( ] ] ] ..+.] ..+.+.+.+.+.+.#.+.+.+.+.+.#.#.-.#.#.#.+.+.#.-.+.#.#.#.#.#.#.-.+...#.( ( +.] +.] ..] ] ..+.+.......] ..+.......#.#.+.+...] ] ( ..+.+.+.#.-.+.] ] ] ] ] ......+.#.#.#.#.#.#.#.#.#.#.#.#.#.#.#.+.+.#.-.#.#.#.#.+.#.-.#.#.#.#.;.-.+.] / ] +.+.................+.......................................................] ] ] ..] ] ] ....+.-.+.....+./ G I ( ] +.-...+.#.+.+...#.4.4.8.e.e.y.e.e.8.e.8.8.y.y.y.y.y.y.y.y.y.y.y.y.y.e.e.e.e.e.e.e.e.e.y.y.y.e.e.y.y.y.e.e.y.y.y.e.e.y.y.y.y.y.y.y.s.y.s.s.s.y.y.y.e.8.3.8.e.z.v.B.B.v.v.v.B.v.v.B.B.v.z.z.z.z.k.S.I m ",
"z m m Q ..I G J J C C N N G ( ..( ( +.#.#.+.+.-.e.y.y.e.8.4.8.e.e.e.4.;.#.#.-.-...] ( ..+.+.+.#.+.;.e.y.e.e.8.4.8.8.8.y.k.k.k.s.y.y.y.s.y.y.y.s.k.z.z.z.k.k.s.k.v.B.S.S.S.S.S.B.B.B.v.v.v.B.S.B.B.B.B.S.S.B.B.v.z.k.y.y.s.s.z.v.B.S.S.v.v.v.B.v.k.s.s.k.v.v.z.y.e.8.y.z.v.z.v.v.v.z.k.z.z.z.z.v.B.k.e.8.y.k.z.k.k.k.z.v.B.v.z.s.y.y.k.v.B.B.v.v.z.k.k.z.z.z.v.v.k.z.z.k.k.z.z.z.v.v.v.v.v.v.v.B.B.z.z.v.v.B.B.v.v.v.B.B.v.z.z.z.z.z.v.B.B.v.B.S.v.z.z.z.z.z.v.B.S.v.K.v.y.z.k.s.v.z.z.k.k.z.v.v.S.B.z.k.z.v.z.s.8.e.y.y.s.y.e.4.3.;.+.-.4.8.8.8.4.y.e.4.;.#.......+.-.-.+.......+.+.+.......................] ] ] ] ] ] ] ..+.+.+.+.+.+.#.#.#.+.#.#.+.+.....+.+.#.+.#.#.#.+.-.-.;.;.-.-.;.-.-.-.-.;.-.+.#...] -.......] ..+...] ..] ] ..+.+.....] ] ( ( ] +.;.4.-.#.#.;.4.4.3.3.8.8.8.e.e.e.y.y.8.8.8.8.8.8.8.8.8.e.e.e.e.8.4.4.4.4.4.4.8.8.8.4.4.8.4.e.e.e.y.y.4.+.( ..4.8.4.4.4.8.e.e.e.e.e.e.e.e.e.e.e.e.e.e.e.e.e.e.e.e.e.e.e.e.e.e.e.e.e.e.y.y.y.s.s.y.8.4.8.8.4.3.4.3.] G J I G C N Q 3.s.s.s.s.s.y.y.k.B.B.B.v.v.v.v.B.B.v.z.z.B.B.v.v.v.B.B.B.B.B.B.B.B.B.B.B.v.B.B.B.B.v.B.B.B.v.B.B.B.B.v.v.B.B.B.B.v.B.B.B.B.B.B.B.B.B.v.B.S.S.v.z.z.v.k.v.B.K.U.U.R.S.F.F.F.F.F.F.F.K.K.F.F.F.F.(.] m ",
"m C m C Q J G C N z d u k / #.+.....#.#.....+.4.B.B.B.v.k.s.s.s.s.k.s.8.3.;.;.;.-.#.-.;.3.;.;.;.;.e.v.v.z.k.s.8.y.y.s.k.v.B.v.z.s.s.s.s.y.y.s.s.k.z.z.z.k.k.s.k.v.v.B.B.B.B.B.B.B.B.v.v.v.S.F.F.B.B.v.B.B.v.z.z.z.z.k.s.s.s.k.v.v.S.B.B.B.S.F.S.B.k.s.z.B.F.F.B.z.v.S.F.S.B.z.k.k.k.k.v.S.K.R.!.R.K.B.v.B.F.K.F.B.S.F.K.K.F.B.v.k.k.v.S.F.F.S.S.S.v.z.v.B.S.K.K.F.F.S.B.B.F.F.F.S.S.S.S.S.F.F.F.S.v.v.B.S.F.F.F.S.F.F.F.S.S.B.B.B.v.v.B.B.z.k.k.v.v.v.v.v.v.B.S.F.B.F.B.v.S.B.z.z.z.z.k.z.v.B.S.K.K.K.F.v.s.s.z.v.S.F.S.S.B.v.z.s.8.3.e.z.B.S.B.S.S.F.S.B.k.e.4.4.e.s.s.8.4.3.3.;.;.;.;.;.;.;.;.;.;.;.;.;.;.;.;.;.;.;.-.-.-.-.-.;.-.-.-.;.;.;.;.;.;.-.-.#.#.#.+.+.+.#.;.-.-.3.4.8.e.8.8.e.8.8.8.8.e.;.( ..-.+.] ..+.+.+.#.#.+.+.#.+.+.+.#.#.#.+.-.;.;.-.#.+...] #.#.-.e.z.B.B.S.B.B.B.B.B.B.B.B.B.B.B.B.B.B.B.B.S.S.F.F.F.S.B.S.S.B.v.z.z.v.v.v.z.k.k.v.z.k.v.z.y.4.;.e.v.S.S.F.S.F.U.U.U.U.U.K.K.K.U.K.U.U.K.K.U.U.U.U.U.U.U.U.U.U.U.U.U.U.U.U.U.U.U.U.K.F.B.z.z.z.k.s.z.B.8.I z m z u 6 z 3.F.F.S.B.S.F.S.S.F.F.F.F.F.F.F.F.F.F.F.F.K.K.F.S.F.F.K.K.K.K.U.K.K.K.K.F.F.K.K.K.F.F.F.F.F.F.F.F.F.F.K.K.K.F.F.F.K.F.F.F.F.F.F.F.F.F.S.S.K.K.v.k.k.z.s.z.z.F.K.K.R.U.U.U.U.U.K.K.K.K.K.K.F.F.K.[.] k ",
"J Q N m C C G m N k t u C ] #.+.....+.] ] #.4.s.S.B.B.v.z.k.s.s.k.z.k.y.8.8.e.y.y.y.y.y.8.3.;.;.#.3.s.z.z.z.z.k.z.v.B.B.B.S.S.v.v.z.z.k.k.s.k.z.z.v.v.B.S.B.v.v.B.B.S.S.S.S.S.S.S.S.B.B.B.F.U.K.F.F.F.F.S.S.B.B.S.F.F.B.v.v.B.B.S.K.F.S.F.K.R.R.S.v.z.z.v.S.F.S.S.B.S.S.S.S.K.K.K.K.K.K.K.U.U.U.U.R.R.U.F.F.K.K.K.U.U.U.K.K.F.S.B.B.S.F.F.F.F.F.K.S.B.S.F.K.R.R.U.K.F.S.S.K.K.K.F.F.F.K.K.K.U.U.R.F.F.F.F.K.F.K.K.U.U.U.U.K.K.F.K.F.F.K.F.S.B.B.F.F.F.F.F.S.F.F.K.F.K.U.U.!.!.U.F.F.F.S.S.F.K.K.F.B.S.K.K.S.B.B.S.B.B.F.K.K.K.K.S.v.z.S.K.K.K.F.B.v.S.K.K.F.B.v.B.S.F.F.B.v.v.z.z.z.z.v.v.v.v.v.v.v.v.v.z.z.z.z.z.z.z.z.z.z.k.s.s.y.y.y.s.s.s.s.y.y.y.y.y.e.e.8.4.4.e.s.s.s.k.v.B.B.B.B.S.S.B.S.F.S.k.] / 3.3.-.#.-.-.;.3.3.;.;.;.;.-.#.#.;.-.#.#.+.....#.4.y.k.z.z.B.F.K.F.S.B.F.F.F.F.F.F.F.S.F.F.F.F.F.F.F.F.F.F.K.K.K.K.F.K.K.F.S.S.S.S.S.S.S.z.k.v.k.s.z.z.k.k.k.v.S.S.S.F.S.F.U.R.U.U.U.U.U.U.U.K.U.K.K.K.U.U.U.U.U.U.U.U.U.U.U.U.U.U.U.U.R.U.U.U.K.S.v.z.v.v.v.z.k.B.s.] C k 0 3 * u -.F.K.F.S.F.U.F.F.F.F.F.K.K.F.F.F.F.U.U.U.U.U.K.K.F.F.K.U.U.K.U.U.K.U.U.U.U.U.U.U.K.K.K.K.K.K.U.U.K.K.K.K.K.K.F.K.K.U.U.U.U.U.U.U.U.U.K.K.U.U.S.z.s.k.y.s.s.B.B.B.K.U.U.U.U.U.U.U.U.U.K.U.U.K.U. X] k ",
"J Q C N C G I J J G m C / ] +.4.8.e.e.4.4.y.k.z.F.S.B.B.B.B.B.B.z.v.z.k.s.k.v.S.v.B.S.B.z.k.s.k.s.k.v.v.v.B.S.B.S.K.K.F.F.K.K.F.F.F.F.F.S.B.B.S.F.F.K.U.!.R.K.F.F.F.K.K.F.F.F.F.K.K.K.S.S.K.R.R.U.U.U.U.U.K.K.K.U.U.U.K.F.F.F.F.F.U.K.K.K.K.R.U.K.S.S.S.B.B.S.S.S.S.F.F.F.K.U.U.K.K.U.K.K.K.K.F.K.K.K.F.F.K.K.F.F.U.R.U.K.K.K.K.K.K.U.K.F.F.F.K.U.F.F.K.K.U.U.U.K.K.F.S.S.K.K.F.K.K.F.F.K.K.U.U.U.S.F.F.F.K.K.U.K.U.U.U.U.U.U.K.U.R.!.R.U.K.K.K.U.U.U.U.U.K.F.K.K.U.U.U.U.U.R.U.U.R.U.U.K.K.K.K.K.F.F.K.K.K.K.F.S.S.B.B.S.S.F.F.S.S.B.K.R.K.F.K.K.S.F.K.F.S.F.F.F.F.K.K.F.S.F.S.F.F.F.F.F.F.F.K.F.F.F.F.K.K.K.K.F.K.K.K.K.K.F.B.v.v.v.v.z.z.z.k.z.z.z.v.z.z.k.s.k.k.v.S.B.B.F.K.K.U.K.K.K.K.K.K.K.S.(.s.] #.-.8.4.4.4.4.4.3.;.3.3.3.-.+.#.-.;.#.#.#.#.;.8.k.v.v.S.F.K.K.K.K.F.S.F.F.F.F.F.K.K.F.F.F.F.F.F.F.F.F.F.S.S.F.F.F.S.S.F.F.F.F.F.F.K.K.K.v.z.B.v.k.B.S.z.k.k.z.S.S.S.F.S.F.K.K.K.K.K.K.K.K.K.K.K.K.K.K.K.K.K.K.K.K.K.K.K.K.K.K.K.K.K.K.F.K.U.R.U.S.z.k.k.s.v.v.s.k.z.4.+.+.+.+.] -.z.F.F.F.F.K.U.F.K.R.K.K.K.F.F.F.K.K.K.U.U.U.U.U.K.K.K.U.U.K.K.K.K.K.K.U.U.U.K.U.U.U.U.U.U.U.U.U.U.K.K.K.K.K.K.K.K.K.K.U.U.U.U.U.U.U.U.U.U.U.U.F.v.s.k.k.v.s.s.e.s.S.K.K.K.K.K.K.K.K.K.F.U.R.K.K.(.( z ",
"Q I I G C ( #.....( ..#.#.3.s.z.F.F.S.v.v.B.B.v.B.F.U.U.U.U.U.U.K.F.S.B.S.F.U.U.U.K.U.R.R.R.R.!.U.R.!.R.R.R.R.R.U.U.U.K.K.U.U.U.K.U.R.R.U.U.U.U.R.R.R.R.R.R.U.U.R.R.R.R.U.U.U.U.R.R.R.R.U.U.R.!.U.U.U.U.U.K.U.U.R.R.R.!.!.U.U.R.U.U.K.K.K.K.U.U.K.U.U.U.U.U.K.F.F.U.!.!.R.U.U.U.K.K.U.U.U.U.U.R.R.U.K.K.U.U.R.R.R.U.U.U.K.K.K.K.U.U.U.U.K.K.K.K.U.U.R.R.R.U.R.R.U.U.U.F.F.U.R.U.U.R.!.R.U.U.U.U.U.U.U.U.R.R.R.R.R.R.U.R.R.R.R.R.!.R.K.F.F.F.K.K.U.U.U.R.R.R.R.R.!.R.R.R.R.U.K.U.U.R.R.U.F.F.F.F.K.U.U.U.K.K.K.F.K.U.U.U.U.R.R.U.F.F.v.S.R.R.!.!.!.R.R.R.R.U.K.F.F.F.F.F.F.F.F.F.F.S.S.F.F.F.F.S.F.F.F.F.F.F.F.F.F.K.K.K.K.K.K.F.S.B.B.B.v.z.k.k.z.k.k.k.z.z.z.z.z.B.S.F.F.K.K.K.K.F.K.K.K.K.U.K.K.B.K.K.4.( ..3.3.e.3.4.8.;.;.;.4.3.;.#.#.;.;.-.-.-.-.;.s.B.v.S.B.F.K.F.F.K.K.F.K.F.S.S.S.S.S.S.F.F.F.K.K.K.K.K.F.F.F.F.F.F.F.F.F.K.U.K.K.U.U.U.K.K.S.F.F.F.U.K.B.v.k.B.F.S.K.R.K.K.K.U.U.U.K.K.U.U.U.U.U.U.U.U.U.U.U.U.U.U.U.U.U.U.U.U.U.U.U.U.K.U.U.R.K.B.s.y.y.k.z.z.v.S.F.K.R.U.K.U.R.K.K.U.U.F.F.K.K.S.S.F.S.F.F.F.F.K.K.U.K.U.U.U.K.K.K.U.U.U.U.K.K.K.K.U.U.U.K.K.K.K.U.U.U.U.U.U.U.K.K.K.F.F.F.K.K.K.K.K.U.U.K.K.U.U.U.U.K.U.K.K.U.K.B.k.s.y.y.y.8.8.z.R.R.R.U.R.R.R.R.U.U.K.K.K.K.F.R./ z ",
"] ( Q G I -.8.;.+.+.3.s.z.S.U.R.K.K.K.F.K.U.U.U.K.U.U.U.U.U.U.U.R.R.R.U.U.R.R.R.K.K.K.U.R.U.U.U.K.U.U.U.U.U.U.U.U.U.U.U.U.R.U.U.U.U.R.U.U.U.U.U.R.U.U.U.U.U.U.U.U.U.U.U.U.U.U.U.U.U.U.U.U.U.U.R.U.U.U.U.K.K.K.U.U.U.U.R.!.U.K.U.U.U.U.U.U.U.U.U.K.U.U.U.U.U.K.F.S.K.U.R.U.U.K.K.U.K.U.U.U.K.K.K.U.U.K.U.U.U.U.U.U.K.U.U.K.K.U.R.!.!.R.R.R.R.R.R.K.U.U.U.U.U.U.U.U.U.K.F.F.U.R.U.K.U.U.K.K.U.U.U.K.U.K.U.U.U.K.U.U.U.U.U.U.U.U.U.U.U.K.F.F.K.K.K.U.U.U.U.U.K.K.K.U.U.U.R.U.U.U.R.U.R.R.U.K.K.K.K.U.R.R.U.U.U.U.U.K.U.U.K.K.U.U.K.F.F.B.F.U.U.R.R.K.K.K.K.K.K.F.F.F.F.F.F.F.F.F.F.S.S.S.F.F.K.F.F.K.K.K.K.F.F.F.F.F.K.K.K.K.U.U.K.K.K.K.K.F.S.B.S.S.B.B.B.B.B.S.S.F.F.K.K.K.K.K.K.F.K.U.U.K.K.K.F.U.R.B.K.R.4.] s.-.8.4.4.4.;.3.8.8.4.-.+.-.;.;.;.-.#.#.;.k.S.B.B.K.U.U.K.K.K.F.F.F.F.F.F.F.K.F.F.S.F.F.F.F.F.F.F.F.F.F.F.F.K.K.F.F.F.K.F.K.K.U.U.K.U.F.F.F.F.K.F.v.S.S.K.U.K.K.U.K.K.K.U.U.K.K.K.U.U.U.U.U.U.U.U.U.U.U.U.U.K.K.K.U.K.K.K.K.K.K.K.K.K.K.U.K.S.z.k.k.z.z.k.z.B.S.S.F.S.S.S.F.S.S.F.F.S.S.F.F.F.F.F.F.F.F.F.K.K.K.U.U.U.U.U.K.K.K.K.K.K.U.U.K.K.K.K.K.K.K.F.F.K.K.K.K.K.K.K.K.K.F.F.F.F.F.K.K.K.K.K.U.U.K.K.K.U.U.U.U.U.U.U.U.U.S.z.k.z.z.8.;.4.k.U.K.K.K.K.K.K.K.K.U.K.K.K.K.S.R./ k ",
"/ / J J ..8.y.4.8.y.v.K.U.U.R.R.U.U.U.U.U.R.R.R.R.U.U.K.U.U.U.U.U.U.R.R.U.U.U.K.U.K.U.U.U.U.U.U.K.U.U.U.U.U.U.U.U.U.U.U.U.R.R.U.U.U.U.U.U.U.R.R.R.U.U.U.U.U.U.U.U.U.U.U.U.U.U.U.U.K.K.U.U.U.U.U.U.U.U.U.U.K.U.U.U.R.U.R.R.R.U.U.U.R.R.R.R.R.R.R.U.U.U.U.R.R.U.K.F.K.U.U.U.U.U.U.U.K.K.U.U.U.U.U.U.U.U.U.U.U.U.U.U.U.U.U.K.K.U.R.U.U.U.U.U.U.R.R.U.U.U.U.U.U.U.U.U.U.U.K.K.U.R.R.U.U.K.F.F.F.K.K.K.U.U.U.U.U.K.U.U.U.U.U.U.U.U.U.U.U.K.K.K.U.U.U.U.U.U.U.U.U.U.U.U.U.U.U.U.U.U.R.U.U.U.U.U.U.U.U.U.R.R.U.U.U.U.U.U.U.U.U.U.U.U.K.K.K.F.K.K.F.U.U.K.K.F.F.F.F.F.F.F.F.F.F.F.F.F.F.S.S.S.F.F.K.K.K.K.K.K.K.K.K.F.F.F.F.K.F.K.K.K.K.U.U.U.U.U.K.K.K.K.K.K.F.F.K.K.U.U.U.U.K.K.K.K.K.F.K.U.U.K.K.K.F.F.F.F.F.v.v.s...#.;.;.4.8.3.4.8.k.k.8.;.3.;.-.;.;.-.#.+.#.8.v.F.K.K.K.K.K.F.F.F.F.F.K.K.K.K.F.F.F.F.F.F.F.F.F.F.F.F.F.F.K.K.K.K.F.F.F.F.F.K.K.K.K.U.K.K.K.F.F.S.k.F.U.U.U.K.U.K.K.K.K.K.K.K.K.K.U.U.U.U.U.U.U.U.U.K.K.K.K.K.K.K.K.K.K.K.K.K.K.K.K.F.K.K.K.F.B.z.z.z.k.z.v.B.S.F.F.F.S.S.K.K.F.F.S.S.S.S.F.F.F.F.S.S.F.F.F.F.K.K.U.U.U.K.K.F.K.K.K.K.U.U.K.K.K.K.K.K.F.F.F.K.K.K.K.F.F.F.F.F.F.F.F.F.F.K.K.K.K.K.U.U.K.K.K.U.U.U.U.K.U.U.U.U.K.B.e.y.8.+.+.e.S.R.K.K.U.K.K.K.U.U.U.K.K.K.K.S.R./ k ",
"J J G Q ;.8.4.4.k.v.S.U.U.U.U.U.U.U.U.U.U.U.U.K.U.U.K.U.U.R.U.K.U.U.U.U.U.U.U.U.U.U.U.R.R.U.U.R.U.U.U.U.U.U.U.U.U.U.U.U.U.R.U.U.U.U.U.U.U.U.R.R.U.U.U.U.U.U.U.U.U.U.U.U.U.U.R.U.U.U.K.U.U.U.U.U.U.U.U.U.U.K.U.U.R.!.R.U.!.!.R.R.R.R.R.R.R.R.R.R.R.R.R.R.R.R.R.U.U.U.R.R.R.R.R.R.U.U.U.U.R.R.R.R.U.U.U.U.U.R.R.R.R.R.R.R.U.U.U.R.U.R.R.R.R.R.R.R.R.U.U.U.U.U.U.U.U.U.U.U.U.R.R.R.R.U.F.B.B.B.F.K.U.R.R.U.U.U.U.U.R.U.U.U.R.U.U.U.R.U.U.U.U.U.U.U.U.U.U.U.U.R.R.R.R.U.U.U.U.U.U.U.U.U.U.U.U.U.U.U.U.U.U.K.K.U.U.U.U.R.R.U.U.U.U.K.K.F.F.K.F.F.K.U.K.K.K.F.F.F.F.F.F.F.F.F.F.F.F.F.F.F.F.F.F.K.K.K.K.K.K.K.K.K.K.K.F.F.F.F.F.F.K.K.K.K.K.U.K.K.K.K.U.U.U.U.U.U.R.R.R.U.U.K.K.K.K.K.F.K.K.K.F.F.K.K.F.B.S.S.z.F.F.+.] ] ] -.8.8.8.8.e.z.k.e.e.3.-.8.;.#.;.;.;.8.k.v.U.K.F.K.K.F.F.K.S.F.K.K.K.F.F.F.K.K.F.F.F.F.F.K.F.F.F.F.K.K.K.K.F.F.F.F.F.F.K.K.K.U.K.K.K.F.F.S.y.F.U.U.K.K.K.F.K.K.K.K.K.K.K.K.U.U.U.U.U.U.U.U.K.K.K.K.K.K.K.K.K.K.K.K.K.K.K.K.K.K.F.K.K.F.S.B.z.k.k.v.S.F.S.F.S.F.F.F.K.K.K.K.S.F.F.S.S.F.F.S.S.S.F.F.F.F.F.K.K.K.K.K.K.F.K.K.F.K.K.K.K.K.F.F.K.K.F.F.F.K.K.K.K.F.F.F.F.F.K.K.F.K.K.K.K.K.K.K.U.U.K.K.K.K.K.U.U.F.K.U.K.U.U.S.s.4.#...3.v.K.K.F.K.K.U.U.K.K.K.K.K.U.K.K.S.R./ k ",
"J I I ( ;.3.3.e.z.B.K.U.R.R.R.R.U.U.U.U.U.U.U.U.U.U.U.U.R.R.R.U.U.U.U.U.U.U.R.R.U.U.U.U.U.U.U.U.U.U.U.U.U.U.U.U.U.U.U.U.U.R.U.U.U.U.U.U.U.R.U.U.R.U.U.U.R.R.U.U.U.U.U.U.U.U.U.U.U.U.U.U.U.U.U.U.U.U.U.U.K.K.K.K.U.R.R.U.R.!.!.!.!.R.!.R.R.R.R.R.R.R.!.!.R.R.R.R.R.R.R.R.R.R.R.R.R.R.R.R.R.R.U.K.K.U.U.U.U.R.R.U.U.U.R.!.R.R.R.!.R.R.!.R.R.R.R.!.R.R.U.U.U.U.U.U.U.U.U.U.U.U.U.U.K.F.S.v.k.z.B.F.K.R.R.U.U.U.U.R.R.U.U.U.U.U.U.U.U.U.U.U.U.U.U.U.U.U.U.U.U.U.U.R.U.U.U.U.U.U.U.U.U.U.U.K.U.U.U.U.U.U.U.K.K.K.U.U.K.K.K.K.K.K.K.K.K.S.F.F.S.F.K.K.F.F.F.F.F.F.F.F.F.F.K.K.F.F.F.K.F.F.F.F.F.K.K.K.K.K.F.F.F.F.F.F.F.F.F.F.F.F.F.F.F.F.K.K.K.F.F.K.K.U.R.R.U.U.R.R.R.R.U.K.K.K.K.K.K.F.F.F.S.F.K.K.S.S.B.F.F.K.U.z...I N I -.8.e.8.3.k.z.k.s.3.-.4.;.;.s.v.z.v.B.S.R.U.K.U.U.K.F.F.F.F.K.U.K.K.K.U.U.K.K.K.K.K.K.K.F.K.K.K.K.K.K.K.K.K.K.K.K.F.F.F.F.K.K.F.F.F.K.S.y.S.K.K.K.K.K.K.U.K.K.K.K.K.U.U.K.K.K.K.K.K.K.K.U.K.K.K.K.K.K.K.K.K.K.K.K.K.K.K.K.K.K.K.K.K.F.S.B.z.k.v.S.S.S.F.B.F.K.F.F.F.F.F.S.F.F.S.S.F.F.S.S.S.F.F.F.F.F.K.K.K.K.K.K.F.F.K.F.F.K.K.F.F.F.F.K.K.K.F.K.K.K.K.F.F.F.F.F.K.K.K.K.K.K.K.K.K.K.K.K.K.K.K.K.K.K.K.K.F.K.U.K.U.R.F.S.y.3.e.B.R.U.K.U.K.K.K.K.K.K.K.K.K.U.U.K.F.!.( z ",
"Q / Q / +.;.4.k.v.K.R.R.R.R.U.U.U.U.U.U.U.U.U.U.U.R.U.U.U.R.R.R.K.K.K.K.K.K.K.U.U.U.U.U.U.U.U.U.U.U.K.U.U.U.K.U.U.U.U.U.U.R.R.U.U.U.K.U.U.U.U.U.U.R.U.U.R.R.U.U.U.U.U.U.U.U.U.U.U.U.U.R.U.U.U.U.U.U.U.U.U.K.K.U.U.!.R.U.R.R.R.!.!.!.R.R.R.R.R.!.R.R.!.!.R.R.R.!.!.R.U.U.R.R.R.R.R.R.R.R.R.U.U.K.K.U.R.R.R.R.R.U.U.U.R.!.R.R.R.R.R.R.R.R.R.R.R.R.R.R.U.U.U.U.U.U.R.R.U.U.U.U.U.U.U.F.S.v.k.k.v.B.S.U.R.R.R.R.R.R.R.R.U.R.R.U.U.U.U.U.U.U.U.U.U.U.U.U.U.U.U.U.U.U.U.K.K.K.K.K.K.K.U.U.U.U.U.U.U.U.U.U.K.F.F.K.K.K.F.K.K.K.K.F.F.F.K.S.F.S.v.F.K.F.F.F.F.F.F.F.F.F.F.F.K.K.K.K.K.K.F.F.F.F.K.K.K.K.K.K.F.F.F.F.F.F.F.F.F.F.F.F.F.F.F.F.F.K.K.F.F.K.K.U.R.R.U.R.R.U.R.R.U.U.K.K.K.K.K.F.F.S.S.F.K.K.B.F.S.K.F.F.!.S.3.G u d Q -.3.4.4.y.k.s.y.4.;.;.;.4.B.U.S.S.K.R.R.U.K.U.U.K.K.K.K.F.K.U.U.U.U.R.U.U.K.K.K.K.K.K.K.K.K.K.K.K.K.K.K.K.K.K.K.F.F.F.F.K.F.F.F.K.K.S.s.S.K.U.U.K.K.K.U.K.K.U.K.U.U.U.K.K.K.K.K.K.K.K.U.U.K.K.K.K.K.K.K.K.K.K.K.K.K.K.K.K.K.K.U.U.K.F.F.B.z.v.S.S.S.F.S.K.K.F.F.F.F.F.S.S.S.S.S.F.F.S.S.F.F.F.F.F.F.F.K.K.K.K.F.F.F.F.F.F.F.F.F.F.F.F.K.K.F.F.F.K.K.K.F.F.F.F.F.K.K.K.K.K.K.K.K.K.K.K.K.K.K.K.K.K.K.K.K.K.U.U.K.U.R.U.K.v.B.K.R.R.F.K.!.R.U.K.K.U.U.U.K.K.U.U.U.K.(.] z ",
"J J J / #.3.e.z.z.K.R.U.R.U.U.R.U.U.U.U.U.U.U.U.U.U.U.U.K.U.U.U.U.U.U.U.U.U.U.U.U.R.U.U.U.U.U.U.U.U.K.U.U.U.U.U.U.U.U.U.U.R.U.U.K.F.F.F.K.K.U.U.U.U.U.U.U.U.U.U.U.U.U.U.U.U.U.U.U.U.R.R.R.U.U.U.R.U.U.U.U.U.U.U.R.R.U.K.U.R.R.R.R.R.R.U.U.U.R.R.R.U.U.R.R.R.R.R.R.U.K.K.U.U.U.U.U.R.R.U.U.U.K.F.F.U.R.R.R.R.R.U.U.K.U.R.U.U.R.U.R.R.!.!.R.R.R.R.R.R.R.R.U.U.R.R.R.R.R.R.R.R.U.R.R.K.F.S.B.B.B.B.S.K.R.R.R.R.R.R.!.R.R.R.R.R.R.R.R.R.U.U.U.U.R.R.U.U.U.U.R.U.R.R.U.U.K.K.K.K.K.K.K.U.R.R.U.U.U.U.U.K.F.F.F.F.F.K.F.F.K.K.K.F.F.F.K.F.K.B.z.F.K.F.K.F.F.F.F.F.F.F.F.K.K.K.K.K.K.K.F.F.F.F.K.K.K.K.K.K.F.F.F.F.F.F.F.F.S.F.F.F.F.F.F.F.F.F.F.F.F.F.K.U.R.U.U.R.R.U.U.R.U.U.K.K.K.K.K.F.F.S.S.K.K.K.S.U.B.F.R.F.K.K.3.G t t N / ..+.#.#.3.4.4.8.8.3.3.8.S.U.U.U.K.F.K.K.K.K.K.K.K.U.K.F.F.K.U.K.U.U.R.U.U.U.U.U.U.U.U.U.K.K.K.U.U.U.U.K.K.K.K.K.K.K.K.U.F.F.K.K.U.S.y.S.U.U.K.K.K.F.K.K.K.K.U.U.K.K.U.U.U.U.U.U.U.U.K.K.K.K.K.K.K.K.K.K.U.K.K.K.K.K.K.K.K.K.K.U.U.U.U.F.B.B.F.F.F.K.F.K.F.S.F.F.S.S.S.S.S.S.S.S.F.F.S.F.F.F.F.F.F.F.K.K.K.K.F.F.F.F.F.F.F.F.K.K.K.K.K.K.K.F.F.K.K.F.F.F.F.F.K.K.K.K.U.U.K.K.K.K.K.K.K.K.U.U.U.U.K.K.K.K.U.U.U.U.U.R.R.U.R.R.U.F.B.S.U.U.K.K.K.K.K.K.K.U.U.U.U.U.(.] z ",
"C N C ..4.8.y.B.B.U.R.U.K.K.U.!.U.U.U.U.R.U.U.U.U.U.U.U.U.U.U.K.U.K.K.U.U.U.U.R.U.U.R.U.U.U.U.U.U.K.K.K.U.K.K.K.K.U.U.U.U.U.U.U.K.S.S.S.F.K.U.R.R.U.U.U.U.U.U.U.U.U.U.K.K.K.K.K.K.K.U.R.U.K.K.U.U.U.U.U.U.K.U.R.R.U.K.K.U.U.U.K.U.U.U.U.K.U.U.U.U.K.K.K.U.U.U.U.U.K.F.F.F.K.K.K.K.U.U.K.F.F.S.S.F.K.U.U.U.U.U.U.K.K.K.U.U.U.U.U.U.U.U.R.U.U.U.U.U.R.R.R.U.U.R.R.R.R.R.R.R.U.U.U.U.K.F.F.K.K.F.F.S.U.R.U.U.U.U.R.R.R.U.R.R.R.R.R.R.U.U.U.U.U.U.U.U.U.U.U.U.U.U.U.U.K.K.K.U.U.U.U.K.U.R.R.U.U.U.U.U.K.K.F.F.F.F.F.F.F.F.F.F.F.F.F.F.F.K.v.k.S.K.S.K.F.F.F.K.K.K.K.F.K.K.K.K.F.F.F.F.F.F.F.F.K.F.K.F.F.F.F.F.F.K.K.K.K.F.F.F.F.F.F.F.F.F.F.F.F.F.K.K.U.U.U.U.R.R.U.U.U.U.K.K.K.K.K.K.F.F.F.F.K.U.F.S.K.v.S.K.U.!.S.#.C d d m I Q / ( / +.-.+.;.4.#.3.s.U.R.K.U.U.U.K.K.K.K.K.U.U.U.U.K.F.K.U.U.U.U.R.U.U.U.U.U.U.U.U.U.U.K.K.U.U.U.U.U.K.U.U.U.U.U.U.R.K.K.K.U.U.S.y.F.U.K.K.K.U.K.K.K.K.K.K.K.K.K.K.K.K.U.K.K.K.K.K.K.K.K.K.K.K.K.K.K.K.K.K.K.K.K.K.K.K.K.K.U.R.U.R.U.K.K.U.K.K.U.U.K.S.S.F.F.S.S.F.S.S.S.S.S.S.F.F.F.K.K.F.F.F.F.K.K.K.K.F.F.F.F.F.F.K.K.K.K.K.K.K.K.K.F.F.K.K.F.F.F.F.K.K.U.U.U.U.U.U.K.K.K.K.K.K.K.U.U.U.U.K.K.K.U.U.U.U.U.U.R.U.K.K.F.F.K.K.U.K.K.U.U.U.K.U.U.K.K.U.K.U.K.[.] z ",
"C C d ( v.z.k.B.K.U.R.R.U.K.U.U.U.U.U.U.U.U.U.U.U.U.U.U.U.U.U.U.U.U.U.U.U.U.U.U.U.U.U.U.R.R.U.U.U.U.K.K.K.K.K.K.K.U.U.K.K.U.U.K.K.S.S.S.F.K.U.U.U.U.U.U.U.U.U.U.U.U.U.U.K.K.K.K.U.F.F.F.K.F.F.K.K.U.U.K.K.K.K.U.R.U.K.K.K.K.K.K.K.K.F.K.K.K.K.K.K.F.F.F.K.K.K.K.K.F.F.F.F.F.K.K.F.U.S.S.F.F.F.F.K.K.K.K.K.K.K.K.K.K.K.K.K.K.K.U.U.U.U.U.U.U.U.U.U.U.U.U.U.U.U.U.R.R.U.U.U.R.U.U.U.U.K.K.K.U.U.U.K.K.U.U.U.U.U.U.R.R.R.R.R.U.U.U.U.U.U.U.U.U.U.U.U.U.U.U.K.K.U.U.U.U.K.U.U.K.K.U.U.U.R.R.U.U.U.U.U.U.K.K.K.K.K.K.K.K.K.K.K.K.K.K.K.K.K.z.y.S.K.B.K.F.F.K.K.K.K.K.K.K.K.K.F.F.F.F.F.F.F.F.F.F.F.F.F.F.F.F.K.K.K.K.K.K.F.F.F.F.F.F.F.F.F.K.K.F.F.K.K.U.U.U.R.R.R.R.R.R.U.K.K.K.K.K.F.K.K.K.F.F.K.K.F.S.F.S.K.K.F.B.-.N u d m C Q / Q I / / / #.;.+.e.v.U.K.S.F.K.F.K.K.K.K.K.K.U.U.U.K.K.U.U.U.U.U.R.U.U.U.U.U.U.R.U.U.U.K.K.U.U.U.U.U.U.U.U.U.U.U.U.K.U.K.K.K.K.S.s.S.R.U.K.U.U.K.U.K.K.K.K.K.K.F.K.K.K.K.K.K.K.K.F.K.K.K.K.K.U.K.K.K.K.K.K.K.K.K.K.K.K.K.K.K.U.R.R.R.U.U.R.R.R.R.U.K.F.F.F.F.K.K.F.F.F.F.F.F.K.K.K.K.K.K.K.F.F.F.K.K.K.K.K.K.F.F.F.K.K.K.K.U.K.K.U.K.K.K.K.K.K.K.K.K.K.K.K.K.K.U.U.U.U.U.K.K.K.K.K.K.K.U.U.U.K.K.K.U.U.U.U.U.U.U.K.R.U.S.B.K.R.U.K.K.K.K.K.U.U.U.K.U.K.K.K.F.(.( k ",
"C G t G z.S.z.B.K.U.R.R.U.U.U.U.U.U.U.U.U.U.U.U.U.U.U.R.U.R.U.U.U.U.U.U.U.U.U.U.U.U.U.U.U.R.U.U.U.U.K.K.K.K.K.K.K.K.K.K.K.K.K.K.K.F.F.F.K.K.U.U.U.U.U.U.U.U.U.U.U.U.U.U.K.K.K.F.F.S.S.F.F.F.F.F.F.U.U.U.U.K.K.U.U.U.K.K.K.K.K.F.F.F.F.F.F.F.F.F.F.F.F.F.K.K.K.K.F.F.F.F.F.F.F.F.K.F.B.F.K.S.F.K.K.K.K.K.K.K.F.F.F.F.F.K.K.F.K.U.U.U.U.U.U.U.U.U.U.U.U.U.U.U.U.U.U.U.U.U.U.U.U.U.U.U.K.K.K.U.U.U.K.U.U.U.U.U.U.U.U.U.U.U.U.U.U.U.U.U.U.U.U.U.U.U.U.K.U.U.U.U.U.K.K.K.U.U.U.K.K.U.U.U.U.R.U.U.U.K.U.K.K.K.K.K.K.K.K.K.K.K.K.K.K.K.K.K.K.z.s.S.K.S.F.F.F.K.K.K.K.K.K.K.K.K.K.F.F.F.F.F.F.F.F.F.F.F.F.F.F.F.F.K.K.K.K.F.F.F.F.F.F.F.F.F.F.F.K.F.F.K.K.K.U.U.U.R.U.U.U.U.K.K.F.F.F.K.K.K.K.K.K.K.K.K.K.F.F.S.F.S.B.B.;.G k u z G Q Q I I / I Q ..-.3.v.K.R.U.K.U.U.K.K.K.K.K.U.U.U.U.U.K.K.U.U.U.U.U.U.U.U.U.U.U.U.R.U.U.U.K.K.U.U.U.U.U.U.U.U.U.U.U.U.K.U.U.K.K.F.B.s.S.R.U.K.U.U.K.U.K.K.K.K.K.K.F.F.F.F.K.F.F.F.F.F.K.K.K.K.K.K.K.K.K.K.K.K.K.K.K.K.K.K.K.K.K.U.R.R.R.U.U.R.R.R.R.U.K.F.F.F.F.K.K.K.K.F.F.F.K.K.K.K.K.K.K.K.K.K.K.U.K.K.K.K.K.K.K.K.K.K.K.U.K.K.K.U.U.U.K.K.K.K.K.K.K.K.K.K.K.U.U.U.U.U.U.K.K.K.K.K.K.K.K.U.U.K.K.K.U.U.U.U.U.U.U.U.U.K.S.S.F.K.K.K.K.U.U.K.K.K.K.K.U.K.K.K.K.[.] k ",
"Q m * G S.z.y.!.K.U.U.U.U.U.U.U.U.U.U.U.U.U.U.U.U.U.R.R.R.R.R.R.U.U.U.U.U.U.U.U.U.U.U.U.R.U.U.U.U.U.K.K.K.K.K.U.U.K.K.K.F.S.S.S.F.K.K.K.K.K.U.U.U.U.U.U.U.U.U.U.U.U.K.U.U.K.F.F.S.F.F.F.F.F.F.S.F.U.U.U.U.K.F.K.K.K.K.K.K.K.K.F.S.S.S.S.F.F.F.F.F.K.K.K.K.K.K.K.F.F.F.F.F.F.F.F.S.F.F.K.F.S.K.U.K.K.K.K.K.K.K.F.K.F.F.K.K.K.K.U.U.U.U.K.K.K.K.U.K.K.U.U.K.K.K.K.U.K.K.K.K.K.K.K.K.K.K.K.K.U.U.U.U.U.U.U.K.K.K.K.K.K.U.U.K.K.K.K.U.U.U.U.U.U.U.U.U.K.U.U.U.R.U.K.B.S.K.U.U.K.K.U.U.U.R.U.U.U.R.U.U.K.F.F.F.F.F.K.K.K.K.K.K.K.K.K.K.F.K.v.k.B.F.S.F.F.F.K.K.K.K.K.K.K.K.K.K.K.F.F.K.K.F.K.F.F.K.K.K.F.F.F.F.F.K.K.K.F.F.F.F.F.F.F.K.F.F.F.F.F.F.K.K.K.K.K.U.U.U.U.K.K.K.F.S.S.F.F.K.K.K.K.K.K.K.K.K.F.F.B.F.S.B.F.3.G k 0 k J I I Q I Q m m C ..k.F.K.U.K.K.U.K.K.K.K.K.U.U.U.U.U.U.K.K.U.U.U.U.U.U.U.U.U.U.U.U.U.U.U.U.U.U.U.U.U.U.U.U.U.U.U.U.U.U.K.U.U.U.K.S.z.s.S.U.U.K.U.U.K.K.K.K.K.K.K.K.K.F.F.F.F.F.F.S.S.F.F.K.K.K.K.K.K.K.K.K.K.K.K.K.K.K.U.U.K.K.K.U.U.U.R.R.R.!.R.U.U.K.K.F.F.K.K.K.K.K.K.K.K.K.K.K.U.K.K.K.K.K.K.K.K.U.U.K.K.K.K.K.K.K.K.K.U.U.U.U.U.U.U.U.U.U.K.K.U.K.K.K.K.K.U.K.K.U.U.U.K.K.K.K.K.K.K.K.K.U.K.K.K.K.U.U.U.U.U.U.U.U.F.S.F.F.K.K.K.K.K.K.K.K.U.U.K.K.U.K.K.K.K.[.] k ",
"Q J 6 N v.v.s.(.U.U.U.U.U.U.U.U.U.U.U.U.U.U.U.U.U.U.U.U.R.R.R.R.U.U.U.U.U.U.U.U.U.U.U.U.U.U.U.U.U.U.K.K.K.K.K.U.U.U.U.K.F.B.B.S.K.K.K.U.U.U.U.U.U.U.U.U.U.U.U.U.U.K.K.K.U.K.K.F.S.K.K.K.K.K.K.F.F.U.U.U.U.K.F.F.F.K.K.K.K.K.F.F.S.S.F.F.F.F.F.F.K.K.U.U.U.K.K.K.K.K.K.K.F.F.F.F.K.R.R.!.R.U.K.F.K.K.U.U.U.U.U.K.K.K.K.K.K.K.K.U.U.U.K.K.K.K.K.K.K.K.K.K.K.K.K.K.K.K.K.K.K.K.K.K.K.K.K.K.U.U.U.U.U.U.U.K.K.K.K.K.K.K.U.K.K.K.K.K.K.K.U.U.U.U.U.U.U.K.K.U.U.R.U.S.z.B.F.U.U.U.U.U.U.U.U.K.F.K.R.U.U.K.K.F.F.F.F.K.K.K.K.K.K.K.K.F.K.F.K.S.v.B.S.S.F.F.F.K.K.K.F.F.K.K.K.K.K.K.K.K.K.F.F.F.F.K.K.K.K.F.F.F.F.F.K.K.K.K.K.K.F.F.F.F.K.F.K.F.F.F.F.K.F.F.K.K.K.K.K.K.F.K.K.F.S.S.F.F.K.K.K.K.K.K.K.K.K.F.F.B.K.S.S.U.4.C d 6 d G I I Q I I 0 t d / S.U.U.K.K.K.U.U.K.U.K.U.U.U.U.U.U.U.U.U.U.U.U.U.U.U.U.U.U.U.U.U.U.U.U.U.U.U.U.U.U.U.U.U.U.U.U.U.U.U.U.U.U.U.U.S.z.k.S.U.U.K.U.U.K.K.K.K.K.K.K.K.K.F.F.F.F.F.S.S.F.F.K.K.K.K.K.K.K.K.U.K.U.U.U.U.U.U.U.U.U.K.K.U.U.U.R.R.U.R.R.K.K.K.F.F.F.K.K.K.K.K.K.K.K.K.K.K.K.K.K.K.K.K.K.K.K.U.K.K.K.K.K.U.U.K.K.K.K.K.U.U.U.U.U.U.K.K.K.K.K.U.U.U.K.K.K.K.K.U.U.K.K.U.K.K.K.K.K.K.K.U.K.K.K.K.K.U.U.K.U.U.U.K.F.F.K.U.K.K.K.U.U.U.K.K.U.K.K.U.U.K.K.K.K.[...k ",
"( ( d k 8.S.B.K.R.R.U.R.U.U.U.U.U.U.U.U.U.U.U.U.U.U.U.U.U.U.R.U.U.U.U.U.U.U.U.U.U.U.U.U.U.U.U.K.U.K.K.K.K.K.U.U.K.K.U.U.K.F.F.K.K.K.K.U.U.U.U.U.U.U.U.U.K.K.K.U.U.K.K.K.K.K.K.K.F.K.U.K.K.K.K.K.K.U.U.K.F.F.S.F.F.K.K.K.K.K.K.F.S.F.K.K.K.K.K.K.K.K.U.U.U.K.K.K.K.U.U.K.K.F.K.K.F.F.S.K.K.S.K.!.U.U.U.U.U.U.K.K.K.K.K.K.K.K.K.K.K.K.K.K.K.F.K.K.K.K.K.U.K.K.K.K.K.K.K.K.K.K.K.K.K.K.U.U.K.K.K.K.U.U.U.U.K.K.K.K.K.K.K.K.K.K.K.K.K.K.K.U.U.U.U.U.U.K.K.U.U.U.K.S.z.v.S.K.U.U.U.U.K.U.U.F.B.F.U.U.R.U.K.K.K.K.K.K.K.K.K.K.K.K.F.F.K.F.K.F.S.S.B.B.K.K.K.K.K.K.F.K.F.K.K.K.K.K.K.K.K.K.F.F.F.K.K.K.K.F.F.F.F.F.K.K.K.K.K.K.K.K.K.K.K.K.F.F.F.F.F.F.F.F.F.K.K.K.K.K.F.K.K.F.S.S.F.F.K.K.K.K.K.K.K.K.K.F.F.B.K.S.S.K.e.C d u m G I Q Q I J 0 t u Q B.U.U.K.K.U.U.U.U.K.K.U.U.U.U.U.U.U.U.U.U.U.U.U.U.U.U.U.U.U.U.U.U.U.U.U.U.U.U.U.U.U.U.U.U.U.U.U.U.U.U.U.U.U.R.F.z.z.F.U.U.K.U.U.K.U.K.K.K.K.K.K.K.K.F.F.F.F.S.S.F.F.K.K.K.K.K.K.K.U.U.U.U.U.U.U.U.U.U.U.U.U.K.K.K.U.R.U.U.U.U.K.K.K.K.F.F.K.K.K.K.K.K.K.K.K.K.K.K.K.K.K.K.K.K.K.K.U.K.K.K.K.K.U.U.K.K.U.K.K.K.K.U.K.K.K.K.K.K.K.K.U.K.K.K.U.U.K.K.U.U.K.K.U.U.U.U.U.U.U.U.K.K.U.U.K.K.K.K.K.K.U.U.U.U.U.U.U.U.U.K.U.U.U.K.K.K.K.K.U.U.K.K.K.K.[...k ",
"] ( N m ..s.S.R.R.R.U.U.U.U.U.U.U.U.U.U.U.U.U.U.U.U.U.U.U.U.U.U.U.U.U.U.U.U.U.U.U.U.U.K.K.K.K.K.U.K.K.K.K.K.U.U.K.K.U.U.U.K.K.U.U.U.K.K.U.U.U.U.U.U.U.K.K.K.K.K.U.U.U.K.K.K.K.K.K.U.U.U.K.U.U.U.K.K.K.F.F.F.F.K.K.K.K.K.K.K.K.K.F.K.K.K.K.K.U.U.U.U.U.U.U.U.U.U.U.U.U.U.K.K.K.U.R.!.U.U.!.R.U.U.K.U.U.U.U.U.K.K.F.K.K.K.K.K.K.K.K.K.K.K.K.K.K.K.K.K.U.U.U.K.K.K.K.K.K.K.K.K.K.K.K.K.K.U.K.K.K.K.U.U.U.U.U.K.K.K.K.K.K.K.K.K.K.K.K.K.U.U.U.U.U.U.U.K.K.U.K.U.K.S.v.v.S.K.U.U.U.U.K.U.U.S.v.S.U.U.R.U.K.K.K.K.K.K.K.K.K.K.K.K.K.K.F.F.K.K.F.S.v.B.U.K.K.K.K.K.K.K.K.K.K.K.K.K.K.K.K.K.F.F.F.K.K.K.K.K.F.F.F.K.K.K.K.K.K.K.K.K.K.K.K.K.K.F.F.F.K.F.F.F.F.K.K.K.K.F.F.K.K.K.F.F.F.K.K.K.K.K.K.K.K.K.K.F.F.B.K.F.S.F.y.C t k J J / ] / ( ] k 0 0 I S.K.K.K.K.K.K.K.K.K.K.U.U.U.U.U.U.U.U.U.U.U.U.U.U.U.U.U.U.U.U.U.U.U.U.U.U.U.U.U.U.U.U.U.U.U.U.U.U.U.U.U.U.U.R.K.v.z.F.U.U.U.U.U.K.U.K.K.K.K.K.K.K.F.F.S.S.S.S.S.F.F.K.K.K.K.U.U.K.U.U.U.U.U.U.U.U.U.U.U.U.U.U.U.K.K.U.U.K.U.U.U.K.K.K.F.F.K.K.K.K.K.K.K.K.K.K.K.K.K.K.K.K.K.K.K.K.K.K.K.K.K.K.U.U.K.K.K.K.K.K.K.K.K.K.K.K.K.K.K.K.K.K.U.K.U.U.K.K.U.U.U.K.U.U.U.U.U.U.U.U.K.K.K.U.K.K.K.K.K.K.U.U.K.U.R.U.U.U.U.U.K.K.K.K.K.K.K.K.U.U.K.K.K.F.[.+.k ",
"( ] ( G C 3.K.R.U.U.U.U.U.U.U.U.U.U.U.U.U.U.U.U.U.U.U.U.U.U.U.U.U.U.U.U.U.U.U.U.U.U.K.K.K.K.U.U.U.U.K.K.K.K.U.U.K.U.U.U.U.K.K.F.K.U.U.U.U.U.U.U.U.U.U.U.K.K.K.K.K.U.U.U.K.K.K.K.U.U.U.U.U.U.U.U.K.U.K.F.K.K.K.K.U.U.U.U.U.U.U.K.K.K.U.U.U.U.U.R.R.U.U.U.U.U.U.U.U.U.U.U.U.U.U.U.K.S.4.;.v.!.!.K.K.K.U.U.U.U.K.K.F.K.U.K.K.K.K.K.K.U.U.U.K.K.K.K.K.K.U.U.K.K.K.K.K.K.K.K.K.K.K.K.K.K.K.K.K.K.K.K.U.U.U.U.U.K.K.K.K.K.K.K.K.K.K.K.U.U.U.U.U.U.U.U.U.K.U.U.K.K.U.K.S.F.K.U.U.U.U.U.K.U.U.F.B.K.R.U.U.K.K.K.K.F.F.F.K.K.K.K.K.K.K.K.F.F.U.K.K.S.v.B.K.K.K.K.K.K.K.K.K.K.K.K.K.K.K.K.K.K.F.F.F.K.K.K.K.K.K.F.K.K.K.K.K.K.K.K.K.K.K.K.K.K.K.F.F.K.K.K.K.K.F.K.K.K.K.K.K.K.K.K.K.K.K.K.K.K.K.K.K.K.K.K.K.S.F.B.F.F.F.F.k.G 6 z Q Q ..#.+.-.-.Q u 3 I F.U.U.U.U.U.U.U.K.K.K.U.U.U.U.U.U.U.U.U.U.U.U.U.U.U.U.U.U.U.U.U.U.U.U.U.U.U.U.U.U.U.U.U.U.U.U.U.U.U.U.U.K.K.U.K.v.v.F.U.U.U.U.U.K.U.K.K.K.K.K.K.K.F.F.S.S.S.S.S.F.F.K.K.K.U.U.U.K.U.U.U.U.U.U.U.U.U.U.U.U.U.U.U.K.K.R.U.K.U.U.U.U.K.K.F.F.K.K.U.U.K.K.K.K.K.K.K.K.K.K.K.K.K.K.U.U.U.U.U.K.K.K.U.U.K.K.U.U.U.K.K.K.K.K.U.U.K.K.K.K.K.K.U.K.U.K.K.K.U.U.K.K.K.K.K.K.U.U.K.K.K.K.K.U.K.K.K.U.U.K.K.U.K.U.U.U.U.R.U.U.U.K.U.U.K.K.K.K.K.U.K.U.K.F.[...k ",
"] ( +.Q m -.U.R.K.U.R.R.R.U.U.U.U.U.U.U.U.U.U.U.U.U.U.U.U.U.U.U.U.U.U.U.U.U.U.U.U.U.K.K.K.U.U.U.U.U.K.K.K.K.K.U.K.U.U.U.U.U.K.F.F.U.R.U.U.U.U.U.U.U.U.U.K.K.K.K.K.U.R.U.K.K.F.K.U.K.K.U.U.U.U.U.U.R.U.U.U.U.U.U.U.U.U.U.U.U.U.U.U.U.U.U.U.R.R.R.U.U.K.K.U.U.U.K.K.K.K.U.U.U.U.K.U.!.S.B.R.R.F.F.U.U.U.U.U.U.K.F.K.U.U.U.K.U.U.U.U.U.U.U.U.U.K.K.K.K.K.U.K.K.K.F.K.K.K.K.K.K.K.K.K.K.K.K.K.K.K.K.U.U.U.U.U.K.K.K.K.K.K.U.U.K.K.K.U.U.U.U.U.U.U.U.U.U.U.U.K.K.U.U.K.K.U.U.U.K.U.U.U.U.U.K.F.R.!.U.U.U.K.K.K.K.F.F.F.F.F.K.K.K.K.K.F.K.U.K.K.F.v.B.K.K.K.K.K.K.F.F.K.K.K.K.K.K.K.K.K.K.F.F.F.F.K.K.K.K.K.K.K.K.K.K.K.K.K.K.K.K.K.K.K.K.K.F.F.K.K.K.K.K.K.K.K.K.K.K.K.K.K.K.K.K.K.K.K.K.K.K.K.K.K.K.K.F.K.S.S.S.F.S.S.I 6 z Q / #.-.3.;.;.+.m t Q v.K.K.K.K.K.K.K.K.K.U.U.U.U.U.U.U.K.U.U.U.K.U.U.K.U.U.U.U.U.U.U.U.U.K.U.U.U.U.U.U.U.U.U.U.U.U.U.U.K.U.U.K.K.U.F.v.v.F.U.U.U.U.U.K.K.K.K.K.K.K.K.K.F.F.F.F.F.F.F.F.F.K.K.K.K.U.U.K.U.U.U.U.U.U.U.U.U.U.U.U.U.U.U.U.K.R.R.U.U.U.U.U.K.K.F.F.K.K.U.U.K.K.K.K.K.K.K.K.U.U.U.K.K.K.U.U.U.U.K.K.K.K.U.U.K.K.U.U.U.K.K.K.U.U.U.U.U.U.U.U.K.K.K.K.U.U.U.U.K.K.K.K.K.K.K.K.K.K.K.K.K.K.K.K.U.K.K.U.U.K.K.U.U.U.U.U.U.U.K.K.K.U.U.K.K.U.U.U.K.U.K.U.K.F.[...k ",
"( ( ] I N -.U.K.R.U.U.U.U.U.U.U.U.U.U.U.U.U.U.U.U.U.U.R.R.R.R.R.U.U.K.K.U.U.U.K.U.U.K.K.U.U.U.U.U.K.K.U.K.U.U.K.K.U.U.U.U.U.R.U.U.U.U.U.U.U.U.U.U.U.U.U.U.U.U.K.U.U.U.U.F.S.S.F.F.K.K.K.U.R.R.U.U.R.R.R.R.R.R.U.R.R.R.U.U.U.R.R.R.U.U.U.U.R.R.R.U.U.U.U.U.U.U.K.K.K.K.K.K.K.K.K.U.S.B.K.U.F.F.K.R.R.U.U.K.K.K.K.U.U.U.U.U.U.U.U.U.U.U.U.U.U.K.K.K.K.K.K.K.K.F.K.K.K.K.K.K.K.K.K.K.K.K.K.K.K.K.K.U.U.U.U.K.K.K.K.K.K.U.U.K.K.U.U.U.U.U.U.U.U.U.U.K.K.U.U.U.U.U.U.K.U.U.U.U.U.U.U.U.R.R.K.K.U.U.U.U.K.K.F.F.K.K.K.K.K.K.K.K.K.K.K.K.K.K.F.K.F.B.v.F.U.U.K.K.K.F.F.K.K.K.K.K.K.K.K.K.K.F.K.K.K.K.K.K.K.K.K.K.K.K.K.K.K.K.K.K.K.K.K.K.K.F.F.F.K.K.K.K.K.K.K.F.F.K.K.F.F.K.K.K.K.K.F.K.K.K.K.K.K.K.K.K.S.F.F.S.S.F.B.B.e.6 d ] ] 3.e.e.3.-.#.] C / v.U.K.K.K.U.U.K.K.K.K.U.U.U.U.U.U.U.U.U.U.U.K.K.K.K.K.K.K.U.U.K.K.K.K.U.U.U.U.U.U.U.R.U.U.R.U.K.U.K.U.U.U.U.U.F.v.v.S.U.U.F.U.U.K.K.U.K.K.K.K.K.F.F.F.F.F.F.F.F.S.F.K.K.K.K.K.K.K.K.K.K.U.U.U.U.U.K.K.K.U.U.U.U.U.U.U.U.U.K.K.K.K.F.F.F.F.K.K.U.U.U.U.K.U.K.K.K.K.K.U.U.U.U.K.K.K.K.U.U.U.K.K.K.U.K.K.U.U.K.K.K.K.K.K.K.K.K.K.U.U.K.K.K.K.K.K.K.K.K.K.K.K.K.K.K.U.U.U.U.U.K.K.U.U.K.K.K.U.U.U.U.U.U.U.U.U.U.U.K.K.K.K.K.K.K.K.U.U.U.U.K.U.U.K.[...k ",
"/ / / G N ;.F.S.R.U.U.U.U.U.U.U.U.U.U.U.U.U.U.U.U.U.U.U.U.U.R.R.U.U.U.U.U.U.U.U.U.U.U.U.U.U.U.U.U.K.U.U.K.K.U.K.U.U.R.U.U.U.U.K.K.U.U.U.U.U.U.U.U.U.U.U.U.U.U.U.U.U.U.K.F.B.B.B.F.K.U.U.U.U.R.U.U.R.R.R.R.R.R.R.R.R.R.U.U.U.R.R.R.U.U.U.U.U.U.U.U.U.K.K.U.U.K.K.K.K.K.K.K.K.K.K.U.K.U.U.R.U.U.R.K.K.U.U.U.U.U.U.U.U.U.U.U.U.U.U.U.U.U.U.U.U.K.K.K.K.K.K.K.K.F.K.K.K.K.K.K.K.K.K.K.K.K.K.K.K.K.K.K.U.U.U.K.K.K.K.K.U.U.U.K.K.U.U.U.U.U.U.U.U.U.U.K.U.U.U.U.U.U.U.K.U.U.U.U.U.U.U.K.U.U.K.F.K.U.K.U.K.K.F.F.K.K.K.K.K.K.K.K.K.K.K.K.K.K.F.F.F.S.v.S.K.U.K.K.K.F.K.K.K.K.K.K.K.K.K.K.K.F.F.F.K.K.K.K.K.K.K.K.K.K.K.K.K.K.K.K.K.K.K.K.K.K.K.K.K.K.K.K.K.K.K.F.F.F.F.F.F.K.K.K.K.K.F.K.K.K.K.K.K.K.K.K.S.S.S.B.S.S.B.K.v.z m ] +.y.z.z.8.-.#.+.I ( v.K.K.K.U.U.U.U.K.K.U.U.U.U.U.U.U.U.U.U.U.U.U.K.K.U.U.U.U.U.U.U.U.U.U.U.U.U.U.U.U.U.U.U.U.R.U.U.U.K.R.U.K.U.U.K.B.v.S.R.U.K.U.K.K.K.U.U.K.K.U.K.F.F.F.F.F.F.F.F.F.F.K.K.K.K.K.K.K.K.K.K.K.K.K.K.K.K.K.K.K.K.U.U.U.U.U.U.K.K.K.K.K.K.F.F.K.K.U.U.U.U.U.K.U.K.K.K.K.K.U.U.U.U.K.K.K.U.U.U.K.K.K.K.U.K.K.U.U.K.K.K.K.K.U.K.K.K.K.U.U.K.K.K.K.K.K.K.K.K.K.K.K.K.K.U.U.U.U.K.K.K.K.K.U.K.K.K.U.U.U.U.U.U.U.U.U.U.U.K.K.K.U.K.K.K.K.U.U.U.U.K.U.U.K.[...k ",
"( / I m m ;.F.F.R.U.U.U.U.U.U.U.U.U.U.U.U.U.U.U.U.U.U.K.K.K.U.R.U.U.U.U.U.U.U.U.U.U.U.U.U.U.U.U.U.U.R.U.K.K.U.U.U.U.U.U.U.U.U.K.K.U.U.U.U.U.U.U.U.U.U.U.U.U.U.U.U.U.K.K.S.B.B.B.F.K.R.R.U.U.U.R.R.R.R.U.R.R.R.R.R.R.R.R.R.U.R.R.R.U.U.U.U.U.U.U.U.U.K.K.K.K.K.K.K.K.K.K.K.K.K.K.F.U.U.U.K.U.U.U.K.K.U.U.R.U.U.K.U.U.U.U.U.U.U.U.U.U.U.U.U.U.U.U.K.K.K.K.K.K.K.K.K.K.K.K.K.K.K.K.K.K.K.K.K.K.K.K.K.K.U.U.K.K.K.K.K.U.U.U.K.K.U.U.U.U.U.U.U.U.U.U.U.U.U.U.U.U.U.U.K.U.U.U.U.U.U.U.K.U.U.K.K.K.U.K.U.K.K.K.K.K.K.K.K.K.K.U.K.K.K.K.K.F.K.K.F.K.F.v.B.K.U.K.F.F.K.K.K.K.K.K.K.K.K.K.K.F.F.F.F.K.K.K.K.K.K.K.K.K.K.K.K.K.K.K.K.K.K.K.K.K.K.K.K.K.K.K.K.K.K.K.F.F.F.F.F.K.K.K.K.K.K.K.K.K.K.K.K.K.K.K.U.F.S.S.B.S.S.S.B.S.Q Q #.-.s.s.s.8.;.-.-...;.U.K.K.U.U.U.U.U.U.U.U.U.U.U.U.U.U.U.U.U.U.U.U.U.U.U.U.U.U.U.U.U.U.U.U.U.U.U.U.U.U.U.U.U.U.R.R.U.U.U.R.K.U.U.U.K.S.z.S.R.K.K.R.F.K.K.K.U.U.U.U.K.F.F.F.F.F.S.S.F.F.F.K.K.K.K.K.K.K.K.K.K.K.K.K.K.K.K.K.K.K.K.K.K.K.K.K.K.K.K.K.K.K.K.K.K.K.K.K.U.U.U.U.K.K.K.K.K.U.K.K.K.U.K.K.K.K.K.K.K.K.K.K.K.U.K.U.U.U.U.K.K.K.U.U.U.U.K.K.U.U.K.K.U.U.K.U.K.K.U.U.K.K.K.K.K.K.K.K.K.K.K.K.U.U.K.K.K.U.U.U.U.U.U.U.U.U.U.U.K.K.U.U.U.U.K.K.U.U.K.K.K.U.U.F.[...k ",
"] ( I k m ;.S.K.U.U.U.U.U.U.U.U.U.U.U.U.U.U.K.K.K.K.K.K.F.F.K.U.U.U.U.U.U.U.U.U.U.U.U.U.U.R.R.U.U.U.R.U.K.K.U.U.K.K.U.U.U.U.U.U.K.U.U.U.U.U.U.U.U.U.U.U.U.U.U.U.U.U.U.K.F.S.S.F.K.U.R.R.R.R.U.R.R.R.R.U.U.U.U.R.R.R.R.R.R.R.R.R.R.R.R.U.U.U.U.U.U.K.K.K.K.K.K.K.K.K.K.K.K.K.K.K.F.U.U.U.K.U.U.K.U.U.U.U.U.U.U.U.U.U.U.U.U.U.U.U.U.U.U.U.U.U.U.U.U.K.K.K.K.K.K.K.K.K.K.K.K.K.K.K.K.K.K.K.K.K.U.K.K.K.U.U.U.K.U.U.U.U.U.K.K.K.U.U.U.U.U.U.U.U.U.U.U.U.U.U.U.U.U.U.U.U.U.U.U.K.U.U.K.U.U.U.U.U.U.U.U.K.K.K.K.K.K.K.K.U.U.U.U.K.K.K.K.F.K.K.F.U.K.v.B.F.U.U.F.F.K.K.F.F.K.K.K.K.K.K.F.F.F.F.F.K.K.K.K.K.K.K.K.K.K.K.K.K.K.K.K.K.K.K.K.K.K.K.K.K.K.F.F.K.K.K.K.F.F.F.F.K.K.K.K.K.K.K.K.K.K.K.K.K.U.U.R.K.S.S.S.F.F.S.S.F.] ( +.-.k.s.k.y.3.#.;.;.8.U.K.K.U.U.U.U.U.U.U.U.U.U.U.U.U.U.U.U.U.U.U.U.U.U.U.U.U.U.U.U.U.U.U.U.K.K.U.U.U.U.U.R.U.U.R.R.U.U.U.U.K.U.U.U.U.F.z.S.R.K.K.R.F.U.K.K.K.U.K.K.F.F.F.F.F.F.S.S.F.F.F.K.K.K.K.K.U.K.U.K.K.K.K.K.K.K.K.K.K.K.K.K.K.K.K.K.K.K.K.K.K.K.K.K.K.K.K.K.U.U.R.U.U.K.K.K.K.U.K.K.K.K.K.K.K.K.K.K.K.K.K.K.K.K.K.U.U.U.U.K.K.K.U.U.U.K.K.K.U.U.K.K.U.U.U.U.K.K.U.K.K.K.K.K.K.K.K.K.K.K.K.K.K.U.K.K.K.K.U.U.U.U.U.U.U.U.U.U.K.K.U.U.U.K.K.K.U.U.K.K.K.U.U.F.[...k ",
"] ] / m C 3.S.K.U.U.U.U.U.U.U.U.U.K.K.K.F.F.F.F.F.F.K.F.F.F.K.U.U.U.U.U.U.U.U.U.U.U.R.R.R.R.U.R.U.U.U.U.K.K.U.K.K.F.K.K.U.K.K.U.U.U.U.U.U.U.U.U.U.U.U.U.U.U.U.U.U.U.U.U.K.K.K.U.U.U.U.R.R.U.U.U.R.R.R.R.U.U.U.U.R.R.R.R.R.U.R.R.R.R.R.R.R.U.U.U.U.U.U.U.U.U.U.U.U.U.K.K.K.K.K.K.K.K.U.U.U.U.U.U.U.U.U.K.U.U.U.R.U.U.U.U.U.U.U.U.U.U.U.U.U.U.U.U.U.K.K.K.K.K.K.K.K.K.K.K.K.K.K.K.K.K.K.K.K.U.U.U.K.K.U.U.U.U.U.U.U.U.K.K.K.K.U.U.U.U.U.U.U.U.U.U.U.U.U.U.U.U.U.U.U.U.U.U.U.U.U.U.K.U.U.U.U.U.U.K.U.K.K.K.K.K.K.K.K.U.U.U.U.K.K.K.K.F.K.K.F.U.K.v.v.S.K.K.F.K.U.K.F.F.F.F.F.F.K.K.F.F.F.F.K.K.K.K.K.K.K.K.K.K.K.K.K.K.K.K.K.K.K.K.K.K.K.K.K.F.F.F.F.K.K.K.K.K.K.K.K.K.K.K.K.K.K.K.K.K.K.K.K.U.U.U.R.K.F.S.F.K.F.F.K.F...] +.;.z.z.z.y.-.] -.8.s.B.K.K.K.U.K.K.K.U.U.U.U.U.U.U.U.U.U.U.U.U.U.U.U.U.U.U.U.U.U.U.U.U.U.U.U.U.U.U.U.U.U.R.R.U.R.R.U.U.U.U.K.U.U.U.U.F.v.S.U.K.U.R.F.U.K.K.K.K.K.F.F.F.F.F.F.F.S.S.F.F.K.K.U.K.K.U.U.K.U.U.U.K.K.K.K.K.K.K.K.K.K.K.K.K.K.K.K.K.K.K.K.K.K.K.K.K.K.K.U.U.R.U.U.U.U.U.K.U.U.K.K.K.K.K.U.U.K.K.K.K.K.K.K.K.U.U.U.U.U.U.U.U.K.K.K.K.U.K.K.K.K.U.U.U.U.U.U.K.U.U.K.K.K.K.K.K.K.K.K.K.K.K.U.U.K.K.K.K.U.U.U.U.U.U.U.U.U.U.U.K.K.K.K.K.U.K.K.K.K.K.K.U.U.K.[...k ",
"] ( / N C 4.S.U.U.U.U.U.U.U.U.U.K.K.F.F.F.F.S.S.F.F.K.K.F.F.K.U.U.U.U.U.U.U.U.U.U.U.U.U.U.U.U.U.U.U.U.U.K.U.R.U.S.S.S.K.U.U.U.R.R.U.U.U.U.U.K.K.U.U.U.U.U.U.U.U.U.U.U.U.U.K.U.U.U.U.U.U.U.U.U.U.U.U.U.U.U.U.U.U.U.R.R.R.R.R.R.R.R.R.R.R.R.U.U.U.U.U.U.U.U.U.U.U.U.U.U.U.U.K.K.K.U.K.K.U.U.K.K.K.K.U.U.U.U.U.U.U.U.U.U.U.U.U.U.U.U.U.U.U.U.U.U.U.U.K.K.K.K.K.K.K.K.K.K.K.K.K.K.K.K.K.K.K.K.U.U.U.K.K.U.U.U.U.U.U.U.K.K.K.K.K.U.U.K.K.U.U.U.U.U.U.U.U.U.U.K.U.U.U.U.U.U.U.U.U.U.U.K.U.U.U.U.U.U.K.U.U.U.K.K.K.K.K.K.U.U.U.U.K.K.K.K.F.F.K.F.K.K.B.z.v.F.K.F.K.U.F.F.F.F.F.F.F.F.F.K.K.K.K.K.K.K.K.K.K.K.K.K.K.K.K.K.K.K.K.K.K.K.K.K.K.K.K.K.F.F.F.F.K.K.K.K.K.K.K.K.K.K.K.K.K.K.K.K.K.K.K.K.K.U.U.U.K.F.S.K.K.F.F.F.S.+.+.;.4.z.s.s.y.3.] +.e.z.B.K.K.K.K.U.K.U.U.K.K.K.K.U.U.U.U.U.U.U.U.U.U.U.U.U.U.U.U.U.U.U.U.U.U.U.U.U.U.K.F.F.K.U.U.U.U.U.U.U.U.K.U.U.K.U.K.B.B.F.K.U.U.K.U.K.K.K.K.F.S.S.F.F.F.F.F.S.S.F.K.K.U.U.U.K.U.K.K.U.K.U.U.U.U.U.K.K.K.K.K.K.K.K.K.U.U.K.K.K.K.K.K.K.K.U.U.K.K.U.U.R.U.U.U.U.U.K.U.U.U.K.K.K.K.U.U.K.K.K.K.K.K.K.K.U.U.U.U.U.U.U.U.K.K.K.K.U.K.K.K.K.K.U.U.U.U.U.K.K.U.K.K.U.U.U.U.K.K.K.K.K.K.U.U.K.K.U.U.K.U.U.U.U.U.U.U.U.K.K.K.K.K.K.K.U.U.U.K.K.K.K.U.U.K.[...k ",
"] / Q m G e.K.U.U.U.U.U.U.U.U.U.K.K.K.F.K.K.K.K.K.U.U.U.K.K.U.R.U.U.U.U.U.U.U.U.U.U.U.U.U.U.U.U.U.U.U.U.K.U.R.U.S.S.S.K.R.U.U.R.R.U.U.U.U.K.K.K.U.U.U.U.U.U.U.U.U.U.U.U.U.K.K.K.U.U.U.U.U.K.K.U.U.U.U.U.U.U.U.R.U.R.R.R.R.R.R.R.R.R.R.R.U.U.U.U.U.U.U.U.U.U.U.U.U.U.U.U.U.U.U.U.U.U.U.U.U.U.U.U.U.U.U.U.U.U.U.K.U.U.U.U.U.U.U.U.U.U.U.U.U.U.U.U.U.K.K.K.K.K.K.K.K.K.K.K.K.K.K.K.K.K.K.K.K.K.U.K.K.K.K.K.K.K.K.K.K.K.K.K.K.K.K.U.K.K.K.U.U.U.U.U.U.U.U.U.K.U.U.K.U.U.U.U.U.U.U.U.U.U.U.U.U.U.U.U.U.U.U.K.K.K.K.U.U.U.U.U.U.U.U.K.K.K.F.F.K.F.F.S.k.z.F.K.F.K.U.F.F.F.F.F.F.F.F.F.K.K.K.K.K.K.K.K.K.K.K.K.K.K.K.K.K.K.K.K.K.K.K.K.K.K.K.K.K.K.K.F.F.F.K.K.K.F.F.F.K.K.K.K.K.K.K.K.K.K.K.K.K.K.K.U.K.K.S.S.K.K.S.F.F.F.+...;.4.k.k.k.s.y.#.( ;.z.S.K.K.K.K.U.K.K.K.K.K.K.K.K.K.K.U.U.U.U.R.U.U.U.U.U.U.U.U.U.U.U.U.U.U.U.U.U.K.F.S.B.F.U.U.U.U.U.R.U.U.K.U.U.K.U.U.S.B.B.K.U.K.U.U.K.K.K.K.F.S.S.F.F.F.K.F.F.F.F.K.K.U.U.K.K.K.K.K.K.K.K.K.U.U.U.U.K.K.K.K.K.K.K.K.K.K.K.K.K.K.K.K.K.K.U.K.K.K.U.U.R.U.U.U.U.U.K.U.U.U.U.K.K.K.U.U.U.U.K.K.K.K.K.K.U.U.U.U.U.U.K.K.K.K.K.U.U.U.K.K.K.K.U.U.U.U.K.K.K.K.K.K.U.U.U.U.U.U.U.U.K.K.K.U.U.U.U.U.K.U.U.U.U.U.U.U.U.K.K.K.K.K.K.U.K.U.K.K.K.U.K.U.U.K.[...k ",
"( I I N I s.U.U.R.U.U.U.U.U.U.U.U.U.K.K.U.U.U.U.U.R.R.R.U.U.U.R.U.U.U.U.U.U.U.R.U.U.U.U.U.U.U.U.U.U.U.U.K.U.R.U.U.F.K.R.R.U.U.U.R.U.U.U.K.K.K.K.K.U.U.U.U.U.U.U.U.U.U.U.U.K.K.K.K.U.U.R.U.K.U.R.R.R.U.U.U.U.U.U.U.R.R.R.R.R.R.R.R.R.R.R.U.U.U.U.U.U.U.U.U.U.U.U.U.U.U.U.U.U.U.U.U.U.U.K.K.U.U.K.U.U.U.U.U.U.U.U.U.U.U.U.U.U.U.U.U.U.U.U.U.U.U.U.U.K.K.K.U.K.K.K.K.K.K.K.K.K.K.K.K.K.K.K.K.K.K.K.K.K.K.K.K.K.K.K.K.K.K.K.K.K.K.K.K.K.K.K.U.U.U.U.U.U.U.U.U.U.K.K.U.K.K.U.U.U.U.U.U.K.K.K.U.U.K.U.K.U.U.U.K.K.K.U.U.U.U.U.U.U.U.U.K.K.F.F.K.F.S.S.s.k.S.K.S.F.K.S.F.F.F.F.F.F.K.K.K.K.K.K.K.K.K.K.K.K.K.K.K.K.K.K.K.K.K.K.K.K.K.K.K.K.K.K.K.K.K.K.F.F.F.F.F.F.F.F.K.K.K.K.K.K.K.K.K.K.F.F.F.K.K.K.K.K.F.S.F.F.S.F.S.F.#.+.;.4.s.k.k.y.y.-./ -.z.S.U.K.K.K.K.U.U.K.K.K.K.K.K.K.K.K.U.U.U.R.U.U.U.U.U.U.U.U.U.U.U.U.U.U.U.U.U.K.F.B.v.F.U.U.U.U.U.R.R.R.K.U.U.K.U.U.S.B.v.U.U.F.R.K.K.K.K.K.K.F.F.F.F.F.K.F.F.F.F.K.K.K.U.K.K.K.K.K.K.K.K.K.U.K.K.U.K.K.K.K.K.K.K.K.K.K.K.K.K.K.K.K.K.K.K.K.K.K.U.R.R.R.U.U.U.U.K.U.U.U.K.K.K.K.U.U.U.U.U.U.K.K.K.K.U.U.U.U.U.U.K.K.K.K.K.U.U.U.K.K.K.K.K.U.U.K.K.K.K.K.K.K.U.U.U.U.U.U.U.U.K.K.K.K.K.U.U.U.K.U.U.U.U.U.U.U.U.K.K.K.K.K.K.U.U.U.K.K.K.U.K.U.U.K.[...k ",
"/ J I N Q z.R.K.U.U.U.U.U.U.U.U.U.R.U.U.R.R.U.R.U.U.U.U.U.K.U.R.U.U.U.U.U.U.U.U.U.U.U.U.U.U.K.K.U.K.K.U.K.K.K.U.K.U.U.U.U.U.U.K.U.U.K.K.K.K.K.K.K.K.K.K.K.K.U.U.U.U.U.U.U.U.U.U.U.U.U.U.U.U.U.U.U.R.U.U.U.U.U.U.U.R.R.R.R.R.R.R.R.R.R.U.U.U.U.U.U.U.U.U.U.U.U.U.U.U.U.U.U.U.U.U.U.U.U.U.U.U.U.U.U.U.U.U.U.U.U.U.U.U.U.U.U.U.U.U.U.U.U.U.U.U.U.U.U.U.U.U.K.K.K.K.K.K.K.K.K.K.K.K.K.K.K.F.K.K.K.K.K.K.K.K.K.K.K.K.K.K.K.K.K.K.U.U.U.U.K.U.U.U.U.K.U.U.U.U.U.U.K.K.U.U.U.U.U.U.U.U.U.U.U.U.U.U.U.U.U.U.U.U.U.U.U.U.U.U.U.U.U.U.U.U.U.K.F.K.K.F.K.K.z.k.K.K.S.K.F.F.K.F.F.F.K.K.K.K.K.K.K.K.K.K.K.K.K.K.K.K.K.K.K.K.K.K.K.K.K.K.K.K.K.K.K.K.U.K.K.K.F.F.F.F.F.F.F.F.K.K.F.K.K.K.K.K.K.K.K.K.K.K.U.U.U.K.F.S.F.F.F.S.S.U.+.+.;.4.s.s.k.s.4.#.] -.k.v.K.K.U.U.K.K.U.U.U.U.U.U.U.U.U.U.K.U.U.U.U.U.U.U.U.U.U.U.U.U.U.U.U.U.U.U.U.U.K.K.F.K.U.U.R.U.U.U.U.U.U.U.U.U.U.R.K.S.z.K.U.F.R.K.K.K.K.K.K.K.K.K.K.K.F.F.F.F.F.K.K.K.K.K.K.K.K.F.K.K.K.K.K.K.K.K.U.U.K.K.K.K.K.K.K.K.K.K.K.K.K.K.K.K.K.F.K.K.K.U.U.R.R.U.U.U.K.K.U.U.U.U.K.K.K.K.U.K.K.K.K.K.K.K.K.U.U.U.K.K.K.K.U.K.K.K.K.K.U.U.K.K.K.K.K.K.K.K.K.K.K.U.U.U.U.U.U.U.U.K.K.K.K.K.K.K.K.U.U.U.U.U.U.U.U.U.K.K.K.K.K.K.K.K.K.K.K.K.U.K.U.R.U.K. X..k ",
"I G Q G / v.(.U.R.R.R.R.R.U.U.U.U.R.U.U.U.U.U.R.U.U.U.K.K.K.K.U.U.U.U.U.U.U.U.U.U.U.K.K.K.K.U.U.U.F.F.F.K.F.K.U.U.U.U.U.U.U.U.U.U.U.U.K.K.K.K.K.K.K.K.K.K.U.U.U.U.U.U.U.U.U.U.U.U.U.K.K.K.K.K.K.U.R.U.U.U.U.U.U.U.R.R.R.R.R.R.U.U.R.R.R.U.U.U.U.U.U.U.U.U.U.U.U.U.U.U.U.U.U.U.U.U.U.U.U.U.U.U.U.U.U.U.U.U.U.U.U.U.U.U.U.U.U.U.U.U.U.U.U.U.U.U.U.U.U.U.U.K.K.K.K.K.K.K.K.K.K.K.K.K.K.K.K.K.K.K.K.K.K.K.K.K.K.K.K.K.K.K.K.K.K.K.U.U.U.U.U.U.U.U.K.U.U.U.U.U.U.U.U.U.U.U.U.U.U.U.U.K.U.U.U.U.U.U.U.U.U.U.U.U.U.U.U.U.U.U.U.U.U.U.U.K.K.F.K.K.K.U.K.z.k.K.K.S.K.K.K.U.K.F.K.K.K.K.K.K.K.K.K.K.K.K.K.K.K.K.K.K.K.K.K.K.K.K.K.K.K.K.K.K.K.K.K.K.K.K.K.K.F.F.F.F.F.F.F.K.K.K.K.K.K.K.K.K.K.K.K.K.K.U.U.U.U.K.F.S.S.S.S.S.K.#.-.;.4.z.s.k.s.8.-.+.;.z.B.K.K.K.U.K.U.U.U.U.U.U.U.U.U.U.U.U.U.U.U.U.U.U.U.U.U.U.U.U.U.U.U.U.U.U.U.U.U.R.U.U.U.U.U.U.U.U.U.U.U.U.U.U.U.U.U.K.B.z.R.R.S.U.R.K.K.U.U.K.K.F.F.K.K.F.F.F.F.K.K.K.K.K.K.K.K.K.F.F.F.K.K.K.K.K.K.U.K.K.K.K.K.K.K.K.K.K.K.K.K.K.K.K.K.K.K.K.K.K.U.U.U.U.U.U.U.K.K.K.U.U.U.K.K.K.K.U.U.K.K.K.K.K.K.K.U.U.U.K.K.K.K.U.U.K.K.K.K.U.U.U.U.K.K.K.K.K.K.K.K.K.U.U.U.U.U.U.U.U.K.K.K.K.K.K.K.K.K.U.U.U.U.U.U.U.U.U.U.U.K.U.U.K.K.K.K.K.K.U.U.U.R.U.K. X..k ",
"I J / J / z.(.U.R.R.R.R.U.U.U.U.U.U.U.U.U.U.K.R.R.U.K.F.F.K.U.U.U.R.U.U.U.U.U.U.U.U.F.F.K.K.U.U.K.F.S.F.K.K.K.U.U.U.U.U.U.U.U.U.U.U.U.U.K.K.K.K.K.K.K.K.K.U.U.U.U.U.U.U.U.U.U.U.U.U.K.F.F.K.K.K.U.R.R.R.U.U.U.U.U.R.R.R.R.R.R.U.U.U.R.R.U.U.U.U.U.U.U.U.U.U.U.U.U.U.U.U.U.U.U.U.U.U.U.U.U.U.U.U.U.U.U.U.U.U.U.U.U.U.U.U.U.U.U.U.U.U.U.U.U.U.U.U.U.U.U.U.U.K.K.K.K.K.K.K.K.K.K.K.K.K.K.K.K.K.K.K.K.K.K.K.K.K.K.K.K.K.K.K.K.K.K.U.U.U.U.U.U.U.U.U.U.U.U.U.U.U.U.U.U.U.U.U.U.U.U.U.U.U.U.U.U.U.U.U.U.U.U.K.U.U.U.U.U.U.U.U.U.U.U.U.K.K.F.F.F.F.K.F.v.z.K.K.F.K.F.F.U.K.F.K.K.K.K.K.K.K.K.K.K.K.K.K.K.K.F.F.K.K.K.K.K.K.K.K.U.U.K.K.K.K.K.K.K.U.U.U.K.K.K.K.K.F.F.F.K.K.U.K.K.K.K.K.K.K.K.K.K.K.K.K.U.U.U.K.F.S.F.F.F.S.-.-.-.8.v.y.k.s.8.;.#.4.z.v.K.K.K.K.U.U.U.U.U.U.U.U.U.U.U.U.U.U.U.U.U.U.U.U.U.U.U.U.U.U.U.U.U.U.U.U.U.R.R.R.R.U.U.U.U.U.U.U.U.U.U.U.U.U.U.U.K.v.z.U.R.S.U.R.K.K.U.U.K.K.K.F.K.K.F.F.F.K.K.K.K.K.K.K.K.K.K.F.S.F.F.K.K.K.K.K.K.K.K.K.K.K.K.K.K.K.K.K.K.K.K.K.K.K.K.K.K.K.K.U.U.U.U.U.U.U.K.K.K.K.U.K.K.K.K.U.K.K.K.K.K.K.K.K.U.U.U.U.K.K.K.K.U.U.K.K.K.K.K.U.K.K.K.K.K.K.K.K.K.K.K.U.U.U.U.U.U.U.U.U.K.K.K.K.K.K.K.K.K.U.U.U.U.U.U.U.U.U.U.U.U.U.U.U.U.U.U.U.U.U.U.R.U.K. X..k ",
"Q J Q J I s.U.F.U.K.K.K.K.U.U.R.U.U.K.U.R.U.K.U.R.U.K.F.F.K.K.U.K.K.K.K.K.K.K.K.K.K.K.K.F.F.F.F.S.S.F.K.U.U.U.U.U.U.U.U.U.U.U.U.U.U.U.U.U.K.K.K.K.K.K.K.K.U.U.R.U.U.U.U.U.U.U.U.U.K.K.F.F.K.K.K.U.U.U.U.U.U.U.U.U.R.R.R.R.R.R.U.U.U.R.R.R.U.U.U.U.U.U.U.U.U.U.U.U.U.U.U.U.U.U.U.U.U.U.U.U.U.U.U.U.U.U.U.U.U.U.U.U.U.U.U.U.U.U.U.U.U.U.U.U.U.U.U.U.U.U.U.K.K.K.K.K.K.K.K.K.K.K.K.K.K.K.K.K.K.K.K.K.K.K.K.K.K.K.K.K.K.K.K.K.K.K.U.U.U.U.U.U.U.U.U.U.U.U.U.U.U.U.U.U.U.U.U.U.U.U.U.U.U.U.U.U.U.U.K.U.U.U.U.U.K.U.U.U.U.U.U.U.U.U.U.U.U.K.K.F.F.K.S.B.v.F.F.F.K.F.S.U.K.F.F.K.K.K.K.K.K.K.K.K.K.K.K.K.K.F.K.K.K.K.K.U.K.K.K.U.U.U.K.K.K.K.K.K.U.U.U.U.K.K.K.K.F.F.F.K.K.U.U.K.K.K.K.K.K.K.K.K.K.K.K.K.U.U.K.F.F.K.U.F.S.-.-.-.e.z.e.k.s.e.3.-.4.z.v.K.K.K.K.U.U.U.U.U.U.R.U.U.U.U.U.U.U.U.U.U.U.U.U.U.U.U.U.U.U.U.U.U.U.U.U.U.U.U.U.U.U.U.U.U.U.U.U.U.U.U.U.U.U.U.U.K.B.z.S.U.U.U.K.K.K.K.U.K.K.F.F.K.K.F.F.K.K.K.K.K.K.K.K.K.K.K.F.S.S.F.K.K.K.K.K.K.K.K.K.K.K.K.K.K.K.K.K.K.K.K.K.K.K.K.K.K.K.K.U.U.U.U.U.U.U.K.K.K.K.K.K.K.K.U.U.U.U.K.K.K.K.K.U.U.U.U.U.K.K.K.K.U.U.K.K.K.K.K.U.K.K.K.K.K.U.U.U.U.U.U.U.U.U.U.U.U.U.U.U.U.U.U.K.K.K.K.K.K.U.U.U.U.U.U.U.U.U.U.U.U.U.U.U.U.U.U.U.U.U.U.R.U.K. X..k ",
"I J I J I 8.B.z.S.S.S.S.F.K.U.U.R.U.F.K.U.U.K.K.U.U.F.F.S.F.F.F.F.F.F.F.F.F.F.F.F.K.K.S.B.B.S.F.F.F.K.U.U.U.U.U.U.U.U.U.U.U.U.U.U.U.U.U.U.U.U.K.K.K.K.K.K.U.U.U.U.U.U.U.U.U.K.K.K.K.K.K.K.K.K.K.U.U.U.U.U.U.U.U.U.R.R.R.R.R.U.U.U.U.R.R.R.U.U.U.U.U.U.U.U.U.U.U.U.U.U.U.U.U.U.U.U.U.U.U.U.U.U.U.U.U.U.U.U.U.U.U.U.U.U.U.U.U.U.U.U.U.U.U.U.U.U.U.U.U.U.U.K.K.K.K.K.K.K.K.K.K.K.K.K.K.K.K.K.K.K.K.K.K.K.K.K.K.U.U.U.U.K.K.K.K.U.U.R.U.U.U.U.U.U.U.U.U.U.U.U.U.U.U.U.U.U.U.U.U.U.U.U.U.U.U.U.U.U.U.U.U.U.U.U.U.U.U.U.U.U.U.U.U.K.U.U.U.U.K.K.U.R.K.S.S.F.F.F.K.F.F.K.F.F.K.K.K.K.K.K.K.K.K.K.K.K.K.K.K.K.K.K.K.U.U.U.K.K.K.U.U.U.K.K.K.K.K.K.U.U.U.U.K.K.K.K.F.F.F.F.K.U.U.K.K.K.K.K.K.K.K.K.K.K.K.K.U.U.K.K.K.U.U.K.S.;.#.3.e.k.y.z.s.y.3.-.8.z.B.K.K.K.K.U.U.U.U.U.U.U.U.U.U.U.U.U.U.U.K.U.U.U.U.U.U.U.U.U.U.U.U.U.U.U.U.U.U.U.U.U.U.U.U.U.U.U.U.U.U.U.U.U.U.U.U.U.B.v.S.R.!.K.F.U.K.K.K.K.K.F.K.K.K.F.F.K.K.K.U.K.K.K.K.K.K.K.F.S.F.F.K.K.K.K.K.K.K.K.K.K.K.K.K.K.K.K.K.K.K.K.K.K.K.U.U.K.K.K.K.U.U.U.U.K.K.K.K.K.K.K.K.K.U.U.U.U.U.U.K.K.K.K.U.U.U.U.U.U.K.U.U.K.K.K.K.K.K.K.K.K.K.K.U.U.U.U.U.U.U.U.U.U.U.U.U.U.U.U.U.U.U.U.U.U.K.K.K.K.U.U.U.U.U.U.U.U.U.U.U.U.U.U.U.U.U.U.U.U.U.U.U.U.K. X..k ",
"I I Q I Q ;.y.8.z.v.B.B.S.S.S.F.F.S.B.B.F.K.K.K.K.F.F.S.B.S.S.S.S.S.F.F.F.S.S.S.F.F.S.v.z.v.S.K.U.U.U.U.U.U.U.R.U.U.U.U.U.U.U.U.U.U.U.U.U.U.U.K.K.K.K.K.K.U.U.U.U.U.U.U.U.K.K.K.K.K.F.K.U.U.U.U.U.U.U.U.U.U.U.U.U.R.R.R.R.R.U.U.U.U.R.R.R.U.U.U.U.U.U.U.U.U.U.U.U.U.U.U.U.U.U.U.U.U.U.U.U.U.U.U.U.U.U.U.U.U.U.U.U.U.U.U.U.U.U.U.U.U.U.U.U.U.U.U.U.U.U.K.K.K.K.K.K.K.K.K.K.K.K.K.K.K.K.K.K.K.K.K.K.K.K.K.K.U.U.U.U.U.U.K.K.U.U.U.R.U.U.U.U.U.U.U.U.U.U.U.U.U.U.U.U.U.U.U.U.U.U.U.U.U.U.U.U.U.U.U.U.U.U.U.U.U.U.U.U.U.U.U.U.U.U.U.K.U.U.U.K.U.R.U.F.F.F.F.K.U.K.K.F.F.K.K.U.U.U.U.U.U.K.K.K.K.K.K.K.K.K.K.K.U.U.U.U.U.K.K.U.U.U.U.K.K.K.K.K.U.U.U.U.K.K.K.K.F.F.F.K.K.K.K.K.K.K.K.K.K.K.K.K.K.K.K.K.U.U.K.K.K.K.K.K.S.4.-.3.8.s.s.z.s.s.4.-.8.z.B.K.K.K.K.U.U.U.U.U.U.U.U.U.U.U.U.U.U.K.K.U.U.U.U.U.U.U.U.K.K.K.U.U.U.U.U.U.U.U.U.U.U.U.U.U.U.U.U.U.U.R.U.R.R.U.U.K.B.B.F.R.R.F.U.R.U.K.K.K.F.F.K.K.F.F.F.K.K.K.U.K.K.U.K.K.K.K.F.S.F.K.K.K.K.K.K.K.U.K.K.K.K.K.K.K.K.K.K.K.K.K.K.K.K.U.U.U.K.K.K.U.U.U.K.K.K.K.K.K.K.K.K.K.U.U.U.U.U.U.K.K.K.K.U.U.U.U.U.U.K.K.U.K.K.K.K.U.K.K.K.U.U.U.U.U.U.U.U.U.U.U.U.U.U.U.U.U.U.U.U.U.U.U.U.U.U.K.K.K.K.U.U.U.U.U.U.U.U.U.U.U.U.U.U.U.U.U.U.U.U.U.U.U.K. X..k ",
"I I I I / #.e.e.v.B.B.S.B.B.B.B.B.S.B.v.B.S.S.S.B.S.S.B.B.S.S.F.F.K.K.K.K.F.F.S.F.F.S.v.v.S.K.R.U.U.U.U.K.U.U.U.U.U.U.U.U.U.U.U.U.U.U.U.K.K.K.K.K.K.K.K.K.K.U.U.U.U.U.U.U.K.K.K.K.F.F.K.U.U.U.U.U.U.U.U.U.U.U.U.U.R.R.R.U.U.U.U.U.U.R.R.R.U.U.U.U.U.U.U.U.U.U.U.U.U.U.U.U.U.U.U.U.U.U.U.U.U.U.U.U.U.U.U.U.U.U.U.U.U.U.U.U.U.U.U.U.U.U.U.U.U.U.U.U.U.U.K.K.K.K.K.K.K.K.K.K.K.K.K.K.K.K.K.K.K.K.K.K.K.K.K.U.U.U.U.U.U.U.K.K.U.U.R.R.U.U.U.U.U.U.U.U.U.U.U.U.U.U.U.U.U.U.U.U.U.U.U.U.U.U.U.U.U.U.U.U.U.U.U.U.K.U.U.U.K.U.U.U.U.U.U.U.U.U.U.K.K.U.K.F.K.F.F.K.U.U.K.F.F.K.U.R.U.U.R.R.U.K.K.K.K.K.K.K.K.K.K.K.U.U.U.U.U.U.K.K.U.U.U.U.U.K.K.U.U.U.U.K.K.K.K.K.K.K.K.K.K.K.K.K.K.K.K.K.K.K.K.K.K.K.K.K.U.U.U.K.K.K.K.S.v.e.4.3.3.s.z.k.s.k.8.;.8.k.S.K.K.K.K.U.U.U.U.U.U.U.U.U.U.U.U.U.U.U.U.U.U.U.U.U.U.U.U.K.K.K.U.U.U.U.U.U.U.R.R.U.U.U.U.U.U.U.U.U.R.U.U.U.R.U.U.K.S.F.B.F.K.S.R.U.K.K.K.K.F.F.K.K.F.F.F.F.K.K.U.K.U.U.K.K.K.K.F.S.F.K.K.K.K.K.K.U.U.K.K.K.K.K.K.K.K.K.K.K.K.K.K.K.K.U.U.U.K.K.K.K.K.K.K.K.K.K.K.K.K.K.K.U.U.U.U.U.U.U.K.K.K.U.U.U.U.U.U.K.K.K.K.K.K.U.U.U.U.K.K.U.U.U.U.U.U.U.U.U.U.U.U.U.U.U.U.U.U.U.U.U.U.U.U.U.U.K.K.K.K.U.U.U.U.U.U.U.U.U.U.U.U.U.U.U.U.U.U.U.U.U.U.U.U. X..k ",
"I I J J / #.y.v.F.K.K.F.F.S.S.S.B.F.F.S.S.B.v.z.z.v.B.B.B.S.K.K.U.U.U.U.U.K.F.F.F.F.F.S.F.U.R.R.U.K.K.K.U.U.U.U.U.U.U.U.U.U.U.U.U.U.U.U.K.K.K.K.K.K.K.K.K.U.U.K.U.U.U.U.U.K.K.K.K.F.F.F.K.U.U.U.U.U.U.U.U.U.U.U.U.R.R.U.U.U.U.U.U.U.R.R.U.U.U.U.U.U.U.U.U.U.U.U.U.U.U.U.U.U.U.U.U.U.U.U.U.U.U.U.U.U.U.U.U.U.U.U.U.U.U.U.U.U.U.U.U.U.U.U.U.U.U.U.U.U.U.U.K.K.K.K.K.K.K.K.K.K.K.K.K.K.K.K.K.K.U.U.U.U.U.U.U.U.U.U.U.U.K.K.K.U.U.R.R.U.U.U.U.U.U.U.U.U.U.U.U.U.U.U.U.U.U.U.U.U.U.U.U.U.U.U.U.U.U.U.U.K.U.U.U.U.U.U.U.U.U.U.U.U.U.U.U.U.K.U.K.K.R.U.F.K.F.F.K.K.K.K.S.F.K.R.R.U.U.R.R.U.K.K.U.K.K.K.K.K.K.K.K.K.U.U.U.U.U.U.K.K.U.U.U.U.U.U.U.U.U.U.K.F.F.K.K.K.K.U.U.U.K.K.K.K.K.K.K.K.K.K.U.U.U.U.U.R.R.U.K.K.K.K.B.k.s.8.-.;.s.z.s.s.z.y.3.8.k.S.K.K.K.K.U.U.U.U.R.U.U.U.U.U.U.U.U.U.U.U.U.U.U.U.U.U.U.U.U.K.U.U.U.U.U.U.U.U.U.R.U.U.U.U.U.U.U.U.U.R.U.U.U.R.U.U.U.K.F.s.z.U.F.R.K.F.F.K.K.F.F.F.K.F.F.F.F.K.K.U.K.K.K.K.K.K.K.F.S.F.K.K.K.K.K.K.U.U.K.K.K.U.K.K.K.K.K.K.K.K.K.K.K.U.U.K.K.K.K.K.K.K.K.K.K.K.K.U.K.K.K.K.U.U.U.U.U.U.U.U.K.K.U.U.U.U.U.U.K.K.K.K.K.U.U.U.U.U.K.K.U.U.U.U.U.U.U.U.U.U.U.U.U.U.U.U.U.U.U.U.U.U.U.K.U.U.K.K.K.K.U.U.U.U.U.U.U.U.U.U.U.U.U.U.U.U.U.U.U.U.U.U.U.U. X..k ",
"Q I J J / 4.F.U.K.K.K.K.K.K.F.F.K.K.F.F.F.S.B.v.S.S.S.S.S.K.U.R.U.U.R.R.U.U.K.K.F.K.K.U.K.K.K.U.U.U.U.K.K.K.K.U.U.U.U.U.U.U.U.U.U.U.U.U.K.K.K.K.K.U.U.K.K.U.U.U.U.U.U.U.U.U.K.K.F.F.F.F.K.K.U.U.U.U.U.U.U.U.U.R.R.R.R.R.U.U.U.U.U.U.R.R.R.U.U.K.U.U.U.U.U.U.U.U.U.U.U.U.U.U.U.U.U.U.U.U.U.U.U.U.U.U.U.U.U.U.U.U.U.U.U.U.U.U.U.U.U.U.U.U.U.U.U.U.U.U.U.U.U.U.U.K.K.K.K.K.K.K.K.K.K.K.K.K.U.U.U.U.U.U.U.U.U.U.U.U.U.U.K.K.K.K.U.U.U.U.U.U.U.U.U.U.U.U.U.U.U.U.U.U.U.U.U.U.U.U.U.U.U.U.U.U.K.K.U.U.U.U.U.U.U.U.U.U.U.U.U.U.U.U.U.U.U.U.U.U.U.U.K.K.F.S.B.K.K.F.K.K.S.S.K.U.U.U.U.U.U.U.U.U.K.K.K.K.K.K.F.K.K.K.K.U.U.U.U.K.K.U.U.U.U.U.U.U.K.U.U.K.K.K.K.U.U.U.U.U.U.U.U.K.K.K.K.K.K.K.K.K.U.U.U.U.U.U.U.R.U.U.U.K.S.y.y.8.3.-.8.k.s.s.z.s.;.4.v.S.K.U.K.K.U.K.U.U.U.U.U.U.U.U.U.U.U.U.U.U.U.U.U.U.U.U.U.U.U.U.U.U.U.U.U.U.U.U.U.U.U.U.U.U.U.U.U.U.U.U.U.U.U.U.U.U.K.U.K.8.v.R.F.U.K.F.F.K.K.F.F.F.F.F.F.F.F.K.K.K.K.K.K.K.K.K.F.F.S.F.K.F.K.K.K.K.U.U.K.K.K.K.K.K.K.K.K.K.K.K.K.K.K.K.K.U.U.K.K.K.K.K.K.K.K.K.K.K.U.U.U.U.U.U.U.U.U.U.U.U.U.U.U.U.U.U.U.U.K.K.K.K.K.K.K.K.K.K.K.K.K.K.U.U.U.U.U.U.U.U.U.U.U.U.U.U.U.U.U.K.U.U.K.K.U.K.K.K.K.K.U.U.U.U.U.U.U.U.U.U.U.U.U.U.U.U.U.U.U.U.U.U.U.U. X] k ",
"Q Q Q I ] s.!.!.K.K.K.K.K.K.K.K.K.K.K.K.K.K.F.F.K.K.K.K.K.K.U.U.U.U.R.R.U.U.K.K.K.U.U.K.F.F.F.F.U.U.U.K.K.K.K.U.U.U.U.U.U.U.U.U.U.U.U.U.U.K.K.K.K.U.U.K.K.U.U.U.U.U.U.U.U.U.K.K.K.K.F.F.K.U.U.U.U.U.U.U.U.U.R.R.R.R.R.U.U.U.U.U.U.U.U.R.R.R.U.U.U.U.U.U.U.U.U.U.U.U.U.U.U.U.U.U.U.U.U.U.U.U.U.U.U.U.U.U.U.U.U.U.U.U.U.U.U.U.U.U.U.U.U.U.U.U.U.U.U.U.U.U.U.U.U.U.K.K.K.K.K.K.K.K.K.K.K.K.U.U.U.U.U.U.U.U.U.U.U.U.U.U.K.K.K.K.U.U.U.U.U.U.U.U.U.U.U.U.U.U.U.U.K.K.K.K.U.U.U.U.U.U.U.U.U.K.K.K.K.U.U.U.U.U.U.U.U.U.U.K.U.U.U.U.U.U.U.U.U.U.U.U.K.K.F.v.k.S.K.S.F.U.F.F.K.U.U.U.R.U.U.U.U.K.K.K.K.K.K.K.K.K.K.K.K.K.K.U.U.K.K.U.U.U.U.U.U.U.U.U.U.U.K.U.U.U.U.U.U.U.U.U.U.K.K.K.K.K.K.K.K.U.U.U.U.U.U.K.U.U.U.U.K.F.B.e.y.8.3.;.8.s.k.k.z.y.3.4.k.B.F.U.K.K.U.K.U.U.U.U.U.U.U.U.U.U.U.U.U.U.U.U.U.U.U.U.U.U.U.U.U.U.U.U.U.U.U.U.U.U.U.U.U.U.U.U.U.U.U.U.U.U.U.U.U.U.K.U.F.8.B.!.S.K.K.K.K.K.K.F.F.F.K.K.F.F.F.K.K.K.K.K.K.K.K.K.F.F.S.F.K.K.K.K.K.K.U.U.K.K.K.K.K.K.K.K.K.K.K.K.K.K.K.K.K.U.U.U.K.K.K.K.K.K.K.K.K.U.K.K.K.K.U.U.K.K.U.U.U.U.U.U.U.U.U.U.U.U.K.K.K.K.K.K.U.K.K.K.K.K.U.U.U.U.U.U.U.U.U.U.U.U.U.U.U.U.U.U.U.K.U.U.K.K.U.K.K.K.K.K.U.U.U.U.U.U.U.U.U.U.U.U.U.U.U.U.U.U.U.U.U.U.U.U. X] k ",
"G I Q J / k.!.U.F.F.F.F.K.K.K.K.K.K.K.K.K.U.K.K.K.U.U.U.U.K.K.K.K.U.U.R.U.U.K.K.U.U.K.K.F.F.F.K.U.U.U.K.K.K.K.U.U.U.U.U.U.U.U.U.U.U.U.U.U.K.K.K.K.U.U.U.U.U.U.U.U.U.U.U.U.U.U.U.U.K.K.K.K.U.U.K.U.U.U.U.U.U.R.R.U.U.U.U.U.U.U.U.U.U.U.R.R.R.U.U.U.U.U.U.U.U.U.U.U.U.U.U.U.U.U.U.U.U.U.U.U.U.U.U.U.U.U.U.U.K.U.U.U.U.U.U.U.U.U.U.U.U.U.U.U.U.U.U.U.U.U.U.U.U.U.U.U.U.U.U.U.U.U.U.K.K.K.U.U.U.U.U.U.U.U.U.U.U.U.U.U.U.U.K.K.K.U.U.U.U.U.U.U.U.R.U.U.U.U.U.U.U.K.F.F.K.U.U.U.U.U.U.U.U.U.U.U.U.U.U.U.U.U.U.U.U.U.K.U.U.U.U.U.U.U.U.U.U.U.U.U.U.K.K.K.v.y.v.K.F.F.U.F.F.K.U.U.U.R.R.U.U.K.K.K.K.K.K.K.K.K.K.K.K.K.K.K.U.U.U.U.U.U.U.U.U.U.U.U.U.U.U.U.U.U.U.U.U.U.U.U.U.U.U.K.K.K.K.U.U.U.U.U.U.U.U.U.K.K.U.U.U.K.F.v.e.y.4.3.4.e.z.v.z.k.y.8.4.y.z.F.U.K.K.U.K.U.U.U.U.U.U.U.U.U.U.U.U.U.U.U.U.U.U.U.U.U.U.U.U.U.U.U.U.U.U.U.U.U.U.U.U.U.U.U.U.U.U.U.U.U.U.U.U.U.U.K.U.F.e.S.!.S.K.U.K.K.K.K.F.F.F.K.K.F.F.F.K.K.U.U.K.K.K.K.K.F.F.S.K.K.K.K.K.K.K.K.K.K.K.K.K.K.K.K.K.K.K.K.K.K.K.K.K.K.U.U.U.U.U.U.U.U.U.U.U.U.U.K.K.K.K.K.K.K.K.U.U.U.U.U.U.U.U.U.U.U.U.U.K.K.K.U.U.U.U.K.K.U.U.U.U.U.U.U.U.U.U.U.U.U.U.U.U.U.U.U.U.K.K.U.U.K.K.K.K.K.K.K.K.U.U.U.U.U.U.U.U.U.U.U.U.U.U.U.U.U.U.U.U.U.U.U.U. X] k ",
"J Q / J / k.R.F.F.F.F.F.K.K.K.K.K.K.F.F.K.K.K.K.K.K.U.U.K.K.K.K.K.U.U.U.U.U.K.K.K.K.K.K.K.K.U.U.U.U.U.U.K.K.U.U.U.U.U.U.U.U.U.U.U.U.U.U.U.K.K.K.K.U.U.U.U.U.U.U.U.U.U.U.U.U.U.U.U.U.U.U.U.U.U.U.U.U.U.U.U.U.U.U.U.U.U.U.U.U.U.U.U.U.U.R.R.R.U.U.U.U.U.U.U.U.U.U.U.U.U.U.U.U.U.U.U.U.U.U.U.U.U.U.U.U.U.U.U.U.U.U.U.U.U.U.U.U.U.U.U.U.U.U.K.U.U.U.U.U.U.U.U.U.U.U.U.U.U.U.U.U.U.U.U.U.U.U.U.U.U.U.U.U.U.U.U.U.U.U.K.U.U.U.U.U.U.U.U.U.U.U.U.R.R.U.U.U.K.K.U.K.K.F.F.K.U.U.U.K.U.U.U.U.U.U.U.U.U.U.K.U.U.U.U.U.U.U.U.U.U.U.K.U.U.U.U.U.U.U.U.U.K.K.U.B.s.B.U.K.F.U.F.S.F.K.K.U.R.R.U.U.K.K.K.K.K.K.K.K.K.U.U.K.K.K.K.U.U.U.U.U.U.U.U.U.U.U.U.U.U.U.U.U.U.U.U.U.U.U.U.U.U.U.U.U.U.U.U.U.U.U.U.U.U.U.U.K.U.U.R.R.U.F.v.8.y.4.8.e.s.S.B.B.k.y.8.4.8.k.S.K.K.K.U.K.U.U.U.U.U.U.U.U.U.U.U.U.U.U.U.U.U.U.K.U.U.U.U.U.U.U.U.U.U.U.U.U.U.U.U.U.U.U.U.U.U.U.U.U.U.U.U.U.U.U.K.U.F.y.S.!.F.U.U.K.K.K.K.F.F.F.K.K.F.F.F.K.K.U.U.U.K.K.K.K.F.F.F.K.K.K.K.K.K.U.K.K.K.K.U.U.K.K.K.K.K.K.K.K.K.K.K.K.K.U.U.U.U.U.U.U.U.U.U.U.U.U.K.K.K.K.K.K.K.K.U.U.U.U.U.U.U.U.U.U.U.U.U.K.K.U.U.U.U.U.U.K.U.U.U.U.U.U.U.U.U.U.U.U.U.U.U.U.U.U.U.U.K.K.K.U.K.K.K.K.K.K.K.K.U.U.U.U.U.U.U.U.U.U.U.U.U.U.U.U.U.U.U.U.U.U.U.U. X] k ",
"I I / I ] z.U.K.K.K.F.F.K.K.K.K.K.K.F.F.F.K.K.K.K.K.K.K.K.K.K.K.K.U.U.U.U.U.K.K.U.U.U.U.U.U.U.U.U.U.U.U.U.U.U.U.U.U.U.U.U.U.U.U.U.U.U.U.K.K.K.K.K.U.U.U.U.U.U.U.U.U.U.U.U.U.U.U.U.U.U.U.U.U.U.U.U.U.U.U.U.U.U.U.U.U.U.U.U.U.U.U.U.U.U.R.R.U.U.U.K.K.K.K.U.K.U.K.K.K.K.K.U.U.U.U.U.U.U.U.U.U.U.U.U.U.U.U.U.U.U.U.U.U.U.K.U.U.U.U.U.U.U.K.K.K.U.U.U.U.U.K.U.U.U.U.U.U.U.U.U.U.K.U.U.U.U.U.U.U.K.K.U.U.U.U.U.U.U.U.K.U.U.U.U.U.U.U.U.U.U.U.U.R.R.U.U.K.K.K.K.K.F.F.F.K.U.U.U.K.U.U.U.U.U.U.U.U.U.U.U.U.U.U.K.U.U.U.U.U.U.U.U.U.U.U.U.U.U.U.U.U.K.K.K.F.z.B.U.K.K.R.F.S.S.F.F.K.U.R.U.U.K.K.K.K.K.K.K.K.K.U.U.K.K.K.K.K.U.U.U.U.U.U.U.U.U.U.U.U.U.U.U.U.U.U.U.U.U.U.U.U.U.U.U.U.U.U.U.U.U.U.U.U.U.U.U.U.U.U.R.R.U.F.B.e.e.8.e.e.s.F.v.v.k.y.e.4.4.s.B.K.K.K.K.K.U.U.U.U.U.U.U.U.U.U.U.U.U.U.U.U.U.U.K.U.R.U.U.U.U.U.U.U.U.U.U.U.U.U.U.U.U.U.U.U.U.U.U.U.U.U.U.U.U.U.K.U.K.k.S.R.K.R.K.K.K.K.K.F.F.F.F.F.F.K.F.K.K.K.K.K.K.U.K.K.F.F.F.K.K.K.K.K.K.U.K.K.U.U.U.U.U.U.K.K.K.K.K.K.U.U.K.K.U.U.U.U.U.U.U.U.U.U.U.U.U.U.U.U.U.U.U.U.U.U.U.U.U.U.U.U.U.U.U.U.U.U.U.U.U.U.U.U.U.U.U.U.U.U.U.U.U.U.U.U.U.U.U.U.U.U.U.U.U.U.U.U.K.U.U.U.K.K.K.U.K.K.K.K.U.U.U.U.U.U.U.U.U.U.U.U.U.U.U.U.U.U.U.U.U.U.U.U. X] k ",
"Q J Q I ] k.K.F.K.K.F.F.K.K.K.K.K.F.F.F.F.K.K.K.K.K.K.K.K.K.K.U.K.U.U.U.U.U.K.K.K.K.U.U.U.U.U.K.U.U.U.U.U.U.U.U.U.U.U.U.U.U.U.U.U.U.U.U.K.K.K.K.K.U.U.U.U.U.U.U.U.U.U.U.U.U.U.U.U.U.U.U.U.U.U.U.U.U.U.U.U.U.U.U.U.U.U.U.U.U.U.U.U.U.U.R.R.U.U.K.K.K.K.K.K.K.K.K.K.K.K.K.K.U.U.U.U.U.U.U.U.U.U.U.U.U.U.U.U.U.U.U.U.U.U.U.U.U.U.U.U.U.U.U.K.U.U.U.U.U.U.U.U.U.U.U.U.U.U.U.U.U.U.U.U.U.U.U.U.U.U.U.U.U.K.U.U.U.U.U.K.U.U.U.U.U.U.U.U.U.U.U.U.R.R.U.U.U.K.K.K.K.K.K.F.K.U.U.U.U.U.U.U.K.K.K.K.K.K.K.U.U.U.U.U.U.U.U.K.U.U.U.U.U.U.U.U.U.U.U.U.K.K.K.K.K.B.B.F.K.R.!.F.S.S.F.F.F.U.U.U.U.K.K.K.K.K.K.K.K.K.K.K.K.F.K.K.K.U.U.U.U.U.U.U.U.U.U.U.U.U.U.U.U.U.U.U.U.U.U.U.U.U.U.U.U.U.U.U.U.U.U.U.U.U.U.U.U.U.R.R.!.R.K.S.s.e.e.s.8.y.v.z.z.s.y.e.4.8.s.v.K.K.K.U.K.U.U.U.U.U.U.U.U.U.U.U.U.U.U.U.U.U.K.K.U.U.U.U.U.U.U.U.U.U.U.U.U.U.U.U.U.U.U.U.U.U.U.U.U.U.U.U.U.U.U.U.U.U.v.S.K.K.R.K.K.K.K.K.K.F.F.F.F.F.K.F.K.K.K.K.K.K.K.K.K.F.F.F.K.K.K.K.K.K.U.K.K.U.U.U.U.U.U.U.U.U.U.U.U.U.U.U.U.U.U.U.U.U.U.U.U.U.U.U.U.U.U.U.U.U.U.U.U.U.U.U.U.U.U.U.U.U.U.U.U.U.U.U.U.U.U.U.U.U.U.U.K.U.U.U.U.U.U.U.U.U.U.U.U.U.U.U.U.U.U.U.U.K.K.U.U.K.K.U.U.K.K.K.K.U.U.U.U.U.U.U.U.U.U.U.U.U.U.U.U.U.U.U.U.U.U.U.U. X] k ",
"/ I / Q +.z.F.S.K.F.F.F.F.F.F.F.F.F.F.F.F.K.K.K.K.K.K.K.K.K.U.U.U.U.R.R.U.U.K.K.K.K.K.K.U.U.U.U.K.K.U.U.U.U.U.U.U.U.U.U.U.U.U.U.U.U.U.U.K.K.K.K.K.U.U.U.U.U.U.U.U.U.U.U.U.U.U.U.U.U.U.U.U.U.U.U.U.U.U.U.U.U.U.U.U.U.U.U.U.U.U.U.U.U.U.R.R.U.U.K.K.K.K.K.K.K.K.K.K.K.K.K.K.K.U.U.U.U.U.U.U.U.U.U.U.U.U.U.U.U.U.U.U.U.U.U.U.U.U.U.U.U.U.U.U.U.U.U.U.U.U.U.U.U.U.U.K.U.U.U.U.U.U.U.U.U.U.U.U.U.U.U.U.U.U.U.U.U.U.U.U.U.U.U.U.U.U.U.U.U.U.U.R.R.R.U.U.U.U.U.K.U.U.U.K.K.U.U.U.U.K.K.K.K.K.K.K.K.K.K.U.U.U.U.U.U.U.U.U.U.U.U.K.U.U.U.U.U.U.U.U.K.K.K.K.F.B.B.F.K.R.R.K.F.F.F.F.K.U.U.U.U.U.K.K.K.K.U.K.K.K.K.K.K.F.K.K.K.K.K.K.K.K.U.U.U.U.R.U.U.U.U.U.U.U.U.U.U.U.U.U.U.U.U.U.U.U.U.U.U.U.U.U.U.U.U.U.U.R.R.U.R.R.U.F.z.y.y.s.8.y.z.k.k.s.y.e.8.8.y.v.K.K.U.U.K.U.U.U.U.U.U.U.U.U.U.U.U.U.U.U.U.U.K.K.U.U.U.U.U.U.U.U.U.U.U.U.U.U.U.U.U.U.U.U.U.U.U.U.R.U.U.U.U.U.U.U.K.R.S.B.F.K.K.K.K.K.K.K.K.F.K.F.F.F.F.K.K.K.K.K.K.K.K.K.K.F.F.F.K.K.K.K.K.K.U.K.U.U.U.U.U.U.U.U.U.U.U.U.U.U.U.U.U.U.U.U.U.U.U.U.U.U.U.U.U.U.U.U.U.U.U.U.U.U.U.U.U.U.U.U.U.U.U.U.U.U.U.U.U.U.U.U.U.U.U.U.K.K.U.U.U.U.K.U.U.U.U.U.U.U.U.U.U.U.U.U.U.K.K.U.U.K.K.U.U.U.K.K.K.U.U.U.U.U.U.U.U.U.U.U.U.U.U.U.U.U.U.U.U.R.U.U.U. X..k ",
"Q J / Q +.v.F.S.K.K.F.F.F.F.F.F.K.F.F.F.K.K.K.K.K.K.K.K.U.U.U.U.U.R.R.R.R.U.U.U.U.U.U.U.U.K.K.K.K.K.U.U.U.U.U.U.U.U.U.U.U.U.U.U.U.U.U.U.K.K.K.K.K.U.U.U.U.U.U.K.U.U.U.U.U.U.U.U.U.U.U.U.U.U.U.U.U.U.U.U.U.U.U.U.U.U.U.U.U.U.U.U.U.U.U.R.R.R.U.U.K.K.K.K.K.K.K.K.K.K.K.K.K.K.U.U.U.U.U.U.U.U.U.U.U.U.U.U.U.U.U.U.U.U.U.U.U.U.U.U.U.U.U.U.U.U.U.U.U.U.U.U.U.U.U.U.U.U.U.U.U.U.U.U.U.U.U.U.U.U.U.U.U.U.U.U.U.U.U.U.U.U.U.U.U.U.U.U.U.U.R.U.U.R.R.U.U.U.U.U.U.U.U.U.K.K.U.U.U.U.K.K.U.U.U.U.U.U.U.U.U.U.U.U.U.U.U.U.U.U.U.U.U.U.U.U.U.U.U.U.U.K.K.K.K.S.v.S.F.U.R.U.U.K.K.K.F.K.U.U.U.U.U.U.U.K.U.U.U.K.K.K.K.K.K.K.K.K.F.K.K.K.K.U.R.U.U.R.R.U.K.U.U.U.U.U.U.U.U.U.U.U.U.U.U.U.U.U.U.U.U.U.U.U.U.U.U.U.U.U.U.R.!.U.F.B.y.y.k.e.k.v.k.k.s.y.e.e.e.y.z.K.U.U.U.U.R.U.U.U.U.U.U.U.U.U.U.U.U.U.U.U.K.K.K.U.U.U.U.U.U.U.U.U.U.U.U.U.U.U.U.U.U.U.U.U.U.U.R.R.U.U.U.U.U.U.U.F.R.F.B.S.K.F.K.K.K.K.K.F.F.K.F.F.F.F.K.K.K.K.K.K.K.K.K.K.F.F.F.K.K.K.K.K.K.U.K.K.U.U.U.U.U.U.U.U.U.U.U.U.U.U.U.U.U.U.U.U.U.U.U.U.U.U.U.U.U.U.U.U.U.U.U.U.U.U.U.U.U.U.U.U.U.U.U.U.U.U.U.U.U.U.U.U.U.U.U.K.K.K.K.K.K.K.K.U.U.U.U.U.U.U.U.U.U.U.U.U.K.K.K.U.K.K.U.U.U.K.K.K.U.U.U.U.U.U.U.U.U.U.U.U.U.U.U.U.U.U.U.R.R.R.U.U. X] k ",
"J J ] ..#.z.U.S.K.K.K.K.K.K.F.F.K.K.K.K.K.K.K.K.K.K.K.U.U.U.U.U.U.R.R.R.R.R.U.U.U.U.U.K.K.U.U.U.U.U.U.U.U.U.K.K.U.U.U.U.U.U.U.U.U.R.R.U.U.K.K.U.U.U.U.U.U.U.U.U.U.U.U.U.U.U.U.U.U.U.U.U.U.U.U.U.U.R.R.U.U.U.U.U.U.U.U.U.U.U.U.U.U.U.R.R.R.R.U.U.K.K.K.K.K.K.K.K.K.K.K.K.K.K.K.K.U.U.U.U.U.U.U.U.U.U.U.U.U.U.U.U.U.U.U.U.U.U.U.U.U.U.U.U.U.U.U.U.U.U.U.U.U.U.U.U.U.U.U.U.U.U.U.U.U.U.K.U.U.U.U.U.U.U.U.U.U.U.U.K.U.K.U.U.U.K.K.U.U.U.U.U.R.R.R.R.U.U.K.K.K.K.U.U.K.U.U.U.U.U.K.K.U.U.U.R.R.U.U.R.U.U.K.U.U.K.K.U.U.U.U.U.U.U.U.U.U.U.U.U.U.U.K.K.U.B.B.B.K.!.K.F.U.U.U.K.K.K.U.R.U.U.R.R.U.U.U.U.U.U.U.U.U.U.U.U.U.U.K.U.K.K.K.U.U.U.R.R.R.U.U.K.U.U.U.U.U.U.U.U.U.U.U.U.U.U.U.U.U.U.U.U.U.U.U.U.U.U.K.U.U.R.R.U.F.F.s.e.e.k.v.k.k.k.k.y.y.y.e.s.z.U.U.K.U.U.U.R.U.U.R.R.U.U.U.U.U.U.U.U.U.U.U.K.K.K.K.U.U.U.U.U.U.U.U.U.U.U.U.U.U.U.U.U.U.U.U.U.U.R.R.U.U.U.U.U.K.K.K.F.S.F.F.F.U.K.K.K.U.K.K.K.K.K.F.F.F.K.K.K.K.K.U.K.K.K.F.F.F.K.K.K.K.K.K.K.K.K.K.U.U.U.R.R.U.U.U.U.U.U.U.R.U.U.U.U.U.U.U.U.U.U.R.U.U.U.U.U.U.U.U.U.U.U.U.U.U.U.U.U.U.U.U.U.U.U.U.U.U.U.U.K.U.U.U.U.U.U.U.U.U.K.K.K.U.U.U.U.U.U.U.U.U.U.U.U.K.K.K.K.K.U.K.K.U.U.K.K.K.K.U.U.U.K.U.K.U.U.U.U.U.U.U.U.U.U.U.U.U.U.U.R.U.K. X..k ",
"J J ] +.-.z.U.F.K.K.K.K.K.K.K.F.K.K.K.K.K.K.K.K.K.K.K.U.U.U.U.R.U.R.R.R.R.R.U.U.U.U.U.U.U.U.U.U.U.U.U.U.U.U.U.U.U.U.U.U.U.U.U.U.U.U.U.U.U.K.K.U.U.U.U.U.U.U.U.U.U.U.U.U.U.U.U.U.U.U.U.U.U.U.U.U.U.R.R.U.U.U.U.U.U.U.U.U.U.U.U.U.U.U.R.R.R.R.U.U.K.K.K.K.U.K.K.K.K.K.K.K.K.K.U.U.U.U.U.U.U.U.U.U.U.U.U.U.U.U.U.U.U.U.U.U.U.U.U.U.U.U.U.U.U.U.U.U.U.U.U.U.U.U.U.U.U.U.U.U.U.U.K.U.U.U.U.U.U.U.U.U.U.U.U.K.U.U.U.U.U.K.U.U.U.K.K.U.U.U.U.U.U.R.R.U.U.U.K.K.K.K.U.U.K.U.U.U.U.U.K.K.U.U.R.R.R.R.R.R.R.U.U.U.U.U.U.U.U.U.U.U.U.U.U.U.U.U.U.U.U.U.U.U.K.B.B.S.U.R.K.F.U.U.U.U.K.K.K.U.U.U.R.U.U.U.U.U.U.U.U.R.R.R.U.U.U.U.U.U.K.K.K.U.U.U.R.R.R.U.U.U.U.U.U.U.U.U.U.U.U.U.U.U.U.U.U.U.U.U.U.U.U.U.U.U.U.U.U.U.U.R.R.R.K.F.k.e.e.s.v.k.k.k.k.s.y.e.8.s.z.K.U.K.U.U.U.U.U.U.U.U.U.U.U.U.U.U.U.U.U.U.U.U.K.K.U.U.U.U.U.U.U.U.U.U.U.U.U.U.U.U.U.U.U.U.U.U.R.R.U.R.U.U.U.U.K.U.K.K.F.S.S.F.U.K.K.U.U.K.K.K.K.K.F.F.F.K.K.U.U.K.U.K.K.K.F.F.F.K.K.K.K.K.K.K.U.U.U.U.U.U.U.U.U.U.U.U.U.U.U.U.U.U.U.U.U.U.U.U.U.U.R.U.U.U.U.U.U.U.U.U.U.U.U.U.U.U.U.U.U.U.U.U.U.U.U.U.U.U.U.U.U.U.U.U.U.U.U.U.U.K.K.K.K.K.K.U.U.U.U.U.U.U.U.U.K.K.K.K.U.U.K.K.K.U.K.K.K.K.U.U.U.K.U.U.U.U.U.U.U.U.U.U.U.U.U.U.U.U.U.R.U.K. X..k ",
"J G ] #.3.v.K.F.K.K.K.K.K.K.K.K.K.K.K.K.K.K.K.K.K.K.K.K.U.U.U.U.R.R.R.R.R.R.U.U.U.U.U.U.U.U.U.U.U.U.U.U.U.U.U.U.U.U.U.U.U.U.U.U.U.R.R.U.U.K.K.U.U.U.U.U.U.U.U.U.U.U.U.U.U.U.U.U.U.U.U.U.U.U.U.U.U.U.U.U.U.U.U.U.U.U.U.U.U.U.U.U.U.R.R.R.R.R.U.U.U.U.U.U.U.U.K.K.K.K.K.K.K.U.U.U.U.U.U.U.U.U.U.U.U.U.U.U.U.U.U.U.U.U.U.U.U.U.U.U.U.U.U.U.U.U.U.U.U.U.U.U.U.U.U.U.U.U.U.U.U.U.U.U.U.U.U.U.U.U.U.U.U.U.U.U.U.U.U.U.U.K.U.U.U.K.K.U.U.U.U.U.U.U.U.U.U.U.U.K.K.U.U.U.K.U.U.U.U.U.U.U.U.U.R.!.!.!.R.R.R.U.U.U.U.U.U.U.U.U.U.U.U.K.U.U.U.U.U.K.K.K.K.K.S.B.S.K.U.R.K.K.K.U.R.R.U.K.K.U.U.U.U.U.U.U.U.U.U.U.U.R.R.U.U.U.U.U.U.U.K.F.F.K.U.U.U.U.U.U.U.U.U.U.U.U.U.U.U.U.U.U.U.U.U.U.U.U.U.U.U.U.U.U.U.U.U.U.U.U.R.R.!.R.U.F.z.y.e.y.z.k.k.k.z.s.e.8.8.s.v.K.K.K.U.K.U.U.U.U.U.U.U.U.U.U.U.R.R.U.U.U.U.U.U.U.U.U.U.U.R.R.U.U.U.U.U.U.U.U.U.U.U.U.U.U.U.U.U.U.R.R.U.U.U.U.U.U.U.U.F.B.B.S.U.K.K.U.U.K.K.K.K.K.K.F.F.K.K.K.U.K.U.K.K.U.F.S.F.K.K.K.K.K.K.U.U.U.U.U.U.U.U.U.U.U.U.U.U.U.U.U.U.U.U.U.U.U.U.U.U.U.U.U.U.U.U.U.U.U.U.U.U.U.U.U.U.U.U.U.U.U.U.U.U.U.U.U.U.U.U.U.U.U.U.U.U.U.U.U.K.K.F.K.K.K.K.U.U.U.U.U.U.U.U.U.K.K.K.U.U.U.U.K.K.K.K.K.K.K.U.U.K.K.U.U.U.U.K.K.U.R.R.R.U.U.U.U.U.U.U.U.U.K. X] k ",
"J J ..3.y.S.U.F.K.K.K.F.K.K.K.K.K.K.K.K.K.K.K.K.K.K.K.U.U.U.U.U.U.U.U.U.R.U.U.U.U.U.U.U.U.U.U.U.U.U.U.U.U.U.U.U.U.U.U.U.U.U.U.U.U.U.U.U.U.K.K.U.U.U.U.U.U.U.U.U.U.U.U.U.U.U.U.U.U.U.U.U.U.U.U.U.U.U.U.U.U.U.U.U.U.U.U.U.K.K.U.U.R.R.R.R.R.R.U.U.U.U.U.U.U.K.K.K.K.K.K.K.U.U.U.U.U.U.U.U.U.U.U.U.U.U.U.U.U.U.U.U.U.U.U.U.U.U.U.U.U.U.U.U.U.U.U.U.U.U.U.U.U.U.U.U.U.U.U.K.U.U.U.U.U.U.U.U.K.U.U.U.U.U.U.U.U.U.U.U.U.K.U.U.U.K.K.U.U.U.U.U.U.U.U.K.U.U.U.U.U.U.U.U.U.U.U.U.U.U.U.U.U.U.R.!.!.!.R.R.R.R.U.U.U.U.K.U.U.U.U.U.U.K.U.U.U.K.K.K.U.U.K.F.B.B.F.U.R.U.K.K.K.U.R.R.U.F.K.U.U.U.U.U.U.U.U.U.U.U.U.U.U.U.U.U.U.U.U.K.F.S.F.K.R.U.U.U.U.U.U.U.U.U.U.U.U.U.U.U.U.U.U.U.U.U.U.U.U.U.U.U.U.U.U.U.U.U.K.K.U.R.R.R.U.S.k.y.8.e.s.k.k.k.k.y.e.8.8.s.B.K.K.K.K.K.U.U.U.U.U.U.U.U.U.U.R.R.U.U.U.U.U.U.U.U.U.U.U.U.R.R.U.U.U.U.U.U.U.U.U.U.U.U.U.U.U.U.U.U.U.U.U.U.U.U.U.U.U.U.K.B.B.S.K.K.K.U.U.K.K.K.U.K.K.F.F.K.K.K.U.K.K.K.K.U.F.S.K.K.K.K.K.K.U.U.U.U.U.U.U.U.U.U.U.U.U.U.U.U.U.U.U.U.U.U.U.U.U.U.U.U.U.U.U.U.U.U.U.U.U.U.U.U.U.U.U.U.U.U.U.U.U.U.U.U.U.U.U.U.U.U.U.U.U.U.U.U.U.U.K.K.F.K.K.K.K.U.U.U.U.U.U.U.U.U.K.K.K.U.U.U.K.K.K.K.K.K.K.U.U.U.K.K.R.U.U.U.K.K.U.R.U.U.U.U.R.R.U.U.U.U.U.K. X] k ",
"J J +.e.z.F.K.F.K.K.F.F.K.K.K.K.K.K.K.K.K.K.K.K.K.K.K.K.K.U.U.U.R.R.R.U.U.U.U.U.U.U.U.U.U.U.U.U.U.U.U.U.U.U.U.U.U.U.U.U.U.U.U.U.U.U.U.U.U.K.K.U.U.U.U.U.U.U.U.U.U.U.U.U.U.U.U.U.U.U.U.U.U.U.U.U.U.U.U.U.K.U.U.U.K.U.U.U.U.K.U.U.R.R.R.R.U.U.U.U.U.U.U.U.U.K.K.K.K.K.K.K.K.U.U.U.U.U.U.U.U.U.U.U.U.U.U.U.U.U.U.U.U.U.U.U.U.U.U.U.U.U.U.U.U.U.U.U.U.U.U.U.U.U.U.U.U.U.U.U.U.U.U.U.U.U.U.U.U.U.U.U.U.U.U.U.U.U.U.U.U.K.U.U.U.K.K.U.U.U.U.U.U.U.U.K.K.U.U.U.U.U.U.K.U.U.U.U.U.U.U.U.K.U.R.R.!.!.R.R.R.R.U.U.U.K.K.K.U.U.U.U.K.K.U.U.U.K.F.K.R.R.K.S.B.S.K.R.U.K.K.U.K.U.R.R.K.F.K.U.U.U.U.U.U.U.U.U.U.U.U.U.U.U.U.U.U.U.U.U.F.S.F.K.R.R.R.U.U.U.U.U.U.U.U.U.U.U.U.U.U.U.U.U.U.U.U.U.U.U.U.U.U.U.U.U.U.U.K.K.U.U.U.U.K.B.z.y.e.e.s.k.s.s.k.y.e.e.e.k.F.U.K.K.K.K.U.U.U.U.U.U.U.U.R.R.U.U.U.K.K.U.U.U.U.U.U.U.U.U.U.U.R.R.U.U.U.U.U.U.U.U.U.U.U.U.U.U.U.U.U.U.U.U.K.K.U.K.U.U.K.S.B.S.K.K.K.U.U.K.K.K.U.K.K.K.F.K.K.K.U.K.K.F.K.U.F.S.K.K.K.K.K.K.U.U.U.U.U.U.U.U.U.U.U.U.U.U.U.U.U.U.U.U.U.U.U.U.U.U.U.U.U.U.U.U.U.U.U.U.U.U.U.U.U.U.U.U.U.U.U.U.U.U.U.U.U.U.U.K.K.K.U.U.U.U.U.U.U.U.K.K.K.K.K.K.K.U.U.U.U.U.U.U.U.K.U.U.U.U.U.U.U.U.K.K.K.K.K.U.U.U.U.U.R.U.K.U.K.K.U.U.U.U.U.R.U.R.U.U.U.U.U.K.[.] k ",
"G G ..8.v.K.K.F.K.F.F.F.F.K.K.K.K.K.K.K.K.K.K.K.K.K.K.K.K.U.U.U.R.R.R.U.U.U.U.U.U.U.U.U.U.U.U.U.U.U.U.U.U.U.U.U.U.U.U.U.U.U.U.U.U.U.U.U.U.K.K.U.U.U.U.U.U.U.U.U.U.U.U.U.U.U.U.U.U.U.U.U.U.U.U.U.U.U.U.U.K.U.U.U.U.U.U.U.U.U.U.U.R.R.U.U.U.U.U.U.U.U.U.U.U.K.K.K.K.K.K.K.K.K.K.U.U.U.U.U.U.U.U.U.U.U.U.U.U.U.U.U.U.U.U.U.U.U.U.U.U.U.U.U.U.U.U.U.U.U.U.U.U.U.U.U.U.U.U.U.U.U.U.K.U.U.U.U.U.U.U.U.U.U.K.U.U.U.U.U.U.K.U.U.U.K.K.U.U.U.U.U.U.U.U.K.U.U.U.U.U.U.U.U.U.U.U.U.U.U.U.U.U.U.R.R.!.!.R.R.R.U.U.U.U.K.K.K.U.U.U.U.K.K.U.U.U.F.S.F.U.R.K.S.B.F.K.R.U.F.K.U.K.U.R.R.U.K.K.U.U.U.U.U.U.U.U.U.U.U.U.U.U.U.U.U.U.U.U.U.K.F.K.U.R.R.R.U.U.U.U.U.U.U.U.U.U.U.U.U.U.U.U.U.U.U.U.U.U.U.U.U.U.U.U.U.U.U.K.K.U.U.U.K.K.B.v.s.e.s.s.k.s.s.s.y.y.y.y.z.K.U.K.U.K.K.U.K.U.U.U.U.U.U.U.U.U.U.U.K.K.U.U.U.U.U.U.U.U.U.U.U.R.R.U.U.U.U.U.U.U.U.U.U.U.U.U.U.U.U.U.U.U.K.K.K.K.K.K.U.U.F.S.S.F.K.K.U.K.K.K.K.U.K.K.F.F.K.K.K.U.K.K.F.K.U.K.S.K.K.K.K.K.U.U.U.U.U.U.U.U.U.U.U.U.U.U.U.U.U.U.U.U.U.U.U.U.U.U.U.U.U.U.U.U.U.U.U.U.U.U.U.U.U.U.U.U.U.U.U.U.U.U.U.U.U.U.U.K.K.K.K.K.K.U.U.U.U.U.U.K.K.K.K.K.K.K.U.U.U.U.U.U.U.U.K.K.K.U.U.K.U.U.U.K.K.K.K.K.U.U.U.U.U.R.K.U.R.U.U.U.U.U.U.U.U.U.U.U.U.U.U.U.K.[.] k ",
"J J ..4.z.F.F.F.F.F.S.F.F.K.K.K.K.K.K.K.K.K.K.K.K.K.K.K.K.K.U.U.U.R.U.R.U.U.U.U.U.U.U.U.U.U.U.U.U.U.U.U.U.U.U.U.U.U.U.U.U.U.U.U.U.U.U.U.U.K.K.U.U.U.U.U.U.U.U.U.U.U.U.U.U.U.U.U.U.U.U.U.U.U.U.U.U.U.U.U.U.U.U.U.U.U.U.U.U.U.U.U.U.U.R.R.R.U.U.U.U.U.U.U.U.K.K.K.K.K.K.K.K.K.K.K.U.U.U.U.U.U.U.U.U.U.U.U.U.U.U.U.U.U.U.U.U.U.U.U.U.U.U.U.U.U.U.U.U.U.U.U.U.U.U.U.U.U.U.K.U.U.U.U.U.U.U.U.U.U.U.U.U.U.U.U.K.U.U.U.U.K.U.U.U.K.K.U.U.U.U.U.U.U.U.U.U.U.U.U.U.U.U.U.U.U.U.U.U.K.U.U.U.U.R.R.!.!.!.R.R.U.U.U.U.K.K.K.K.K.K.K.K.K.U.U.U.F.B.S.F.K.F.B.B.K.U.U.U.K.U.K.K.U.R.R.U.K.U.R.U.U.U.U.U.U.U.U.U.U.U.U.U.U.R.R.U.U.U.U.U.K.U.U.R.R.U.U.R.U.U.U.U.U.U.U.U.U.U.U.U.U.U.U.U.U.U.U.U.U.U.U.U.U.U.U.U.U.U.U.U.U.U.K.F.B.B.k.y.k.k.k.k.k.k.y.y.y.y.z.U.U.K.U.K.K.U.K.U.U.U.U.U.U.U.U.U.U.U.K.U.U.U.U.U.U.U.U.U.U.U.U.R.U.U.U.U.U.U.U.U.U.U.U.U.U.U.U.U.U.U.U.U.U.K.K.U.K.K.U.U.K.F.S.F.F.K.U.K.K.K.K.K.K.K.F.F.K.K.U.K.K.U.F.K.U.K.F.F.K.K.K.K.U.U.U.U.U.U.U.U.U.U.U.U.U.U.U.U.U.U.U.U.U.U.U.U.U.U.U.U.U.U.U.U.U.U.U.U.U.U.U.U.U.U.U.U.U.U.U.U.U.U.U.U.U.U.U.U.K.K.K.K.K.K.U.U.U.U.U.U.K.U.U.K.K.K.U.U.U.U.U.U.U.U.K.K.K.K.K.K.K.K.K.K.K.K.K.K.U.U.U.U.U.U.K.K.R.U.K.U.U.U.U.U.U.U.U.U.U.U.U.U.K. X] k ",
"G G / -.e.v.B.B.F.F.S.F.F.K.K.K.K.K.K.K.K.K.K.K.K.K.K.K.K.K.U.U.U.R.U.U.U.U.U.U.U.U.U.U.U.U.U.U.U.U.U.U.U.U.U.U.U.U.U.U.U.U.U.U.U.U.U.U.U.K.K.U.U.U.U.U.U.U.U.U.U.U.U.U.U.U.U.U.U.U.U.U.U.U.U.U.U.U.U.U.U.U.U.U.U.U.U.U.U.R.U.U.U.U.R.R.R.U.U.U.U.U.U.U.U.K.K.K.U.K.K.K.K.K.K.K.U.U.U.U.U.U.U.U.U.U.U.U.U.U.U.U.U.U.U.U.U.U.U.U.U.U.U.U.U.U.U.U.U.U.U.K.U.U.U.U.U.U.U.U.U.U.U.U.U.U.U.K.U.U.U.U.U.U.U.U.U.U.U.U.U.K.U.U.U.K.K.U.U.U.U.U.U.U.U.U.U.U.U.U.U.U.U.U.U.U.U.U.U.U.U.U.U.U.R.R.!.!.R.R.R.R.U.U.U.K.K.K.K.K.K.K.K.K.U.U.U.F.B.v.v.B.B.B.B.K.U.U.U.K.U.K.K.U.R.R.R.U.U.R.U.U.U.U.U.U.U.U.U.U.U.U.U.U.U.U.U.U.U.R.U.U.U.R.R.U.U.U.U.U.U.U.U.U.U.U.U.U.U.U.U.U.U.U.U.U.U.U.U.U.U.U.U.U.U.U.U.U.U.U.U.U.U.K.F.B.B.k.s.z.k.k.k.k.k.s.y.y.y.z.U.K.K.U.K.K.U.K.U.U.U.U.U.U.U.U.K.U.K.K.K.U.R.R.R.R.R.R.R.U.U.U.U.U.U.U.U.U.U.U.U.U.U.U.U.U.U.U.R.U.R.R.U.U.U.K.U.U.K.K.U.K.F.S.S.F.K.K.K.K.K.K.K.K.K.F.F.K.K.K.K.K.U.F.K.U.K.F.F.K.K.K.U.U.U.U.R.U.U.U.U.U.U.U.U.U.U.U.U.U.U.U.U.U.U.U.U.U.U.U.U.U.U.U.U.U.U.U.U.U.U.U.U.U.U.U.U.U.U.U.U.U.U.U.U.U.U.U.U.U.U.U.K.K.K.K.U.U.U.U.U.U.U.U.U.K.K.K.U.U.U.U.U.U.U.K.K.K.K.K.K.K.K.K.K.K.K.K.K.U.U.U.U.K.U.F.K.U.K.S.U.U.U.U.U.U.U.U.U.U.U.R.U.K. X] k ",
"G I / ..3.y.s.v.F.F.F.S.F.K.K.K.K.K.K.K.K.K.K.K.K.K.K.K.K.K.U.U.U.U.U.U.U.U.U.U.U.U.U.U.U.U.U.U.U.U.U.U.U.U.U.U.U.U.U.U.U.U.U.U.U.R.R.U.K.K.K.K.U.U.U.U.U.U.U.U.U.U.U.U.U.U.U.U.U.U.U.U.U.U.U.U.U.U.U.U.U.U.K.F.F.F.F.U.U.U.U.U.R.U.U.R.R.R.R.U.U.U.U.U.U.K.K.K.K.U.U.U.U.U.U.K.U.U.U.U.U.U.U.U.U.U.U.U.U.U.U.U.U.U.U.U.U.U.U.U.U.U.U.U.U.U.U.U.U.U.U.U.U.U.U.K.U.U.U.U.U.U.K.U.U.K.U.U.U.U.U.U.K.U.U.U.U.U.U.U.K.K.U.U.U.U.U.U.U.U.U.U.U.U.U.U.U.U.U.U.U.U.U.U.U.U.U.U.U.U.U.U.U.U.R.!.!.R.!.R.R.U.U.K.K.K.K.K.K.K.K.K.K.U.U.U.U.R.B.z.v.z.v.B.F.K.U.U.K.K.K.U.K.U.U.U.U.R.R.R.U.U.U.U.U.U.U.U.U.U.U.U.U.U.U.U.U.U.U.U.U.U.R.R.R.R.R.R.U.U.U.U.U.U.U.U.U.U.U.U.U.U.U.U.U.U.U.U.U.U.U.U.U.U.U.U.U.U.U.U.K.U.U.K.F.B.z.k.s.s.k.k.z.k.k.s.s.y.y.z.U.U.K.K.U.K.K.U.U.U.U.U.U.U.U.K.K.K.K.U.U.U.R.R.R.R.R.R.U.U.U.U.U.U.U.U.U.U.U.U.U.U.U.U.U.U.U.U.U.U.U.U.U.U.U.U.U.U.K.U.U.K.F.S.S.F.K.K.K.F.F.K.K.K.K.F.F.K.K.K.K.K.K.F.K.U.K.S.F.F.K.K.U.U.U.U.R.R.U.U.U.U.U.U.U.U.U.U.U.U.U.U.U.U.U.U.U.U.U.U.U.U.U.U.U.U.U.U.U.U.U.U.U.U.U.U.U.U.U.U.U.U.U.U.U.U.U.U.U.U.U.U.U.U.K.U.U.U.U.U.U.U.U.U.U.K.K.K.U.U.U.U.U.U.U.K.K.K.K.K.K.K.K.K.U.U.K.K.U.U.U.U.R.U.U.U.U.U.F.S.R.R.U.U.U.U.U.U.U.U.U.U.U.K.[.] k ",
"C J ( +.;.e.s.z.F.F.F.F.F.K.K.K.K.K.K.K.K.K.K.K.K.K.K.K.K.K.K.U.U.U.U.U.U.U.U.U.U.U.U.U.U.U.U.U.K.U.U.U.U.U.U.U.U.U.U.U.U.U.U.U.U.R.R.U.K.K.K.U.U.U.U.U.U.U.U.U.U.U.U.U.U.U.U.U.U.U.U.U.U.U.R.R.U.U.U.U.U.U.K.S.B.S.F.K.K.U.U.U.R.R.R.R.R.R.R.U.U.U.U.U.U.K.K.K.K.U.U.U.U.U.U.K.U.U.U.U.U.U.U.U.U.U.U.U.U.U.U.U.U.U.U.U.U.U.U.U.U.U.U.U.U.U.U.U.U.U.U.U.U.U.U.U.U.U.K.U.U.U.U.U.U.U.U.U.U.K.U.U.U.U.U.U.U.U.U.U.U.U.U.U.U.U.U.U.U.U.U.U.U.U.U.U.U.U.U.U.K.U.U.U.U.U.U.U.U.U.U.U.U.U.R.R.R.R.R.R.R.U.U.U.K.K.K.K.K.K.K.K.K.K.U.U.U.!.F.B.S.v.v.B.F.K.K.K.K.K.K.U.K.U.U.U.U.R.R.R.R.U.U.U.U.U.U.U.U.U.U.U.U.U.U.U.U.U.U.U.U.U.U.R.R.R.R.R.U.U.U.U.U.U.U.U.U.U.U.U.U.U.U.U.U.U.U.U.U.U.U.U.U.U.U.U.U.K.U.U.K.U.U.F.S.v.z.k.s.s.k.k.k.k.z.s.y.s.y.s.K.U.K.K.U.U.K.U.U.U.U.U.U.U.U.K.K.K.U.U.U.U.R.R.R.R.R.R.U.U.U.U.U.U.U.U.U.U.U.U.U.U.U.U.U.U.U.U.U.U.U.U.U.U.U.U.U.U.K.K.U.K.K.F.S.F.F.F.U.K.K.K.K.K.K.F.F.K.K.K.K.U.K.K.K.U.K.S.F.F.K.K.U.U.U.U.R.R.U.U.U.U.U.U.U.U.U.U.U.U.U.U.U.U.U.U.U.U.U.U.U.U.U.U.U.U.U.U.U.U.U.U.U.U.U.U.U.U.U.U.U.U.U.U.U.U.U.U.U.U.U.U.U.U.K.U.U.K.K.K.K.K.U.U.U.K.K.K.U.U.U.U.U.U.U.K.K.K.K.K.K.K.K.K.U.U.K.K.U.U.U.U.U.U.U.U.U.U.K.F.R.U.U.U.U.U.U.U.U.U.U.U.U.K.[.] k ",
"Q I / / ] 4.z.S.K.F.S.F.F.K.K.K.K.K.K.K.K.K.K.K.K.K.K.K.K.K.K.U.U.U.U.U.U.U.U.U.U.U.U.U.U.K.U.U.K.U.U.U.U.U.U.U.U.U.U.U.U.U.U.U.U.R.R.U.U.K.U.U.U.U.U.U.U.U.U.U.U.U.U.U.U.U.U.U.U.U.U.U.U.U.U.U.U.U.U.U.U.K.F.B.v.S.F.F.K.U.U.U.U.R.R.R.R.R.R.R.U.U.U.U.U.K.K.K.K.K.U.U.U.U.U.K.U.U.U.U.U.U.U.U.U.U.U.U.U.U.U.U.U.U.U.U.U.U.U.U.U.U.U.U.U.U.U.U.U.U.U.U.U.U.U.U.U.U.U.U.U.U.U.U.U.U.U.U.U.U.U.U.U.U.U.U.U.U.U.K.U.U.U.U.U.U.U.U.U.U.U.U.U.U.U.U.U.U.U.U.U.U.U.U.U.U.U.U.U.U.U.U.U.U.R.R.R.R.R.R.U.U.U.U.U.U.K.K.K.K.K.F.K.K.U.U.U.!.U.K.K.S.B.S.F.F.K.K.K.K.K.K.K.U.U.U.U.U.U.U.U.U.U.U.U.U.U.U.U.U.U.U.U.U.U.U.U.U.U.U.U.U.R.R.U.R.R.R.R.U.U.U.U.U.U.U.U.U.U.U.U.U.U.U.U.U.U.U.U.U.U.U.U.U.U.U.U.K.U.U.K.U.K.F.S.v.z.k.s.s.k.k.s.k.z.s.y.s.y.y.S.K.U.K.U.U.U.U.U.R.R.R.U.U.U.U.K.K.U.U.U.U.R.R.R.R.R.R.R.U.U.U.U.U.U.U.U.U.U.U.U.U.U.U.U.U.U.U.U.U.U.U.U.U.U.K.U.K.K.K.K.K.K.K.F.F.S.S.U.U.K.F.K.K.K.F.F.K.K.K.K.U.K.K.K.K.K.F.F.F.K.K.U.U.U.U.U.R.U.U.U.U.U.U.U.U.U.U.U.U.U.U.U.U.U.U.U.U.U.U.U.U.U.U.U.U.U.U.U.U.U.U.U.U.U.U.U.U.U.U.U.U.U.U.U.U.U.U.U.U.U.U.U.U.K.K.K.K.F.F.F.F.K.U.U.K.K.U.U.U.U.U.U.U.U.K.K.K.K.K.K.K.U.U.U.K.K.K.U.U.U.U.U.U.U.U.U.U.U.U.U.U.U.U.U.U.U.U.U.K.U.U.K.K.[.] z ",
"Q J / ( ..8.v.S.F.S.S.F.K.K.K.K.K.K.K.K.K.K.K.K.K.K.K.K.K.K.K.U.U.U.U.U.U.U.U.U.U.U.K.K.K.K.K.K.K.K.U.U.U.U.U.U.U.U.U.U.U.U.U.U.U.R.R.U.U.U.U.U.U.U.U.U.U.U.U.U.U.U.U.U.U.U.U.R.U.U.U.U.U.U.U.U.U.U.U.K.K.K.S.v.B.F.K.K.K.U.R.U.U.R.R.R.R.U.U.U.U.U.U.U.U.K.K.K.K.U.U.U.U.U.U.K.U.U.U.U.U.U.U.U.U.U.U.U.U.U.U.U.U.U.U.U.U.U.U.U.U.U.U.U.U.U.U.U.U.U.U.U.U.U.U.U.U.U.U.U.U.U.U.U.U.U.U.U.U.U.U.U.U.U.U.U.U.U.U.U.U.U.U.U.U.U.U.U.U.U.U.U.U.U.U.U.U.U.U.U.U.U.U.U.U.U.U.U.U.U.U.U.U.U.R.R.R.R.U.U.U.U.U.U.U.U.K.K.K.K.K.F.K.U.U.U.K.U.U.R.R.F.S.F.F.F.F.K.K.K.K.K.U.U.U.U.U.U.U.U.R.U.R.R.U.U.U.U.U.U.U.U.U.U.U.U.R.U.U.U.U.U.R.R.R.R.R.R.R.U.U.U.U.U.U.U.R.R.U.U.U.U.U.U.U.U.U.U.U.U.U.U.U.U.U.U.U.U.U.U.U.U.U.K.S.B.z.z.s.s.s.s.s.k.v.k.y.s.s.8.B.K.U.K.K.U.U.U.U.R.R.R.U.U.U.U.K.K.U.U.U.U.R.R.!.R.R.U.U.U.U.U.U.U.U.U.U.U.U.U.U.U.U.U.U.U.U.U.U.U.U.U.U.U.K.K.K.K.K.K.K.K.K.K.K.F.B.S.U.R.K.F.K.K.K.F.F.K.K.K.K.K.U.K.K.K.K.F.F.F.F.K.U.U.U.U.U.U.U.U.U.U.U.U.U.U.U.U.U.U.U.U.U.U.U.U.U.U.U.U.U.U.U.U.U.U.U.U.U.K.U.U.U.K.K.U.U.U.U.U.U.U.U.U.U.U.U.U.U.U.U.U.U.K.K.K.K.F.F.F.F.F.K.K.U.K.U.U.U.U.U.U.U.U.U.K.K.K.K.K.K.U.U.U.U.K.K.K.U.U.U.U.U.U.U.U.U.U.U.U.U.U.U.U.U.U.U.U.U.K.U.U.K.K.[.] z ",
"J C / ..-.s.S.B.S.B.B.F.K.K.K.K.K.K.K.K.K.K.K.K.K.K.K.K.K.K.K.U.U.R.U.U.U.U.U.U.K.K.K.K.K.K.K.K.K.K.U.U.U.U.U.U.U.U.U.U.U.U.U.U.U.U.R.U.U.U.U.U.U.U.U.U.U.U.U.U.U.U.U.U.U.U.R.R.U.R.R.R.U.U.U.U.U.U.U.K.K.K.F.B.F.U.R.U.U.R.R.U.U.R.R.R.U.U.U.U.U.U.U.U.U.K.K.K.K.U.U.U.U.U.U.U.U.U.U.U.U.U.U.U.U.U.U.U.U.U.U.U.U.U.U.U.U.U.U.U.U.U.U.U.U.U.U.U.U.U.U.U.U.U.K.U.U.U.U.U.U.U.U.U.U.U.U.U.U.K.U.U.U.U.U.U.U.U.U.U.U.U.U.U.U.U.U.U.U.U.U.U.U.U.U.U.U.U.U.U.U.U.U.U.U.U.U.U.U.U.U.U.U.R.R.R.R.R.U.U.U.U.U.U.U.U.K.K.K.K.K.K.K.U.U.U.K.K.U.R.R.U.F.S.F.F.F.F.K.K.K.K.U.U.U.U.U.U.U.U.U.U.U.U.U.U.U.U.U.U.U.U.U.U.U.U.R.R.R.U.U.U.R.R.R.R.R.R.R.U.U.U.U.U.U.R.R.R.R.U.U.U.U.U.U.U.U.U.U.U.U.U.U.U.U.U.U.U.U.U.K.U.U.K.F.B.v.k.y.y.s.s.s.k.v.k.y.s.s.e.B.K.U.K.K.U.U.U.U.U.U.R.U.U.U.U.K.K.U.U.U.U.R.R.!.R.U.U.U.U.U.U.U.U.U.U.U.U.U.U.U.U.U.U.U.U.U.U.U.U.U.U.U.U.K.K.K.K.U.U.K.K.K.K.U.K.S.S.K.U.K.F.K.K.F.F.F.K.K.K.K.K.U.K.K.K.F.F.F.F.F.K.U.R.U.U.U.U.U.U.U.U.U.U.U.U.U.U.U.U.U.U.U.U.U.U.U.U.U.U.U.U.U.U.U.U.U.U.U.K.K.U.U.U.K.U.U.U.U.U.U.U.U.U.U.U.U.U.U.U.U.U.U.K.K.U.K.F.F.F.F.F.K.U.U.U.U.U.U.U.U.U.U.U.U.K.K.K.K.K.K.K.U.U.U.K.K.K.U.U.U.U.U.U.U.U.U.U.U.R.U.U.U.U.U.U.U.U.U.U.U.U.K.K.[.] z ",
"I G Q ..-.k.S.F.B.B.S.F.K.K.K.K.K.K.K.K.K.K.K.K.K.K.K.K.K.K.K.U.U.R.U.U.U.U.U.U.K.K.K.K.K.K.K.K.K.U.U.U.U.U.U.U.U.U.U.U.U.U.U.U.U.U.R.U.U.U.U.U.U.U.U.U.U.U.U.U.U.U.U.U.U.U.U.U.U.U.U.U.U.U.U.U.U.U.U.K.K.U.K.S.K.U.R.U.U.R.R.R.R.R.R.R.U.U.U.U.U.U.U.U.U.K.K.K.K.U.U.U.U.U.U.U.U.U.U.U.U.U.U.U.U.U.U.U.U.U.U.U.U.U.U.U.U.U.U.U.U.U.U.U.U.U.U.U.U.U.K.U.U.U.U.U.U.U.U.U.U.U.U.U.U.U.U.K.U.U.U.U.U.U.U.U.U.U.U.U.U.U.U.U.U.U.U.U.U.U.U.U.R.R.U.U.U.U.U.U.U.U.U.U.U.U.U.U.U.U.U.U.U.R.R.R.R.R.U.U.U.U.U.U.U.U.K.K.K.K.K.K.U.R.R.U.U.K.U.R.R.R.F.B.F.F.F.K.K.K.K.U.U.U.U.U.U.U.U.U.R.U.U.U.U.U.U.U.U.U.U.U.U.U.U.U.R.U.U.U.U.U.R.R.R.R.R.R.R.U.U.U.U.U.U.R.R.R.R.U.U.U.U.U.U.U.U.U.U.U.U.U.U.U.U.U.U.U.U.U.K.K.U.K.F.B.v.k.e.e.y.s.k.k.z.k.y.s.y.y.B.K.K.K.K.K.K.U.U.U.U.R.U.U.U.U.K.K.U.U.U.U.R.R.R.R.U.U.U.U.U.U.U.U.U.U.U.U.U.U.U.U.U.U.U.U.U.U.U.U.U.U.U.U.K.K.K.U.U.U.U.U.U.U.U.K.F.S.F.K.K.K.K.K.F.F.F.K.K.K.K.K.K.K.K.K.F.F.F.F.K.K.U.R.U.U.U.U.U.U.U.U.U.U.U.U.U.U.U.U.U.U.U.U.U.U.U.U.U.U.U.U.U.U.U.U.U.U.K.K.K.U.U.U.K.U.U.U.U.U.U.U.U.U.U.U.U.K.K.K.U.U.U.K.K.K.K.K.F.F.F.F.K.U.U.U.U.U.U.U.U.U.U.U.U.K.K.K.K.K.K.K.U.U.U.K.K.K.U.U.U.U.U.U.U.U.U.U.U.U.U.U.U.U.U.U.U.U.U.U.U.U.K.K.[.] z ",
"I J ( +.;.s.B.B.v.B.S.F.F.K.K.K.K.K.K.K.K.K.K.K.K.K.K.K.K.K.K.U.U.R.R.R.U.U.U.U.K.K.K.K.K.K.K.K.K.U.U.U.U.U.U.U.U.U.U.U.U.U.U.U.U.U.R.U.U.U.U.U.U.U.U.U.U.U.U.U.U.U.U.U.U.U.U.U.U.U.U.U.U.U.U.U.U.R.R.U.K.U.U.K.U.U.U.U.U.R.R.R.!.R.R.U.U.U.U.U.U.U.U.U.U.K.K.K.K.U.U.U.U.U.U.U.U.U.U.U.U.U.U.U.U.U.U.U.U.U.U.U.U.U.U.U.U.U.U.U.U.U.U.U.U.U.U.U.U.U.U.U.U.U.U.U.U.U.K.U.U.U.U.U.U.U.U.U.U.U.U.U.U.U.U.U.U.U.U.U.U.U.U.U.U.U.U.U.U.U.U.U.R.U.U.U.U.U.U.U.U.U.K.U.U.U.U.U.U.U.U.U.U.R.R.R.R.R.U.U.U.U.U.U.U.U.K.K.K.K.K.K.U.R.R.U.U.K.R.R.R.R.S.z.S.F.K.K.K.K.K.U.U.U.U.U.R.U.U.R.R.R.U.U.R.U.U.U.U.U.U.U.U.U.U.U.U.U.U.R.R.U.U.U.R.R.R.R.R.U.U.U.U.U.U.R.R.R.R.U.U.U.U.U.U.U.U.U.U.U.U.U.U.U.U.U.U.K.U.U.K.K.K.F.S.B.v.s.8.8.y.k.k.s.k.s.s.s.y.z.S.F.K.K.K.K.K.U.U.U.U.R.U.U.U.U.K.U.U.U.U.U.R.R.!.R.U.U.U.U.U.U.U.U.U.U.U.U.U.U.U.U.U.U.U.U.U.U.U.U.U.U.U.U.U.K.U.U.U.U.U.U.U.K.K.K.S.B.S.F.K.K.K.K.K.F.F.K.K.K.U.K.K.K.K.K.F.F.F.F.K.U.U.U.U.U.R.R.U.U.U.U.U.U.U.U.U.U.U.U.U.U.U.U.U.U.U.U.U.U.U.U.U.U.U.U.U.U.K.K.K.U.U.U.K.U.U.U.U.U.U.U.U.U.U.U.K.K.K.K.U.U.U.K.K.K.U.K.F.F.F.F.K.U.U.K.U.U.U.U.U.U.U.U.U.K.K.K.U.U.K.K.K.U.U.K.K.K.U.U.U.U.U.U.U.U.U.U.U.U.U.U.U.U.U.U.U.U.U.K.U.U.K.K.[.] z ",
"Q I ( +.;.y.z.v.z.B.F.F.F.K.U.K.K.K.K.K.K.K.K.K.K.K.K.U.K.K.K.U.U.R.R.R.U.U.U.U.K.K.K.K.K.K.K.K.U.U.U.U.U.U.U.U.U.U.U.U.U.U.U.U.U.U.R.R.U.R.U.U.U.U.U.U.U.U.U.U.U.U.U.U.U.U.U.U.U.U.U.U.U.U.U.U.K.R.R.U.U.R.U.K.R.U.K.U.U.U.R.R.!.R.R.U.R.U.U.U.U.U.U.U.U.K.K.K.K.K.U.U.U.U.U.U.U.U.U.U.U.U.U.U.U.U.U.U.U.U.U.U.U.U.U.U.U.U.U.K.U.U.U.U.U.U.U.K.U.U.U.U.U.U.U.U.U.U.U.U.K.U.U.U.U.U.U.U.U.U.U.U.U.U.U.U.U.U.U.U.U.U.U.U.U.U.U.U.U.U.U.U.U.U.U.U.U.U.U.U.U.U.U.U.U.U.U.U.U.U.U.U.U.U.R.R.R.U.U.U.U.U.U.U.U.K.K.K.K.K.K.K.U.R.R.U.U.K.!.R.U.R.B.k.S.F.K.U.U.K.U.U.U.U.U.U.R.U.U.R.R.R.R.R.R.U.U.U.U.U.U.U.U.U.U.U.U.U.R.R.R.U.U.U.R.R.R.R.R.U.U.U.U.U.U.R.R.R.R.U.U.U.U.U.U.U.U.U.U.U.U.U.U.U.U.U.U.U.U.U.K.K.K.S.S.B.v.k.8.8.y.k.k.s.s.s.s.s.s.B.F.F.F.F.K.K.K.U.U.U.U.U.U.U.U.U.K.U.U.U.U.U.R.R.R.R.U.U.U.R.R.U.U.U.U.U.U.U.U.U.U.U.U.U.U.U.U.U.U.U.U.U.U.U.U.K.K.K.K.K.K.K.K.K.K.K.S.v.B.F.K.K.K.K.K.F.F.K.K.K.U.K.K.K.K.K.F.F.F.F.K.U.U.U.U.U.R.R.U.U.U.U.U.U.U.U.U.U.U.U.U.U.U.U.U.U.U.U.U.U.U.U.U.U.U.U.U.U.K.K.U.U.U.U.K.U.U.U.U.U.U.U.U.U.U.U.K.K.K.K.U.U.U.K.K.K.K.K.F.F.F.F.K.U.U.K.U.U.U.U.U.U.U.U.U.K.K.K.U.U.K.K.K.K.U.K.K.K.U.U.U.U.U.U.U.U.U.U.U.U.U.U.U.U.U.U.U.U.U.U.U.U.K.K.[.] k ",
"J I ] +.-.8.k.v.S.S.F.F.K.K.K.K.K.K.K.K.K.K.K.K.K.K.K.K.K.K.K.U.U.U.U.U.U.U.U.U.U.K.K.K.K.U.U.U.U.U.U.U.U.U.U.U.U.U.U.U.U.U.U.U.U.R.R.R.R.R.U.U.U.U.U.U.U.U.U.U.U.U.U.U.U.U.U.U.R.U.U.U.U.U.U.U.U.U.U.K.U.R.U.K.U.U.U.U.U.U.R.R.R.R.R.R.R.U.U.U.U.U.U.U.K.K.K.K.K.K.K.U.U.U.U.K.K.K.U.U.U.U.U.U.U.U.U.U.U.U.U.U.U.U.U.U.U.U.U.U.U.U.U.U.U.U.U.U.U.U.U.U.K.U.U.U.U.U.U.U.U.U.K.U.U.U.U.U.U.U.U.U.U.U.U.K.U.U.U.U.U.U.U.U.U.U.U.U.U.U.U.U.U.U.U.U.U.U.U.U.U.U.U.U.U.U.U.U.U.U.U.U.U.U.U.U.U.U.U.U.U.U.U.U.U.U.K.K.K.K.K.K.U.U.R.R.K.K.!.U.U.R.B.s.S.F.U.U.K.K.K.K.K.U.R.U.U.U.U.U.R.U.U.U.U.U.U.U.R.R.U.U.U.U.U.U.U.U.U.U.R.R.R.U.R.R.R.R.U.U.U.U.U.U.U.U.R.R.U.U.U.U.U.U.U.U.U.U.U.U.U.U.U.U.U.U.U.K.R.U.K.U.U.K.F.S.S.z.8.4.y.k.k.s.y.y.s.y.s.F.K.F.F.K.F.F.K.K.U.U.U.U.U.U.U.U.U.U.U.U.U.U.R.R.R.R.U.R.R.R.R.R.U.U.U.U.U.U.U.U.U.U.U.U.U.U.U.U.U.U.U.U.U.K.K.K.K.K.K.K.K.K.K.K.K.K.F.S.v.B.F.U.U.K.F.F.F.K.U.K.K.K.K.K.K.K.F.F.F.F.K.U.U.U.U.U.U.R.U.U.R.R.U.U.U.U.U.U.U.U.U.U.U.U.U.U.U.U.U.U.U.U.U.U.U.U.U.U.K.K.U.U.U.U.U.K.U.U.U.U.U.U.U.U.U.U.U.U.K.K.K.U.U.U.U.K.K.K.F.F.F.F.K.U.U.U.U.U.U.U.U.U.U.U.K.K.K.K.K.K.K.K.K.K.U.K.K.K.U.U.U.U.U.U.U.U.U.U.U.U.U.U.U.K.U.U.K.U.U.U.U.U.K.U.[.] z ",
"I Q ( ..#.4.k.v.S.F.F.K.K.K.K.K.K.K.K.K.K.U.K.K.K.K.K.U.U.K.K.U.U.U.U.U.U.U.U.U.K.K.K.K.K.U.U.U.U.U.U.U.U.U.U.U.U.U.U.U.U.U.U.U.U.R.R.R.R.R.U.U.U.U.U.U.U.U.U.U.U.U.U.U.U.U.U.U.U.U.U.U.U.U.U.U.U.U.U.K.K.U.U.K.U.U.U.U.U.U.R.R.R.R.R.U.U.U.U.U.U.U.U.U.U.K.K.K.K.K.U.U.U.U.U.U.K.K.U.U.U.U.U.U.U.U.U.U.U.U.U.U.U.U.U.U.U.U.U.U.U.U.U.U.U.U.U.U.K.U.U.U.U.U.U.U.U.U.U.U.U.U.U.U.U.U.K.U.U.U.U.U.U.U.U.U.U.U.U.U.U.U.U.U.U.U.U.U.U.U.U.U.U.U.U.U.U.U.U.U.U.U.U.U.U.U.U.U.U.U.U.U.K.U.U.U.U.U.U.U.U.U.U.U.U.U.K.K.K.K.K.K.U.U.U.U.K.K.!.R.U.R.B.k.F.K.K.U.K.K.K.K.K.U.U.U.U.U.U.U.R.U.R.U.U.U.U.U.R.R.U.U.U.U.U.U.U.U.R.U.R.R.U.U.R.R.R.R.U.R.U.U.U.U.U.U.U.R.U.U.U.U.U.U.U.U.U.U.U.U.U.U.U.U.U.U.U.U.R.U.U.R.U.K.F.F.S.z.e.8.y.s.k.k.s.y.s.s.s.F.K.F.F.K.K.K.K.U.U.U.U.U.U.U.U.U.K.K.U.U.U.R.R.R.R.U.U.R.R.R.U.R.U.U.U.U.U.U.U.U.U.U.U.U.U.U.U.U.U.U.U.U.U.U.U.U.K.K.K.K.K.K.K.K.K.K.K.F.S.B.S.F.K.K.K.K.F.F.K.K.K.K.K.K.K.K.K.F.F.K.K.U.U.U.U.U.U.R.U.U.U.U.U.U.U.U.U.U.U.U.U.U.U.U.U.U.U.U.U.U.U.U.U.U.U.U.U.U.K.K.U.U.U.U.U.K.U.U.U.U.U.U.U.U.U.U.U.K.K.K.K.K.K.K.K.K.K.K.F.F.F.K.K.U.U.U.U.U.U.U.U.U.U.U.U.K.K.K.U.U.U.K.K.K.U.U.K.K.U.U.U.U.U.U.U.U.U.U.U.U.U.R.U.U.R.U.U.U.U.K.U.U.K.U.[.( z ",
"J J Q ] -.e.B.K.S.F.F.K.K.K.K.K.K.K.K.K.U.U.K.K.K.K.U.U.U.K.U.U.R.R.U.U.U.U.U.U.K.K.K.K.K.U.U.U.U.U.U.U.U.U.U.U.U.U.U.U.U.U.U.U.U.R.R.R.R.R.U.U.U.U.U.U.U.U.U.U.U.U.U.U.U.U.U.U.K.U.U.K.K.U.U.U.U.U.U.U.U.U.U.K.U.U.U.U.U.U.U.U.U.U.U.U.U.U.U.U.U.U.U.U.U.U.U.U.K.U.U.U.U.U.U.U.U.K.K.U.U.K.U.U.U.U.U.U.U.U.U.U.U.U.U.U.U.U.U.U.U.U.U.U.U.U.U.U.U.U.U.U.U.U.U.U.U.U.U.K.U.U.U.U.U.U.U.U.K.U.U.U.U.U.U.U.U.U.U.U.U.U.U.U.U.U.U.U.U.U.U.U.U.U.U.U.U.U.U.U.U.U.U.U.U.U.U.U.U.U.U.U.U.U.U.U.U.U.U.U.U.U.U.U.U.U.K.K.K.K.K.K.U.U.U.K.U.K.!.R.U.U.B.v.K.K.U.U.K.K.K.K.U.U.R.U.U.U.R.U.R.R.R.U.U.U.U.U.U.R.U.U.U.U.U.U.U.U.U.U.U.U.U.U.R.R.U.U.U.U.R.R.R.R.U.U.U.U.U.U.U.U.U.U.U.U.U.U.U.U.U.U.U.U.U.U.U.K.R.U.U.R.U.K.K.K.F.z.e.8.y.y.k.z.k.y.s.s.s.B.K.K.K.F.F.K.K.U.U.U.U.U.U.U.U.U.K.K.K.U.U.R.R.R.R.U.U.U.U.U.U.R.U.U.U.U.U.U.U.U.U.U.U.U.U.U.U.U.U.U.U.U.U.U.U.U.K.K.K.K.K.K.U.U.K.K.K.K.S.B.S.F.F.F.F.K.K.F.K.K.K.K.K.K.K.K.K.K.K.K.K.U.U.U.U.U.U.R.U.K.U.U.U.U.U.U.U.U.U.U.U.U.U.U.U.U.U.U.U.U.U.U.U.U.U.K.K.K.K.K.U.U.U.U.U.K.K.U.U.U.U.U.U.U.U.U.U.K.K.K.K.K.K.K.K.K.K.K.K.F.K.K.K.U.U.U.U.U.U.U.U.U.U.U.U.U.U.U.U.U.U.U.U.K.K.K.K.U.U.U.U.U.U.U.U.U.R.R.U.U.U.U.U.U.R.U.K.K.U.K.K.K.K.K.[.( k ",
"Q I I / #.8.z.F.S.S.F.K.K.K.K.K.K.K.K.K.K.U.K.K.K.K.K.U.U.U.U.U.R.R.U.U.U.U.U.U.K.K.K.K.K.U.U.U.U.U.U.U.U.U.U.U.U.U.U.U.U.U.U.U.U.U.R.R.R.R.U.U.U.U.U.U.U.U.U.U.U.U.U.U.U.U.U.U.R.R.U.F.F.U.R.R.U.U.U.U.U.U.U.U.U.U.U.U.U.U.U.U.U.U.U.U.U.U.U.U.U.U.U.U.U.U.U.U.U.U.U.U.U.U.U.U.U.K.K.U.K.K.K.U.U.U.U.U.U.U.U.U.U.U.U.U.U.U.U.U.U.U.U.U.U.K.U.U.U.U.U.U.U.U.U.U.U.U.U.U.U.U.U.U.U.U.U.U.U.U.U.U.U.U.U.U.U.U.U.U.U.U.U.U.U.U.U.U.U.U.U.U.U.U.U.U.U.U.U.U.U.U.U.U.U.U.U.U.U.U.U.U.U.U.U.U.U.U.U.U.U.U.U.U.U.K.K.K.K.K.K.U.U.U.U.K.U.U.!.!.U.K.S.F.K.K.K.K.U.U.K.K.K.U.R.R.U.R.R.R.R.R.R.R.U.U.U.U.U.U.U.U.U.U.U.U.U.U.U.U.U.U.U.U.U.U.U.U.U.U.R.R.R.R.U.U.U.U.U.U.U.U.U.U.U.U.U.U.U.U.U.U.U.U.U.U.U.K.U.U.U.R.K.F.K.F.S.k.8.8.e.e.s.k.z.y.y.s.y.k.F.F.F.F.F.K.K.U.U.U.U.U.U.U.U.U.K.K.U.U.U.R.R.!.R.U.U.U.U.U.U.R.U.U.U.U.U.U.U.U.U.U.U.U.U.U.U.U.U.U.K.U.U.U.U.U.K.K.K.K.K.K.U.U.K.U.U.K.S.B.S.K.K.F.F.F.K.K.F.K.K.K.K.K.K.K.K.K.K.K.K.K.K.K.K.U.R.R.U.K.U.R.U.U.U.U.U.U.U.U.U.U.U.U.U.U.U.U.U.U.U.U.U.U.U.K.K.K.K.K.K.U.U.U.U.U.K.U.U.U.U.U.U.U.U.U.U.K.K.K.K.K.K.K.K.K.K.K.K.K.K.K.U.K.K.U.U.U.U.U.U.U.U.U.U.U.U.U.U.U.U.U.U.U.K.U.U.U.U.U.U.U.U.U.U.U.R.U.U.U.U.U.U.U.U.U.K.F.U.F.K.F.K.K.[.] k ",
"/ Q I Q ] ;.e.v.B.S.F.K.K.K.K.K.K.K.K.K.K.K.K.K.K.K.K.U.U.K.U.U.R.R.U.U.U.U.U.U.K.K.K.K.U.U.U.U.U.U.U.U.U.U.U.U.U.U.U.U.U.U.U.U.U.U.R.R.R.R.U.U.U.U.U.U.U.U.U.U.U.U.U.U.U.U.U.U.K.F.S.v.v.S.K.K.K.U.U.U.K.K.U.U.U.U.U.U.U.U.U.U.U.U.U.U.U.U.U.U.U.U.U.U.U.U.U.U.U.U.U.U.U.U.U.U.U.U.K.U.K.K.K.U.U.U.U.U.U.U.U.U.U.U.U.U.U.U.U.U.U.U.U.U.U.U.U.U.U.U.U.U.U.U.U.U.U.U.U.U.U.U.U.U.U.U.U.U.U.U.U.U.U.U.U.U.U.U.U.U.U.U.U.U.U.U.U.U.U.U.U.U.U.U.U.U.U.U.U.U.U.U.U.U.U.U.U.U.U.U.U.U.U.U.U.U.U.U.U.U.U.U.U.U.K.K.K.K.K.K.U.U.U.U.U.U.U.U.!.!.K.F.F.U.K.K.K.K.K.K.K.K.U.U.R.R.R.R.R.R.R.U.U.U.U.U.U.R.U.U.U.U.U.U.U.U.U.U.U.U.U.U.U.U.U.U.U.U.U.U.U.R.R.R.R.R.U.U.U.U.U.U.U.U.U.U.U.U.U.U.U.U.U.U.R.R.U.U.R.U.U.R.K.S.F.S.B.s.8.8.e.8.s.s.k.y.y.s.y.s.B.F.F.F.K.K.K.U.U.U.U.K.K.K.U.U.K.K.U.U.R.R.R.!.R.U.U.U.U.U.U.U.U.U.U.U.U.U.U.U.U.U.U.U.U.U.U.U.U.K.K.U.U.U.U.K.K.K.K.K.K.K.K.K.K.U.U.U.F.S.S.B.F.K.F.K.U.K.F.F.K.K.K.K.K.K.K.U.K.K.K.K.K.K.U.U.R.R.K.F.K.R.R.R.U.U.U.U.U.U.U.U.U.U.U.U.U.U.U.U.U.U.U.U.U.K.K.K.K.K.K.U.U.U.U.U.K.K.U.U.U.K.U.U.U.U.U.K.U.K.K.K.K.K.U.U.U.U.U.U.K.K.K.K.U.U.U.U.U.U.U.U.U.U.U.U.U.U.U.U.U.U.U.U.K.U.U.U.U.K.U.U.U.U.U.U.U.U.U.U.U.U.U.U.U.R.U.U.U.K.K.F.K.K.[.] z ",
"Q Q J J ( -.8.v.B.B.S.F.K.K.K.K.F.F.F.F.K.K.K.K.K.K.K.K.K.K.K.U.R.R.U.U.U.U.U.U.U.K.K.K.U.U.U.U.U.U.U.U.U.U.U.U.U.U.U.U.U.U.U.U.U.U.R.R.R.R.U.U.U.U.U.U.U.U.U.U.U.U.U.U.U.U.U.U.R.U.U.F.F.K.U.U.K.U.U.U.U.U.U.U.U.U.U.U.U.U.U.U.U.U.U.U.U.U.U.U.U.U.U.U.U.U.U.U.U.U.U.U.U.U.U.U.U.U.U.U.K.K.K.U.U.U.U.U.U.U.U.U.U.U.U.U.U.U.U.U.U.U.U.U.U.U.K.U.U.U.U.U.K.U.U.U.U.U.U.U.U.U.U.U.U.U.U.U.U.U.U.U.U.U.U.U.U.U.U.U.U.U.U.U.U.U.U.U.U.U.U.U.U.U.U.U.U.U.U.K.K.U.U.U.U.U.U.U.U.U.U.U.U.U.U.U.U.U.U.U.U.U.U.K.K.K.K.K.K.U.U.U.U.U.U.U.U.U.R.R.F.S.F.U.K.K.K.K.K.K.K.K.U.U.R.R.R.R.R.R.U.U.U.U.U.U.R.R.U.U.U.U.U.U.U.U.U.U.U.U.U.U.U.U.U.U.U.U.U.U.R.R.R.R.R.R.U.U.U.U.U.U.U.U.U.U.U.U.U.U.U.U.R.R.R.R.R.U.R.U.U.U.F.B.S.S.v.y.4.8.e.e.e.e.y.y.y.s.y.s.B.K.K.F.K.U.K.U.U.U.K.K.K.K.U.K.K.K.U.U.U.R.!.!.R.U.U.U.U.U.U.U.U.U.U.U.U.U.U.U.U.U.U.U.U.U.U.U.U.K.K.U.U.U.K.K.K.K.K.U.K.K.K.K.U.U.K.K.U.U.S.k.k.S.K.K.K.F.F.K.K.K.K.K.K.K.K.K.K.K.K.K.K.K.U.U.U.U.F.S.F.U.R.R.U.U.U.U.U.U.U.U.U.U.U.U.U.U.U.U.U.U.U.U.U.K.K.K.K.K.K.U.U.U.U.U.K.K.U.U.U.K.U.U.U.U.U.U.U.U.K.K.U.U.U.U.U.U.U.U.K.K.K.K.U.U.U.U.U.U.U.U.U.U.U.U.U.U.U.U.U.U.U.K.K.K.U.U.K.K.U.U.U.U.U.U.U.U.U.U.K.U.U.K.R.!.!.R.R.U.K.K.K.K.[.] z ",
"( / G G ( #.4.k.B.B.S.F.F.F.K.K.F.F.F.F.K.K.K.K.K.K.K.U.K.K.K.U.U.U.U.U.U.U.U.U.U.U.K.U.U.U.U.U.U.U.U.U.U.U.U.U.U.U.U.U.U.U.U.U.U.U.R.R.U.R.U.U.U.U.U.U.U.U.U.U.U.U.U.U.U.U.U.U.U.U.U.U.U.U.U.U.U.U.U.U.U.U.U.U.U.U.U.U.U.U.U.U.U.U.U.U.U.U.U.U.U.U.U.U.U.U.U.U.U.U.U.U.U.U.U.U.U.U.U.U.U.K.K.K.U.U.U.U.U.U.U.U.U.U.U.U.U.U.U.U.U.U.U.U.U.U.U.U.U.U.U.U.U.U.U.U.U.U.U.U.U.U.U.K.U.U.U.U.U.U.U.U.U.U.U.U.U.U.U.U.U.U.U.U.U.U.U.U.U.U.U.U.U.U.U.U.U.U.U.K.K.U.U.U.U.U.U.U.U.U.U.U.U.R.U.U.U.U.R.U.U.U.U.U.U.U.U.U.U.U.U.R.U.U.U.U.U.U.U.U.S.B.F.U.K.K.K.K.K.K.K.K.K.U.R.R.U.R.R.R.U.U.U.U.R.R.R.R.R.R.U.U.U.U.U.U.U.U.U.U.U.U.U.U.U.U.U.U.U.U.U.U.U.R.R.R.R.R.U.U.U.U.U.U.U.U.U.U.U.U.U.U.R.R.U.U.R.U.U.U.U.U.S.v.B.B.v.y.3.8.e.8.e.4.8.e.y.s.y.s.B.K.K.F.K.U.U.R.U.U.K.K.K.U.U.U.K.U.U.U.R.R.!.!.R.R.U.U.U.U.U.U.U.U.U.U.U.U.U.U.U.U.U.U.U.U.U.U.K.K.K.K.U.K.K.K.K.K.U.U.U.U.K.K.U.U.K.K.U.R.F.k.e.B.F.F.F.F.F.K.K.K.K.K.K.K.K.K.K.K.K.K.K.K.K.K.U.U.F.B.S.U.U.U.U.U.U.U.U.U.U.U.U.U.U.U.U.U.U.U.U.U.U.U.U.K.K.K.K.K.K.U.U.U.U.U.K.U.U.U.U.U.U.U.U.U.U.U.U.K.U.K.K.K.K.K.K.K.U.U.K.K.K.K.U.U.U.U.U.U.U.U.U.U.U.U.U.U.U.U.U.U.K.K.K.K.U.U.K.K.U.U.U.U.U.U.U.U.U.K.K.U.K.K.R.!.!.R.!.U.U.U.K.K.(.( z ",
"/ Q N C / #.4.k.B.S.S.F.F.F.F.F.F.F.F.F.K.K.K.K.K.K.K.U.K.K.K.U.U.U.U.U.U.U.U.U.U.K.K.K.K.U.U.U.U.U.U.U.U.U.U.U.U.U.U.U.U.U.U.U.U.U.R.R.U.U.U.U.U.U.U.U.U.U.U.U.U.U.U.U.U.U.U.U.U.K.U.U.U.K.K.K.U.K.U.U.U.U.U.U.U.U.U.U.U.U.U.U.U.U.U.U.U.U.U.U.U.U.U.U.U.U.U.U.U.U.U.U.U.U.U.U.U.U.U.U.U.K.K.K.U.U.U.U.U.U.U.U.U.U.U.U.U.U.U.U.U.U.U.U.U.U.U.U.U.K.U.U.U.U.U.U.U.U.U.K.U.U.U.U.U.U.U.U.K.U.U.U.U.U.U.U.U.U.U.U.U.U.U.U.U.U.U.U.U.U.U.U.U.U.U.U.U.U.U.K.K.U.U.U.U.U.U.U.U.U.U.U.U.U.U.U.U.U.U.U.U.U.U.U.U.U.U.U.U.U.R.R.U.U.U.U.U.U.U.K.S.B.K.U.K.K.K.K.K.K.K.U.U.U.R.R.U.R.R.R.U.U.U.R.R.R.R.R.R.R.U.U.U.U.U.U.U.U.U.U.U.U.U.U.U.U.U.U.U.U.U.U.U.R.R.R.R.R.R.R.U.U.U.U.U.U.U.U.U.U.U.U.U.U.U.U.R.U.R.U.U.R.F.v.v.B.v.e.3.4.e.8.e.;.3.8.e.y.y.s.B.U.K.F.K.U.K.R.R.U.K.K.U.U.U.U.U.U.U.U.R.R.!.!.R.R.U.U.U.U.U.U.U.U.U.U.U.U.U.U.K.K.K.K.K.K.K.K.K.K.K.K.K.K.K.K.K.K.U.U.U.U.U.K.K.U.K.F.K.R.K.v.s.F.K.S.F.K.F.F.K.K.K.K.K.K.K.K.K.K.K.K.K.K.K.K.K.U.F.B.S.K.U.U.U.U.U.U.U.U.U.U.U.U.U.U.U.U.U.U.U.U.U.U.U.K.K.K.K.K.K.U.U.U.U.U.K.U.U.U.U.U.U.U.U.U.U.U.U.U.K.K.K.K.K.K.K.K.K.K.K.K.K.K.U.U.U.U.U.U.U.U.U.U.U.U.U.U.U.U.U.K.K.K.K.K.U.U.K.K.U.U.U.U.U.U.U.U.K.K.K.U.U.K.R.!.R.R.!.R.R.R.U.K.(.( k ",
"( G k N ] ;.4.k.B.v.S.F.F.F.F.F.F.F.F.K.K.K.K.U.U.U.K.K.K.K.K.K.U.U.U.U.U.U.U.U.K.K.K.K.K.U.U.U.U.U.U.U.U.U.U.U.U.U.U.U.U.U.U.U.U.U.R.R.R.U.U.U.U.U.U.U.U.U.U.U.U.U.U.U.U.U.U.K.R.R.R.R.U.U.R.R.U.U.K.U.U.U.U.U.U.U.U.U.U.U.U.U.U.U.U.U.U.U.U.U.U.U.U.U.U.U.U.U.U.U.U.U.U.U.U.U.U.U.U.U.K.K.K.K.U.U.U.U.U.U.U.U.U.U.U.U.U.U.U.U.U.U.U.U.U.U.U.U.U.U.U.U.U.U.U.U.U.U.U.U.U.U.U.U.U.K.U.K.K.U.K.U.U.U.U.U.U.K.U.U.U.U.U.U.U.U.U.U.U.U.U.U.U.U.U.U.U.U.U.U.U.U.U.U.U.U.R.R.U.U.U.R.U.U.U.U.U.U.U.U.U.U.U.U.U.U.R.R.R.R.U.U.U.U.U.K.K.R.U.K.K.F.K.K.K.U.U.U.U.U.U.U.U.U.R.R.R.R.U.R.R.R.U.U.U.U.U.U.U.U.U.U.U.U.U.U.U.U.U.U.U.U.U.U.U.U.R.U.U.U.U.U.R.R.R.R.R.R.R.R.U.U.U.U.U.U.U.U.U.U.K.K.U.U.U.U.R.U.R.U.U.R.K.B.z.z.z.8.;.3.4.4.4.3.3.8.s.s.e.y.B.K.F.S.K.K.U.U.U.U.K.K.K.K.U.K.K.K.K.U.R.U.!.R.R.R.U.U.U.U.U.K.K.K.U.U.U.U.U.U.U.U.K.K.K.K.K.K.U.U.U.U.K.K.K.K.K.K.U.U.K.K.K.K.K.K.U.U.K.K.K.U.v.S.S.F.F.F.F.K.K.K.K.K.K.K.K.K.K.K.K.K.K.K.K.K.K.F.F.F.K.U.U.U.R.U.U.U.U.U.U.U.U.U.U.U.U.U.U.U.U.U.U.U.U.U.K.K.K.K.K.U.U.U.U.K.K.U.U.U.U.U.K.U.U.U.U.U.U.U.K.K.K.K.K.K.K.K.K.K.K.K.K.K.K.U.U.U.U.U.U.U.U.U.U.U.U.U.U.U.K.F.F.F.F.K.U.U.K.U.U.U.U.U.U.U.U.K.K.K.K.R.R.R.!.U.U.R.R.K.R.R.U.U.[.] z ",
"Q C z N / ;.8.z.B.v.S.S.S.F.F.F.F.F.F.K.K.K.K.K.K.U.K.K.K.K.K.K.U.U.U.U.U.U.U.K.K.K.K.K.K.U.U.U.U.U.U.U.U.U.U.U.U.U.U.U.U.U.U.U.U.U.R.R.R.U.U.U.U.U.U.U.U.U.U.U.U.U.U.U.U.U.U.U.U.U.U.U.K.K.U.U.U.U.U.U.U.U.U.U.U.U.U.U.U.U.U.U.U.U.U.U.U.U.U.U.U.U.U.U.U.U.U.U.U.U.U.U.U.U.U.U.U.U.U.U.U.K.K.K.K.K.K.U.U.U.U.U.U.U.U.U.U.U.U.U.U.U.U.U.U.U.U.U.U.U.U.U.U.U.U.U.U.U.U.U.U.U.U.U.U.K.U.U.U.U.K.U.U.K.K.U.U.K.U.U.U.U.U.U.U.U.U.U.U.U.U.U.U.U.U.U.U.U.U.U.U.U.U.U.U.U.U.R.U.U.U.U.U.U.U.U.U.U.U.U.U.U.U.U.U.U.R.R.R.R.U.U.U.U.K.K.U.R.K.K.U.U.U.U.U.U.U.U.U.U.U.U.U.U.R.R.R.R.R.R.R.R.U.U.U.U.U.U.U.U.U.U.U.U.U.U.U.U.U.U.U.U.U.U.U.U.R.R.U.U.U.U.R.R.R.R.R.R.R.R.U.U.U.U.U.U.U.U.U.U.K.K.U.U.U.R.R.U.R.U.U.!.K.v.z.z.k.8.;.;.3.3.3.4.8.e.y.s.y.s.B.K.F.F.K.K.K.U.U.K.K.K.K.K.U.K.U.K.K.K.K.U.!.!.U.U.U.U.U.U.U.U.K.K.U.U.U.U.U.U.U.K.K.K.K.K.K.K.U.U.U.U.K.K.K.K.K.K.U.U.K.U.K.K.K.K.U.U.K.K.K.U.S.S.B.S.K.F.F.K.K.K.K.K.K.K.K.K.K.U.K.K.K.K.K.K.U.K.K.K.U.U.U.U.U.U.U.U.U.U.U.U.U.U.U.U.U.U.U.U.U.U.U.U.U.U.K.K.K.K.K.U.U.U.U.K.K.K.U.U.K.K.U.U.U.U.U.U.U.U.K.K.K.K.K.K.K.K.K.K.K.K.K.K.K.U.U.U.U.U.U.U.U.U.U.U.U.U.U.U.K.F.F.K.K.K.U.U.K.U.U.U.U.U.K.K.K.K.K.K.F.U.K.K.!.R.F.S.U.K.R.U.U.U.(.( z ",
"I C N C Q ;.y.z.B.v.S.S.S.F.F.F.F.F.K.K.K.K.K.K.K.K.K.K.K.K.K.K.K.U.U.U.U.U.K.K.K.K.K.K.K.U.U.U.U.U.U.U.U.U.U.U.U.U.U.U.U.U.U.U.U.U.R.R.R.R.U.U.U.U.U.U.U.U.U.U.U.U.U.U.U.U.U.U.U.U.U.K.K.K.U.U.U.U.U.U.U.U.U.U.U.U.U.U.U.U.U.U.U.U.U.U.U.U.U.U.U.U.U.U.U.U.U.U.U.U.U.U.U.U.U.U.U.U.U.U.U.K.K.K.K.K.K.K.K.K.K.U.U.U.U.U.U.U.U.U.U.U.U.U.U.U.U.U.U.K.U.U.U.U.K.U.U.U.U.K.U.U.U.U.U.K.U.K.U.U.K.K.U.U.K.U.K.K.U.U.U.U.U.U.U.U.U.U.R.R.U.U.U.U.R.R.U.U.U.U.U.U.U.U.U.U.U.U.U.U.U.U.U.U.U.U.U.U.U.U.U.U.U.U.U.R.R.R.R.R.U.U.U.U.U.U.U.U.F.F.U.R.R.U.U.U.U.U.U.U.U.U.U.U.R.R.R.R.U.R.R.R.R.R.R.R.R.R.U.U.U.U.U.U.U.U.U.U.U.U.U.U.U.U.U.U.R.R.R.R.U.U.R.U.R.R.U.U.U.U.U.U.U.U.U.U.U.U.U.U.U.U.U.U.U.U.R.U.R.U.U.R.K.v.v.k.k.8.;.3.3.4.y.s.s.e.8.8.4.8.B.K.F.F.F.F.K.K.K.K.K.K.U.U.K.K.U.K.K.K.K.U.U.!.U.U.U.U.U.K.K.K.K.K.U.U.U.U.U.U.K.K.K.K.K.K.K.K.K.K.K.K.K.K.U.U.K.K.U.U.U.U.U.U.K.K.U.U.K.K.K.U.K.S.B.S.K.F.F.K.U.K.K.K.K.K.K.K.K.K.K.K.K.K.K.K.K.K.K.K.K.U.K.K.K.K.K.K.K.U.U.U.U.U.U.U.U.U.U.U.U.U.U.K.U.K.K.K.K.K.K.U.U.U.K.K.K.K.K.K.K.K.U.U.U.U.U.U.U.K.K.K.K.K.K.K.K.K.K.K.K.K.K.K.K.U.U.U.K.U.U.U.U.U.U.U.U.U.U.U.K.K.K.K.K.U.U.U.U.U.U.U.U.K.K.K.K.K.K.K.K.R.U.K.U.F.B.F.F.S.K.K.!.!.[.] k ",
"I C G J Q -.e.k.B.B.S.S.S.K.F.F.K.K.K.K.K.K.K.K.K.K.K.K.K.K.K.K.K.U.U.U.U.U.K.K.K.K.K.K.K.U.U.U.U.U.U.U.U.U.U.U.U.U.U.U.U.U.U.U.U.U.U.R.R.R.U.U.U.U.U.U.U.U.U.U.U.U.U.K.U.U.R.U.R.R.U.U.U.U.U.U.U.U.U.U.U.U.U.U.U.U.U.U.U.U.U.U.U.U.U.U.U.U.U.U.U.U.U.U.U.U.U.U.U.U.U.U.U.U.U.U.U.U.U.U.U.K.K.K.K.K.K.K.K.K.K.K.K.U.U.U.U.U.U.U.U.U.U.U.U.U.U.U.U.U.U.U.U.U.U.U.U.U.U.U.U.U.U.U.U.K.K.K.K.U.K.K.U.U.U.U.U.K.U.U.U.U.U.U.U.U.U.U.R.R.U.U.U.U.R.R.U.U.U.U.U.U.U.U.U.U.U.U.U.U.U.U.U.U.U.U.U.U.U.U.U.U.U.U.U.R.R.R.R.U.U.U.U.U.U.U.K.K.B.S.U.U.U.U.U.U.U.U.U.U.U.U.U.U.U.U.U.R.U.U.R.R.U.U.R.R.R.R.U.U.U.U.U.U.U.U.U.U.U.U.U.U.U.U.U.U.R.R.R.U.U.U.R.R.R.R.U.U.U.U.U.U.U.U.U.U.U.U.U.U.U.U.U.U.U.U.R.U.R.U.U.!.K.v.z.k.k.e.3.4.8.e.s.y.e.3.;.;.;.8.v.K.F.F.F.F.K.K.K.K.K.K.K.U.K.U.U.U.R.R.!.!.R.R.R.R.R.U.U.U.K.K.K.K.U.U.U.U.U.U.K.K.K.K.K.K.K.U.K.K.K.K.U.U.U.U.K.K.K.U.U.U.U.K.K.U.U.U.U.K.K.U.U.S.v.S.K.F.F.U.U.K.K.K.K.K.K.K.K.K.K.K.K.K.K.K.K.K.K.K.K.K.K.K.K.K.K.K.K.K.K.K.U.U.U.U.U.U.U.U.U.U.K.K.K.K.K.K.K.K.K.U.U.U.K.K.K.K.K.K.K.K.U.U.U.U.U.U.U.K.K.K.K.K.K.K.K.K.K.K.K.K.K.K.U.U.U.U.K.K.K.U.U.U.U.U.U.U.U.U.K.K.K.K.U.U.U.U.U.U.U.U.K.K.K.K.K.K.K.F.K.U.(.!.F.B.S.U.K.K.K.K.!.!.(.] d ",
"Q G Q / / #.8.s.B.B.F.F.F.K.K.K.K.K.K.U.K.K.K.K.K.K.K.K.K.K.K.K.K.U.U.U.U.U.K.K.K.K.K.K.K.K.U.U.U.U.U.U.U.U.U.U.U.U.U.U.U.U.U.U.U.U.U.R.R.R.U.U.U.U.U.U.U.U.U.U.U.U.U.K.U.U.R.U.U.U.U.U.U.U.U.U.U.U.U.U.U.U.U.U.U.U.U.U.U.U.U.U.U.U.U.U.U.U.U.U.U.U.U.U.U.U.U.U.U.U.U.U.U.U.U.U.U.U.U.K.K.K.K.K.K.K.K.K.K.K.U.K.K.K.K.U.U.U.U.U.U.U.U.U.U.U.U.U.U.U.U.U.U.U.U.K.U.U.K.U.U.U.U.U.U.K.K.F.K.U.K.F.U.U.U.U.U.U.U.U.U.U.U.U.U.U.U.U.U.U.U.U.U.U.U.U.R.U.U.U.U.R.U.U.U.U.U.U.U.U.U.U.U.U.U.U.U.U.U.U.U.U.U.U.U.R.R.R.R.U.U.U.K.K.U.U.U.K.B.F.U.U.U.U.U.U.U.R.U.U.R.R.R.U.U.U.U.U.U.U.U.U.U.U.R.U.U.U.U.U.U.U.U.U.U.U.U.U.U.U.U.U.U.U.U.U.U.U.R.R.R.R.U.U.R.R.R.R.R.R.U.U.U.U.U.U.U.U.U.U.U.U.U.R.R.R.U.U.R.U.U.R.K.v.z.s.s.8.;.3.4.e.e.4.3.;.;.;.;.8.v.K.F.F.F.F.K.K.K.K.K.K.U.K.K.K.F.F.K.K.R.R.K.F.R.R.U.U.U.U.K.K.U.K.U.U.U.U.U.U.K.K.K.K.K.K.U.U.K.K.U.K.K.K.U.U.K.K.U.U.U.U.K.K.K.K.U.U.U.U.K.K.U.S.v.S.K.F.F.U.U.K.K.K.K.K.K.K.K.K.K.K.K.K.K.K.K.K.K.K.K.K.K.U.K.K.K.K.U.U.U.U.U.U.U.U.U.U.U.U.U.K.K.K.K.K.K.K.K.K.U.U.U.U.U.K.K.K.K.K.U.U.U.U.U.U.U.U.U.U.K.K.K.K.K.K.K.K.K.K.K.U.U.U.U.U.U.U.U.U.K.U.U.U.U.U.U.U.U.U.K.K.K.K.U.U.U.U.U.U.U.U.K.K.K.K.K.K.F.F.F.S.!.R.S.F.K.F.K.K.F.S.U.!.[...d ",
"( Q ] ] ] -.8.y.z.v.F.F.F.U.K.K.U.K.K.K.K.K.K.K.K.K.K.K.K.K.K.K.K.U.U.U.K.K.K.K.K.K.K.K.K.K.U.U.U.U.U.U.U.U.U.U.U.U.U.U.U.U.U.U.U.U.U.R.U.U.U.U.U.U.U.U.U.U.U.U.U.U.U.K.K.U.U.U.U.U.U.U.U.U.U.K.U.K.K.K.U.U.U.U.U.U.U.U.U.U.U.U.U.U.U.U.U.U.U.U.U.U.U.U.U.U.U.U.U.U.U.U.U.U.U.U.U.K.K.K.K.K.K.K.K.K.K.K.K.K.K.K.K.K.K.K.K.U.U.U.U.U.U.U.U.U.U.U.U.U.U.U.U.U.U.U.U.U.U.U.U.U.U.U.K.K.K.F.F.U.F.F.U.U.U.U.U.U.U.U.U.U.U.U.U.U.U.U.U.U.U.U.U.U.U.U.U.U.U.U.U.R.R.R.U.U.U.U.U.U.U.U.U.U.U.U.U.U.U.U.U.U.U.U.U.U.U.U.U.U.U.U.K.K.U.U.U.K.B.S.U.K.U.U.U.U.U.R.U.U.R.R.R.R.U.U.U.R.U.U.R.U.U.U.R.U.U.U.U.U.U.U.U.U.U.U.U.U.U.U.U.U.U.U.U.U.R.U.R.R.R.R.U.U.R.R.R.R.R.R.U.U.U.U.U.U.U.U.U.U.U.U.U.R.R.R.U.U.R.U.U.R.F.z.k.s.y.3.#.;.3.3.8.;.;.;.3.;.#.3.z.F.F.F.F.F.K.K.K.K.U.U.K.K.K.U.U.R.F.K.R.K.U.R.U.U.K.K.K.U.K.K.U.U.K.U.U.U.U.K.U.U.K.K.K.K.U.U.K.K.U.U.K.K.K.K.K.K.U.U.K.K.K.K.K.K.U.U.U.U.K.K.K.S.v.B.K.K.K.U.K.K.K.K.K.K.K.K.K.K.K.K.K.K.K.K.K.K.K.K.K.K.K.U.K.K.K.K.K.U.U.U.U.U.U.U.U.U.U.U.U.K.K.K.K.K.U.U.K.U.U.U.U.K.K.K.U.U.U.U.U.U.U.U.U.U.U.U.U.U.K.K.K.K.K.K.K.K.K.K.K.U.U.U.U.U.U.U.U.U.K.U.U.U.U.U.U.U.U.U.K.K.K.K.U.U.U.U.U.U.K.K.K.K.K.K.K.F.F.F.F.F.R.F.v.U.U.B.F.S.S.B.K.!. X#.k ",
"] ( ..] ( -.4.e.y.s.B.S.S.K.K.K.K.K.K.K.K.F.K.K.U.U.K.K.K.K.K.K.K.K.U.K.K.K.K.K.K.K.K.K.K.K.U.U.U.U.U.U.U.U.U.K.U.U.U.U.U.U.U.U.U.U.U.U.U.U.K.K.U.K.K.K.K.K.K.U.U.U.K.K.K.K.K.K.K.K.K.K.U.U.U.U.U.K.K.K.K.U.U.U.U.U.U.U.U.U.U.U.U.U.U.U.U.U.U.U.U.U.U.U.U.U.U.U.U.U.U.U.U.U.U.K.K.K.K.K.K.K.K.K.K.K.K.K.K.K.K.K.K.K.K.K.K.U.U.U.U.U.U.U.U.U.K.U.K.U.U.U.U.U.U.U.U.U.U.U.U.U.U.U.U.K.K.F.F.U.F.F.K.K.U.U.U.K.U.U.U.U.U.U.U.U.U.U.U.U.U.U.U.U.U.U.U.U.U.R.U.U.U.U.U.U.K.K.U.U.U.U.U.U.U.U.U.U.U.U.U.U.U.U.U.U.U.U.U.U.U.U.K.K.U.U.U.F.v.S.U.K.U.U.U.U.U.U.U.U.R.R.R.R.U.U.R.R.U.U.R.R.R.R.U.U.U.U.U.U.U.U.U.U.U.U.U.U.U.U.U.U.U.U.U.U.U.U.U.U.U.U.U.U.U.U.R.U.U.R.U.U.U.U.U.U.U.U.U.U.U.U.U.R.U.U.U.U.R.U.U.R.S.k.y.y.e.;.+.-.;.;.;.-.;.3.3.3.;.4.z.K.F.F.F.F.K.K.K.U.U.U.U.K.K.U.U.R.S.U.U.z.S.!.K.K.U.U.U.K.U.U.U.U.K.K.U.U.U.K.U.U.U.K.K.K.K.U.K.U.U.U.K.K.K.K.K.K.K.U.K.K.K.K.K.K.K.K.U.K.K.K.K.S.v.B.K.K.K.U.K.K.K.K.K.K.K.K.K.K.K.K.K.K.K.K.K.K.K.K.K.K.K.K.K.K.K.K.K.K.K.K.K.K.K.U.U.U.U.U.U.K.K.K.K.K.K.K.K.K.U.U.K.K.K.K.U.U.U.U.U.U.U.U.U.U.K.U.K.K.K.K.K.K.K.K.K.K.K.K.K.K.U.U.U.U.U.U.U.U.K.U.U.U.U.U.U.U.U.K.K.K.K.K.U.U.U.K.K.U.K.K.K.F.K.K.F.F.F.F.K.K.!.S.v.F.B.z.K.F.K.S.S.U. X+.k ",
"( ] ../ / #.3.3.4.8.k.v.B.F.K.F.K.K.K.K.F.F.F.K.U.U.K.K.K.K.K.K.K.K.K.K.K.K.K.K.K.K.K.K.K.K.U.U.U.U.U.U.U.K.K.K.U.U.U.U.U.U.U.U.U.U.U.U.U.K.K.K.K.K.K.K.K.K.K.K.U.K.K.F.F.K.K.F.F.F.F.F.K.U.U.U.U.K.K.K.K.U.U.U.U.U.U.U.U.U.U.U.U.U.U.U.U.U.U.U.U.U.U.U.U.U.U.U.U.U.U.U.U.K.K.K.U.K.K.K.K.K.K.K.K.K.K.K.K.K.K.K.K.K.K.K.K.U.U.U.U.U.U.U.U.U.U.U.U.U.U.U.U.U.U.U.U.U.U.U.U.U.U.U.U.U.U.K.K.U.F.S.K.K.K.U.U.K.K.U.U.U.U.U.U.U.U.U.U.U.U.U.U.U.U.U.U.U.U.U.U.U.U.U.U.U.K.K.U.U.U.U.U.U.U.U.U.U.U.U.U.U.U.U.U.U.U.U.U.U.U.U.K.U.U.U.U.F.v.S.U.U.U.U.U.U.U.U.U.U.R.U.R.R.U.U.R.R.R.R.R.R.U.U.U.U.U.U.U.U.U.U.U.U.U.U.U.U.U.U.U.U.U.U.U.U.U.U.U.U.U.U.U.U.U.U.U.U.U.U.U.U.U.U.U.U.U.U.U.U.U.U.R.R.U.R.U.U.R.U.U.U.B.s.e.y.e.-...-.;.;.;.3.4.3.3.;.;.4.v.K.K.F.F.F.K.K.U.U.U.U.U.K.K.U.K.U.S.R.K.8.z.R.F.K.R.R.U.K.U.U.U.U.K.K.U.U.K.K.U.U.U.U.K.K.U.U.K.K.U.U.K.K.K.K.K.K.K.U.K.K.K.K.K.K.K.K.K.U.K.K.U.F.v.B.K.U.K.K.K.K.K.K.K.K.K.K.K.K.K.K.K.K.K.K.U.K.K.K.K.K.K.K.K.K.U.U.U.U.U.U.K.K.K.K.K.K.K.K.U.K.K.K.K.K.K.K.K.K.K.K.K.K.K.K.U.U.U.U.U.U.U.U.K.K.K.K.K.K.K.K.K.K.K.K.K.K.K.K.K.K.K.U.U.U.U.U.U.U.K.K.U.U.U.K.K.K.U.K.F.F.K.K.U.U.U.U.U.U.K.K.K.F.F.F.F.F.F.F.S.F.U.F.K.S.y.s.F.S.K.S.B.K. X+.k ",
"( ( ( / J ] 4.;.;.4.k.k.z.B.S.F.U.K.F.K.F.F.F.F.K.F.U.U.F.U.K.K.K.F.K.K.F.U.K.K.K.K.K.K.U.U.U.U.U.U.U.U.K.K.U.U.U.U.U.U.U.U.U.K.U.U.U.K.K.K.S.F.S.F.K.K.U.K.K.K.U.F.K.K.F.K.F.F.S.F.K.F.F.K.U.U.K.K.F.F.K.U.U.U.U.U.U.U.U.U.U.K.K.U.R.U.U.U.U.U.U.U.U.R.U.K.R.U.U.K.F.K.U.U.F.F.F.U.K.K.K.K.U.K.U.K.F.F.K.U.K.K.F.U.K.U.K.K.U.K.K.U.U.K.U.U.K.K.U.U.U.K.U.U.U.U.U.U.U.K.U.U.K.K.K.K.U.F.F.K.F.F.U.K.K.U.U.F.K.U.K.U.U.K.U.U.K.U.U.U.U.U.U.U.U.U.K.U.U.U.U.U.U.U.U.K.K.K.U.K.K.K.U.U.U.K.K.U.K.K.K.R.K.U.U.K.U.U.K.U.U.U.K.K.U.K.U.F.B.S.U.R.U.R.U.U.U.U.U.U.U.U.U.U.U.U.U.U.R.R.R.U.U.U.U.U.U.U.U.U.U.U.U.U.U.U.U.U.U.U.U.U.U.U.R.U.U.U.U.U.U.U.U.U.U.R.U.U.U.U.U.R.R.R.U.U.U.U.U.U.U.R.R.U.U.U.U.K.U.U.U.!.F.k.e.y.e.;...-.4.;.3.-.3.;.3.3.#.8.v.K.K.F.F.F.K.K.U.U.U.K.K.U.U.K.U.K.U.!.R.S.S.U.R.U.U.U.R.R.U.U.R.K.K.U.U.U.U.K.K.U.K.K.K.U.U.K.K.U.K.U.U.K.U.K.U.U.K.K.K.K.K.K.U.U.U.K.K.K.K.K.U.F.B.B.F.K.F.K.F.U.K.K.U.K.K.K.U.K.K.K.K.K.K.K.K.K.K.K.K.K.K.K.K.K.K.K.K.U.K.K.K.K.K.U.K.K.U.K.K.K.U.K.K.K.K.K.F.K.K.K.K.F.F.K.U.U.U.K.K.K.K.K.K.K.K.K.K.K.K.K.K.K.K.K.K.K.U.K.K.K.U.U.U.K.U.U.U.K.K.K.K.K.K.K.K.K.K.K.F.F.K.K.K.K.U.K.K.K.K.K.K.F.F.K.F.F.F.K.K.U.U.!.!.B.e.;.4.e.S.B.S.F.(.+.d ",
"( / Q I I / +.4.4.4.s.s.s.v.B.B.K.F.F.F.F.S.F.F.U.K.U.K.F.U.U.K.K.K.U.U.K.K.K.K.K.K.K.K.K.K.K.U.U.K.K.U.U.U.U.F.K.U.U.U.U.U.U.U.U.K.U.U.K.F.S.S.K.K.K.K.K.U.U.U.U.K.U.K.F.K.F.F.F.F.F.F.F.F.K.K.K.K.K.K.K.U.U.U.R.U.U.K.K.K.U.U.U.K.K.K.U.R.U.K.K.U.K.U.U.K.R.U.U.U.U.U.K.F.K.U.K.K.K.K.K.F.K.K.F.K.U.U.K.K.K.K.K.K.F.K.K.F.U.U.K.U.K.K.U.U.U.U.U.U.U.U.U.U.K.K.K.U.K.K.U.U.K.U.U.K.K.S.F.K.F.F.K.U.U.K.K.K.U.K.U.U.U.U.U.U.K.U.U.U.U.U.U.U.U.U.U.U.U.K.U.R.U.U.U.K.K.K.K.K.K.U.U.U.U.U.U.U.U.U.K.U.K.K.K.K.U.K.U.K.U.U.U.K.U.U.K.S.B.F.K.U.U.R.U.U.U.U.U.U.U.U.R.R.R.R.R.R.R.R.U.U.U.U.U.U.U.U.U.U.U.U.U.U.U.U.U.U.U.U.U.U.U.U.R.U.U.R.R.U.U.R.U.U.U.U.U.U.U.U.R.U.U.U.U.U.U.U.U.U.U.R.R.U.U.R.R.U.U.R.R.R.F.k.e.s.8.-.+.-.3.3.3.-.3.;.;.3.-.4.z.F.K.F.F.F.K.K.K.K.U.R.U.U.U.U.F.!.!.F.F.!.R.B.R.U.U.U.R.R.R.R.U.K.K.K.K.K.K.K.K.K.U.K.K.U.K.K.K.U.F.K.U.K.K.K.K.K.K.U.U.K.K.K.K.K.K.K.U.U.U.U.U.K.B.B.K.U.U.U.F.K.F.K.U.K.K.K.U.U.K.K.U.U.K.K.K.K.K.K.K.K.K.K.K.K.K.K.K.K.K.K.U.K.K.K.K.K.U.K.K.K.K.K.F.K.U.K.K.K.F.F.K.K.F.F.K.K.K.K.K.K.K.K.K.K.K.K.K.K.K.K.K.K.K.K.F.F.K.K.K.K.F.K.U.U.U.U.K.F.K.K.K.K.K.K.K.F.F.K.F.F.K.F.K.K.K.K.K.K.U.U.F.K.K.K.K.U.K.S.F.K.F.K.K.S.v.z.4.;.s.v.S.S.(.+.k ",
"Q Q Q J Q I Q 4.4.3.8.e.e.k.v.v.S.F.F.S.S.F.K.U.F.F.U.K.F.U.K.F.U.K.R.U.K.U.K.K.K.U.U.U.U.K.K.U.K.F.K.U.U.U.K.K.K.U.U.U.K.K.K.K.F.S.K.K.S.F.F.F.K.F.F.F.F.K.F.F.K.K.R.U.F.K.F.F.K.K.F.K.K.F.K.K.F.F.F.F.F.F.K.K.K.K.U.R.U.U.R.R.R.U.U.U.K.K.U.(.U.R.U.K.U.K.U.K.K.K.K.K.K.F.F.F.F.K.F.K.K.F.K.K.F.K.U.K.K.K.U.U.K.U.K.U.U.K.K.U.R.R.U.K.U.U.K.K.U.U.U.U.U.U.U.U.K.K.K.K.U.K.F.U.F.F.F.S.S.K.F.S.K.U.K.F.F.F.K.K.K.K.F.F.F.F.F.F.K.K.K.K.K.F.F.F.F.F.S.S.K.U.U.U.U.K.F.F.K.K.U.U.K.F.F.F.F.F.S.S.F.S.F.F.S.K.U.F.R.K.K.U.U.K.K.K.K.B.B.F.K.K.U.U.U.U.U.U.U.U.U.U.K.U.U.U.U.U.U.U.U.U.U.U.U.U.U.U.U.U.U.U.U.U.U.U.U.U.U.U.U.U.U.U.U.K.K.U.U.U.U.U.R.R.R.R.R.R.R.R.R.R.U.U.R.R.R.R.R.U.U.R.R.U.R.R.K.K.F.U.K.K.K.s.y.k.3.#.-.#.;.4.3.-.3.;.-.3.;.;.k.S.K.F.K.K.K.F.F.F.K.U.U.F.K.U.F.F.K.K.U.U.U.R.K.K.K.U.U.U.U.U.U.K.K.U.K.K.U.U.K.K.U.U.U.U.U.K.K.U.F.F.U.K.K.K.K.U.U.U.U.U.K.K.F.K.K.K.K.K.K.F.K.K.B.B.F.S.K.U.B.S.S.F.U.K.K.U.K.F.F.K.K.U.K.K.U.K.K.K.K.U.K.K.K.K.K.K.K.K.K.K.U.K.K.K.K.K.U.K.K.K.K.F.F.K.U.U.K.F.F.F.K.K.K.K.K.K.K.K.K.K.K.K.K.K.K.F.F.F.F.F.K.K.K.K.F.F.K.K.F.S.B.S.F.K.K.F.K.F.K.U.K.K.K.K.K.F.K.K.K.K.K.F.F.S.B.B.B.B.B.S.F.K.U.F.B.B.K.U.K.U.F.U.U.F.S.S.S.4.;.8.z.F. X..k ",
"J I Q J Q Q I 3.3.-.3.4.4.y.z.k.z.v.v.v.v.B.S.S.F.K.R.K.F.K.K.K.K.S.F.S.S.F.S.v.B.B.B.S.F.F.F.S.F.F.F.K.K.K.K.U.K.U.U.U.F.S.F.K.F.B.F.F.B.F.K.F.F.F.K.F.F.F.S.B.S.S.U.K.S.S.S.B.F.S.S.S.S.S.S.S.K.F.F.F.F.F.K.K.U.K.U.R.K.F.F.F.K.K.R.!.R.K.U.!.F.U.U.K.U.U.U.U.K.K.K.U.R.R.U.K.K.K.F.U.U.F.U.U.K.K.F.S.F.K.K.K.S.K.K.U.U.K.F.K.U.U.K.F.K.K.K.K.U.K.K.K.K.K.K.U.R.R.U.R.U.K.F.K.F.K.K.F.F.K.K.F.K.F.F.K.F.S.S.F.K.K.K.F.K.K.K.K.U.U.U.U.U.K.K.F.K.K.F.F.U.R.U.U.F.F.S.F.F.K.U.U.U.U.K.U.K.K.F.F.F.B.K.F.S.R.U.F.K.F.F.K.U.R.!.R.U.S.F.R.U.K.R.R.R.U.K.K.U.U.U.U.U.U.R.R.R.R.R.R.R.R.R.R.R.R.R.U.R.R.R.R.R.R.R.R.U.U.U.U.U.U.U.U.R.R.R.R.R.R.R.R.U.U.U.U.U.U.R.R.U.U.U.U.U.U.U.U.U.U.U.R.U.U.U.U.U.U.F.R.U.U.U.k.e.y.-.#.#...-.8.3.;.3.-.#.-.-.#.8.z.B.B.S.S.F.S.F.S.S.K.K.F.K.R.K.K.K.F.F.S.F.U.K.U.U.U.R.R.U.U.U.U.U.U.K.K.U.U.K.K.U.K.K.K.K.U.K.U.K.K.U.U.F.K.K.K.K.K.K.K.K.K.K.U.R.U.K.K.K.K.K.U.v.v.B.k.S.R.v.B.v.F.K.F.K.U.F.S.S.F.K.K.K.K.U.U.K.K.K.U.K.K.U.K.K.U.U.K.K.K.K.K.K.K.F.K.K.K.K.K.K.K.F.K.U.K.v.B.S.S.S.S.S.S.S.S.S.F.F.F.F.F.K.K.K.F.F.F.F.F.S.S.F.F.S.S.F.S.B.B.B.B.S.S.F.F.B.B.F.F.S.S.S.S.F.S.S.F.S.S.S.B.z.y.8.8.8.4.8.e.4.3.e.B.F.F.S.B.k.s.4.4.8.4.3.3.4.#.] ..4.k.!.( d ",
"Q J Q J I I I -.4.4.8.8.8.y.k.s.k.z.z.z.v.S.S.S.F.K.F.B.B.B.S.S.z.z.B.B.v.v.k.s.z.z.v.S.F.K.K.U.U.U.K.K.U.U.F.K.F.K.K.F.S.S.S.F.K.S.K.K.S.F.K.F.K.U.U.K.F.K.K.K.K.K.R.K.F.F.F.S.U.K.K.U.U.K.K.K.U.K.K.F.K.U.U.R.R.U.U.K.F.F.K.U.K.F.F.U.U.F.K.U.F.K.K.K.K.K.F.F.U.U.U.K.F.F.F.F.F.S.B.F.K.F.K.K.S.S.B.B.S.K.K.K.S.F.U.U.U.U.U.U.U.U.K.K.K.K.K.U.R.U.U.U.K.K.U.R.K.F.S.F.F.B.B.S.S.K.K.F.S.F.F.F.F.S.F.U.U.F.S.S.F.F.S.S.F.F.S.F.F.K.K.K.F.F.S.S.F.K.F.F.F.F.S.S.F.S.S.F.F.K.K.K.S.S.S.S.F.F.S.S.K.F.U.K.F.!.R.K.!.!.!.U.K.K.K.S.S.v.S.U.K.F.K.K.R.U.K.K.U.U.U.K.K.K.K.U.U.U.U.K.U.U.K.K.K.K.K.K.K.K.K.U.K.K.K.K.U.U.U.U.U.U.U.U.U.K.K.U.U.K.K.K.K.K.K.K.U.U.U.U.U.U.R.R.U.K.K.U.R.U.U.U.U.K.K.K.R.U.S.K.K.K.F.e.8.3.#.#...] ;.8.3.;.;.#...+.+...3.k.v.S.F.K.U.U.U.F.S.K.U.U.U.R.K.U.K.S.S.U.R.K.K.K.U.R.U.U.U.U.R.R.R.U.K.K.K.K.F.F.K.K.K.F.F.K.K.K.K.K.K.K.F.K.F.F.F.K.K.K.K.K.F.F.F.S.S.S.F.K.F.F.e.8.y.y.v.F.v.v.z.S.F.S.F.K.F.S.B.B.S.F.K.F.K.K.K.F.F.F.F.F.F.F.F.F.F.S.S.S.F.S.F.F.S.S.F.S.S.S.F.F.S.F.S.B.z.z.z.z.z.z.z.z.z.z.z.z.v.v.v.v.k.k.k.s.s.k.k.s.s.y.y.y.y.y.s.y.e.y.s.s.k.k.k.k.k.k.v.B.v.z.v.v.s.s.s.s.y.y.y.e.4.-.#.#.#.+.+.+.#.+.3.y.s.4.-.+.-.#.] ..+.+.+.+...#.( / #.4.v.J z ",
"( J I Q Q C m J #.3.3.;.;.3.3.;.4.4.4.8.y.s.k.k.k.k.s.s.k.k.s.y.8.e.v.v.z.k.y.y.y.s.k.z.k.z.B.F.K.!.R.U.K.F.S.S.S.F.F.S.F.K.K.F.v.v.F.F.S.F.S.v.S.S.S.B.B.S.F.F.K.F.F.B.B.S.S.S.S.B.S.S.S.B.B.B.B.B.v.B.B.S.F.F.S.S.S.B.v.B.B.v.v.B.B.S.B.z.B.K.R.F.K.K.F.K.F.F.S.F.F.F.K.K.K.F.S.S.B.S.F.S.F.F.S.F.S.B.B.B.B.v.F.B.S.B.v.B.B.B.B.B.B.v.B.S.S.F.K.K.K.F.F.F.K.K.R.K.F.K.U.K.F.U.F.K.F.F.S.S.F.K.F.F.F.F.F.K.K.K.K.K.K.K.U.K.K.K.K.K.U.K.K.K.F.F.F.K.K.K.K.K.F.F.F.F.F.F.F.K.K.F.F.F.F.K.K.K.K.K.K.F.U.U.K.U.U.K.F.K.U.U.K.R.R.K.S.B.F.R.U.K.U.U.U.U.K.K.K.U.U.K.U.U.U.U.R.R.R.R.R.R.R.R.R.R.R.R.U.R.R.R.R.R.R.R.R.R.R.R.R.R.R.R.R.R.U.R.U.U.K.U.K.K.K.K.U.U.U.U.U.R.R.!.U.K.K.U.R.R.R.R.U.K.K.U.!.!.K.U.R.U.F.y.e.;.;.-.] ..;.4.3.3.;.#...+...] ..;.8.s.z.z.S.F.U.K.F.F.K.K.F.S.v.z.z.z.v.S.F.K.K.K.K.K.K.K.K.K.U.U.U.K.S.B.B.v.B.B.B.S.S.S.B.B.B.B.S.B.B.S.B.S.S.S.S.S.S.S.S.S.S.B.v.z.z.z.B.F.B.B.;.+.8.s.z.k.e.y.y.k.v.v.v.B.z.k.k.k.k.z.z.z.z.z.z.z.z.z.z.z.z.k.k.k.k.s.s.s.k.s.k.k.s.s.k.s.s.k.k.k.s.s.s.e.3.-.+.+.#.#.#.+.#.#.#.#.#.#.#.#.#.#.#.#.#.#.#.+.+.+.+.+.+.+.#.+.+.+.+.-.3.3.;.-.+.#.;.3.;.;.;.;.;.-.-.-.#.#.-.#...] ] ......] ] ( ..#.#.] ] ..+.] ] ( ] +.....+.+.#.Q J ( ( +.t k ",
"] Q I / ( N 6 3 G +.#.......+.] ..] ] ..+.#.-.-.#.-.+.#.;.#.+...] ..3.4.3.3.;.-.;.3.3.3.;.;.4.e.e.v.B.s.e.8.8.y.s.z.z.z.B.F.S.z.e.s.S.S.B.S.v.v.B.B.B.v.B.S.B.v.z.s.s.y.s.B.S.B.B.S.F.F.F.F.S.S.B.v.v.v.B.S.S.B.B.S.S.v.k.k.y.4.-.e.v.v.y.4.8.k.S.y.y.k.z.F.U.U.R.R.U.K.F.v.y.4.3.4.3.3.3.;.4.4.;.3.3.4.e.z.S.S.z.3.3.3.;.;.;.;.-.-.-.;.4.8.y.z.S.F.K.K.K.U.U.K.K.S.B.B.S.S.S.F.F.F.F.K.K.F.K.K.B.B.B.B.S.F.K.K.F.F.F.F.K.K.F.F.F.F.F.F.F.F.S.S.S.F.F.F.F.F.F.F.F.F.F.F.F.F.F.S.F.S.S.K.K.K.F.F.S.K.K.K.F.F.U.U.F.K.U.U.U.R.U.F.v.B.F.U.U.K.K.K.K.U.K.K.K.U.U.U.K.K.K.K.U.U.U.U.U.U.U.K.K.K.K.K.K.K.K.U.K.K.K.K.K.K.K.K.K.K.K.K.U.U.U.U.U.K.K.K.U.U.U.U.U.U.U.U.U.K.U.U.K.F.F.K.R.R.R.R.U.K.K.U.U.R.K.F.U.K.z.e.e.;.3.-.] +.;.4.4.8.3.-.#.+...] ( +.#.-.;.3.y.z.B.S.B.v.v.B.B.z.v.v.v.z.z.v.v.v.B.B.S.S.B.B.B.B.B.B.B.v.s.y.y.e.e.8.8.e.e.y.y.y.y.8.s.y.e.y.y.8.y.y.y.y.e.e.8.8.8.;.-.-.;.-.;.3.#.+.J G +.3.+.] ..#.#.3.8.8.e.e.3.3.4.4.3.;.;.;.;.3.3.4.4.4.4.3.3.;.;.;.;.-.-.;.;.-.;.;.-.-.;.-.-.-.;.-.#.-.-.+.] ( / / ( ( ( ( ] ( ( ( ( ( ( ( ( ] ] ( ( ] ( / / / / ( / Q / ( ( ( ( ] +.#.+.] ( ( ..+.+...+...........] ] ....( ] ] ] ] ] ] ..] ..+.........] ] ] Q / ] ] +.-./ ..] ( ( Q / 0 m ",
"( ..Q I ( C 3 X * N G C G G J G J G C C C C C J J I N C C m m C z z C J I Q I G J J J J I I I I Q +.+./ / / / ] ..+.#.#.3.e.4.#./ +.4.4.3.3.-.;.3.4.8.e.y.e.3.+.] ( ( ] #.8.e.8.3.8.e.e.e.y.y.e.y.e.e.e.y.y.e.8.8.e.e.4.3.4.3.#...-.3.;.+.] #.4.e.] ] +.#.8.s.k.k.z.z.y.3.#.] / I / / / Q Q ( ( / Q J J ] 3.e.e.e./ Q ( / ( ( / ( ( / ( ] ..#.3.e.k.v.v.B.S.S.B.B.v.k.s.z.v.z.v.z.z.z.F.K.B.S.S.y.y.z.S.F.S.B.B.S.F.S.F.K.K.F.F.F.F.F.F.F.F.F.F.K.K.F.F.F.F.F.F.F.F.F.S.F.F.F.S.B.v.v.S.F.S.S.S.S.U.K.U.U.F.R.!.K.F.K.U.U.U.K.S.v.S.K.U.U.U.K.K.K.K.K.K.K.U.U.U.K.K.K.U.U.U.U.R.R.R.R.R.R.U.U.U.R.R.R.R.R.R.R.R.R.R.R.R.R.R.R.R.R.U.U.R.R.U.U.U.U.U.U.U.U.K.K.K.R.U.U.U.U.K.K.U.U.U.U.K.K.F.K.K.U.R.U.F.K.F.s.e.4.+.;.+.] -.;.8.4.e.3.;.-.+...] ] ] / / / ( -.e.e.k.s.y.y.z.v.z.z.y.e.s.k.y.e.y.e.y.y.y.e.e.e.e.e.e.e.8.3.;.;.#.+.] ( ] ..+.#.#.;.+.;.;.#.-.#.] +.+.+.+...( / Q / J J Q ( / Q / C m k C ....G G I / / ] +.+.+...( ..#.#.+.] ] ] ] ] ] ..+.+.....] ] ] ] ..] ] ] ] ] ] ] ( ( ] ] ( ( ( Q Q / ( / / ( ....] ] ] ....] ] ( ( ( ( ( ( ] ] ( ( ] ( / / / ( ( Q Q / ( ( ] ( ( ( ......] ] +.#.#.+.+.....] ] ] ( ] ....] ....] / / ] ..-.#.;.;.+.] ( ( / Q I / ....+.+.#.] ( / / ] ..u m ",
"] +.Q ] ( N d , $ , 6 0 t u t t u t 0 3 , 3 6 u k k 6 0 t 3 6 t 3 , 0 u u z k t t u u u u u u u u m C G G G C G N G J I / / / Q G G G G C G J G G G J I I J N t 0 m Q ] ( Q C m m m G J G J I I I I Q Q I J I / / / / Q Q ( ] ] / Q ..Q J ] ..+.+...( ( ( ( / / Q ] ] / I J Q ( ] / Q I I I / ] ( ( / Q Q / / Q Q Q / / / / / / ( / / ( ( / ( ..#.#.-.;.;.3.3.3.3...Q ( 3.s.B.S.S.8.;.y.v.z.s.s.#.( ] 8.k.z.z.B.S.s.s.z.k.z.z.z.z.z.v.v.z.v.v.v.B.v.v.k.v.B.v.B.v.S.B.v.v.v.z.k.s.e.e.s.k.z.v.B.v.z.v.S.B.v.S.F.k.e.k.F.K.K.K.S.B.F.S.S.B.B.F.S.F.B.v.v.v.B.B.v.B.B.F.K.K.K.U.U.U.K.K.K.U.U.K.K.U.U.U.U.U.R.U.U.U.U.U.U.U.U.U.R.U.U.K.K.K.K.K.K.K.U.U.K.F.K.K.F.K.K.K.K.F.F.F.K.K.K.F.K.K.K.F.K.K.U.!.U.F.B.y.e.;.+.....] -.4.3.8.4.;.;.;.#.+.+.] ( Q I G I ( ..#.8.k.8.-.3.4.;.#.+...+.-.;.-.#.+.#.-.-.#.+.+.+.#.-.;.;.-.#.+.../ I J I / / ( ] ] ..+...+.#./ G / ( ( I J J J I / I I / ( ( ( ] J G I ] +.+.../ ] ( Q ] #.+.] / G ] #.#...( ( ] ../ / ( ( / / ( / ( ( ( ] ( / ] ] ] ] ( / / ( ] ( I J J I / ( ( / Q I I Q I Q Q / Q Q Q Q Q Q / / ( ( ( ( ( ( / Q / ( ( ( / / ( ( ] ] ( ( ..+...../ ] +...] ] ] ] ] ] ] ..+.+.+.......] ( / ( ] +...+.#.+.] ( ] ] / / ..-.-.-.-.#.] Q I / ..-.t d ",
"Q ..] +./ z k u 3 6 0 t t t t 0 u 0 * $ X X 3 d m k , 3 t 6 6 3 X O 3 0 t u 0 6 t t t t t t u u z N G G G C C C C G G Q Q J Q Q J J G C N G J G I J J J I I C k t N / ..../ G k G C C G G J I J I J I I I I Q / ..] ( / / ] ..] / Q ../ I ......] ( ( ( ] ] ] ] ] ] Q / ( / ( ( ( Q J J G J Q ( / / / / / Q Q Q / / ( ( ( / / ( ( ] ] ] ( ( ( ( +.....+.+.#.-.#.#.Q N N I ] +.#...G m I +.#.../ G J Q ( ..#.;.;.#./ / ( ] ..] ..+.] ..+.+.+.+.#.#.#.+.] +.;.;.;.3.3.-.+.#.+.] ..] ..#.;.3.3.;.;.3.-.-.4.4.4.e.8.-.+.-.8.8.8.8.4.;.3.;.;.;.3.e.y.y.e.y.s.y.e.e.y.e.8.e.e.e.y.y.y.s.y.y.y.y.e.e.e.y.y.y.e.e.e.y.e.y.y.s.s.y.y.y.s.y.y.y.y.y.y.y.y.k.B.K.K.F.F.F.S.B.B.v.z.z.z.k.k.s.s.s.s.s.s.y.s.y.s.k.s.y.e.3.;.+.] ] ] ] ;.4.;.3.;.-.;.3.-.+.......] ( Q / ( ] Q ( ..] / ( ] ( ] ( ( ] ..+.+...] ..] ] ] ] ] ] ( ..#.#.#.+.....] / / ( ] ] ] ] ] ..+.....+./ J ( ] ( / Q I ( #.#.#.Q Q Q G / ] Q I / ..+.#.-.+.....] +.-.#...] Q ( ......] ] ..#.] ( ( / Q Q / / ( ( ( ] ] ] ] ] ( ( ( ( ( ( ] ] / Q / / ] ....] ( ( / Q Q / ( ( / Q Q / / ( ( ( ( ] ( ( ( / Q Q / ( ] ] ( ( ] / ( ( / ( ..+.+...( ] +.+.] ] ] ( ( ] +.#.-.#.#.] ] ] ] ( / / ( ( ( ..+.+.] ( ( / Q / ..#.-.-.;.;.#.+...#.;.3.u z ",
"/ ] ] ..( C z z z z k k k k d d u 0 * $ O $ u z t d 0 0 0 3 6 t O * 3 0 d d t d m m z k k z N C C G J G J G G G J z u G / I / I Q I J G C G I I Q I J I / ] / I I Q ( ( ( ( Q J G I Q I I I I I J J J I Q / ( ] ..] ( / ( ..+...] ( ..( ( +...( ] ] ( ] ] ] ] ] ] ( Q ( ] ( ] ....] / / Q / ( ..] ] ..+...( ( ( ( ] ] ....] ] ] / ] ] ( ( ] ....] ] ] ........] / J G G I I G C G G G J J G G J G J I G C G I J I m m C J I I I G z N J J N d u d d d 0 d C C N G / ( J G N d k N G I Q Q I I J N z z J ( ..+...( ( ..#.+.+.#.+.+...Q J J I ] +.#.+.+.-.#.+.#.+.;.-.-.-.#.-.-.-.;.;.-.-.-.-.-.-.-.-.-.#.+.+.+.#.#.-.-.-.-.#.#.-.#.#.#.#.-.-.-.-.#.;.4.4.3.3.3.3.;.;.-.-.-.-.#.#.#.#.+.+.#.+.+.#.-.#.-.#.-.-.+...( ] ..] ] -.3.-.......-.3.;.+.....] ....] ] ] ] ..( ] ..] ] ....] ] ] ] ] ........] ( ( ( ] ] ] ] ..#.#.../ Q Q ( ( ( ( ] ] ] ] ....#.+...+.] ( ( ..( ] ] / #.e.y.y./ Q Q C ] ] ( ( ] +.+.-.;.-.#.-.+.#.-.#.#.#.....] ......] +...] ....( / ( ] ( / / ( ( ] ..] ] / / / ( ] ] ] ] ( ( ] ( ] ....] ] ] ( / ( ] +...] / / / ( ( ( ] ] ....] ( / Q Q ( ] ....] ] ] ( ( ( ( ( ] +.+...( ( ....] ] ( ....+.#.-.#...( / / ( ( ( / / / Q / ( ..] ( / Q / ( ..+.+.......+.+.+.+.;.3.;.u m ",
"] ( ( ] ] Q C C J J G G C C C C C m u 3 , 6 u u d m z z m z z k , * 3 u m N m N G C C m m N G G N C C C C C C C J z d I / I ..( / Q I J J I / Q I I J I ( ..] ] ] ....] ] ] ] ( ( ....] ] / J G Q I Q ( ] ] ] ..] ] ( ] ..#.#.#.....+.....#...( ......] ] ( / ( / ] ] ....( ] +...........] ..+.......+.+.......] ..+.#.#.+.+.+.] ..] ( / ] ..+.......+.+.+...] / I G G G G G G G J J J J G G J I J I J G J I Q I C N C J Q I Q / G I ( / G k u d k k d z G C C J ] ] C C G m C C J Q I I Q Q I C N m J ( ] ..] Q / ] ..( ] ..] ( Q G J Q ( #.;.#.#.#.+.+.-.;.+.#.#.-.;.#.+.#.-.#.#.#.#.#.#.-.;.-.-.-.#.....+.+.+.#.-.-.#.+.+.+.+.+.+.+.#.#.-.-.-.-.-.#.#.-.-.#.#.#.#.#.#.#.#.+.....] ] ] ] ] #.#.+...] ..#...] / ( ....( ..#.+.( ( ] +.;.;.+...] ( ] ..] ] ..] ] / / ] ] ( ( ] ] ] ] ( ( ( ( ( ( / Q Q / / / / / ( ] ] ( Q I Q / / / Q / ( ] ] ..] ] ( ( ( / ( / ..] #.#.( -.y.e.;.G J I J ../ ( ( ..#.#.#.#.+.#.-.+.+.#.#.-.-.#.+.] ] +.+.....] +.#.../ Q ( ] ] / / ( / ] ..( / Q I / ] ..] ( ] ( ( ] ( ] ] ] ] ] ........#.-.+.] / / / ( ( / ( ..+.+...( Q I Q / ] ..........( ( ( ] ] ] ..+.] / / ( ( / / / ( ] ..#.#.+.] / / / / / ( ( / / Q / / / / / Q Q / ( ] ] ( / / / / ( / / ....+.0 z ",
"/ ( ] ] ] ] Q Q Q Q Q I I I I I G N N u t u t u N G C N C N m k 6 $ , k G Q Q I Q Q Q Q / / / Q Q / Q Q / / Q / Q G m Q / Q ..( ] ( / / / ( ] ( / ( / / ..+...] ] ] ......] ] ] ] ] / ( #.-.../ ] ] ] +.+.+...] ......+.#.-.#.#.+.+.#.+.+.#...] ........] ( ( ] ] +...+.#.+.....] ..+.+.+...+.+.+.+.+.+.+.#.+.+.....+.#.-.#.+.+.+...] ....] ..+.-.+.+.+.+.#.#...] / J C C C G G J G G J I I J G I J I Q Q Q ( ( Q J J G I I I Q / J I Q Q I C N m m N N C G C G I ( Q C Q / G J N J Q Q I Q / Q I J G I / / ( / I / ( / / / ( ( ( Q I / ] ( ] ] / ] +.+...+.-.#...+.-.;.#.+.+.#...+.#.+.+.#.-.;.-.-.-.#.+.+...+.+.#.-.-.#.+.+.#.#.#.#.+.#.-.-.-.#.+.+.+.#.#.#.+.+.+.#.+.+.+.....] ] ( ( ( ( ] +.#.+...] ..+.+.] / / ( ( ( ] ] ] ..] ] ..#.#...] ] ] ....] ] ] ( ( I I / / / / ( / / Q Q Q Q I I I I I I Q Q Q Q I I Q Q Q I I Q I Q Q I Q / / / ( Q Q I I I J Q I ] ] #.#.] -.3.+.I C J J Q ..I / I / ..+...+.+.+.+.............( ] ( / ] +.] ( ( ( ( Q J Q ] ..( / / / Q ( ] ( Q J J / ] ] ( / ( / / ( ( ( ] ( Q / / / ( ( ( ] ( ( / Q Q / / / / ( ....] / Q I I Q / ( ( ] ] ] / / ( ] ] ( ( ] / Q I I Q Q I I Q / ] ......] ( / / / / / ( / / Q / / Q Q / ( ( / Q Q I Q / / ( / ( / I / / ] 0 k ",
"Q ( ] ( ] ] / / Q Q Q Q Q / / Q Q J / J m t $ 0 Q ( ] I C N C C k , 6 z J ..+...] ] ] ] ] ....] ( ] ] ] ] ] ( ] ../ G / ( ( ..Q ..] ] ] ] ..+...........#.#.....+.+...] ] ] ..+.+...] +.;.;.+.( ] ....+.#.+.....] ..+.-.-.#.#.#.#.#.-.#.#.#.+.+.+.+.#.#.+.......#.-.#.-.-.+...] ..+.#.#.#.#.#.-.#.-.-.#.-.;.-.+.+.+.#.#.#.#.+.+...] ..-.-.+.] ..-.#.#.#.#.#.#...( / / Q Q J G C I I I Q I J J I I Q ( / Q Q / Q Q I I J I Q I / ( Q Q Q Q / I J G G J J G G C G / ] / ] #.] Q / I / ] ( ( ] ] ( Q / Q / ( / ( ( Q / / Q Q / / / J G G Q ( ( ] ] ( ( ] #.-.#.+.#.+...+.-.-.#.#.+...+.#.+...+.#.-.-.-.-.#.+.+.....+.+.#.#.#.....+.+.+.+...+.#.#.#.+.+.+.+.+.+.+.+.+.+.#.#.+.+.+.+.#.+...+.+.....-.+.+.....+.+.+.] ( / Q / ] ] ] ( ....] ] ....( ( ] ] ..+...] ] ( / I I I I I I I Q I I I I I I J I I I I Q Q Q I I I I Q I I I I I I I I I Q Q I Q G G G J I J Q I / ( ....( +.+.Q C J / I / ] I Q J Q ] ..#.;.3.;.-.] / ( ( ( ( Q / / Q ( ..( Q I J J I I ( ] ( Q / / I J Q ( / Q I I / ( ( Q Q / Q Q Q Q / / Q / / / / ( ( ( / Q Q Q Q Q Q / / Q / / / Q I I Q Q I I I I Q Q Q I Q / ( ( / / / Q Q J J Q Q I Q / / ( ( ( ( / / ( / / / ( ( ( ( ( ( ] ( ( ] ] ....( / / ( ( / / ( ] ( / / / ..u k ",
"Q / ( ( ] ( Q I Q Q Q / ( ] ] ( Q J / / J d , z ( ( / C z m N C C u u k G ( ..+.....] ] ] ..+.+.] ] ] ] ..] ] ....+.....] ( ..+.+.......+.+.+.....] ] +.+.+.+...+.+.+.#.+.+.....] ] ..-.;.-.-.#.] ..+.+.+.+.........+.-.-.#.#.#.-.;.;.;.;.-.-.-.-.-.-.-.-.#.#.#.-.;.-.;.-.....+...+.#.#.#.#.#.-.#.#.#.-.-.-.#.+.+.+.#.#.#.+.....+...#.;.-.] / / +...#.-.#.#.+...( ( / / / Q I J J J J I I I I Q I / ( / Q / / Q I Q Q I Q / Q ( ] / ( ( ( ( Q I Q / ( Q Q I J I ] +.( ( ( I ( ..] ....] ( ......( ..( ( ( Q Q / Q / / Q Q / / / / Q I / ( ] +.#...( Q ] ;.-...+.#.+.#.-.;.;.-.#.#.-.-.#...+.#.-.-.-.#.+.+.+.+.+.+.+.+.#.+.....+...+.+...+.#.#.+.#.-.-.#.+.+.#.#.+.+.+.+.#.#.#.#.#.+.+.#.#.+.+.-.+.#.+.+.#.#.-.....] / / ..+...........] ....] ..] ..+.#.+.....] ] / / / Q I I I I I I I I Q I I I I I I I Q Q Q I Q / / / / / / Q Q I I I I I J G C G G J I I Q I J Q ( Q Q / / G G I Q I Q / Q / Q / ( ] 3.s.z.s.e.+.( ( ( ] ] Q / Q Q ( ] / I Q Q Q / / / / Q Q ] ( Q J Q / ( / / / ] ] / Q Q ( ( ( / Q Q / Q Q / Q Q Q / / / / / / / / / / Q Q Q / / Q Q Q Q / / Q Q Q Q I I I Q / ( / / / / / / Q Q ( ( / ( / / ( ( ( ] ] ] ] ] ] ] ........] ..+.+.........#.+.+.#.+.] / / ............-.d z ",
"J / ( ] ] / Q Q / Q Q / ..+...] / / I J C u 6 N ( / Q N d k N C G N N C I Q Q ( / ( ] ] ] ] ( / ( ] ] ] ] ] ] ......] ] ....] ..#.......+.+.+...+.] ..+...+.+.+.+.....+.+.+.+.#.+.( ] +.+.#.-.-.+.+.+.+.+.+.+.+.#.+.#.-.-.#.#.#.;.3.3.3.3.;.;.;.-.-.;.;.;.-.-.;.;.-.#.;.;.+...#...#.-.;.-.#.#.#.#.#.#.-.-.#.+.#.#.#.#.#.#.+.+.......+.#.+.( / / +.....+...+.+.../ / ( ( ] ( Q I I Q / / / / / / ] / / / Q / / Q / / / I / ( / ] ../ ( ] ] ] / Q Q ( ..( ( ( Q Q ( #.( ( ( ( +.] ] ....] ] ..+...] +.] ( ( / / ( / ( ( / ( ( ( ] ( ] ] ....] +.+...] Q Q #.-.#.-.#.+.-.;.;.;.;.;.#.;.;.#.+.+.-.;.-.#.+.....+.+.+.+.....+.+.....+.+.#.#.+.+.-.-.#.+.+.#.#.+.+...+.+.+.....+.+.+.+.#.#.#.;.3.-.#.;.#.;.#.-.-.-.;.+.+.#.+.] +.#.#.#.+.#.#.#.#.+.+.+.+.#.-.-.+.+.+.....] ] ..] / / Q / / ( ( ( ( ( ( / / Q Q / / / / / ] ..] ( ( ( ( / Q I I I Q I I Q I Q Q Q / Q / Q G Q / J J I I J I I I Q I Q / / ( ] ( ] 8.v.S.B.z.3.+.....+.../ / Q Q ( ( / Q Q / ( / I Q ( ] ] #.+./ Q Q / ( ] ( ] ..] / / ( ] ] ..] / ( ] ( ( ( / Q Q / / / / ( ( / ( ( ( / / / ( ] ( / / / ( ( ( ..+...( / I / ( ( ( ] ] ( ] ] ( ( +.+.......................+.+.+.+.#.#.+.....+.#.+.+.+.#.#.+.+.#.+.....+.-.#.-.-.#.#.3.k m ",
"Q ( ] ] ] ] / / ( ] ( ( ..+.../ Q ( +.I m k 6 0 G / ..J z C G C J G J I J J J J Q Q / / ( / / / / / / / / / / / ( / ( / / ] / ] ( ..+.........+...+.+.+.+.+.+.+.+...] ......+.+.+.-.#.+.#.+.] ..+...+.#.+.+.#.-.-.-.-.#.+...+.-.;.8.3.3.4.-.;.3.-.-.;.;.3.3.;.#.#.-.#.;.;.#.#.#.+.-.-.-.#.+.-.#.+.+.#.;.;.#.+.+.#.-.-.-.-.-.+...+.......] ......] +...+.+.#.+.] / ( ( ( ( ( / ( ] ] ] ] ] ] ] ] ] ....( / / / ( ] ( / / ] ] ( ( ( ( ( ( ....] ] ( ( ..] ( ..] ( ] ] ] +.( ..#.( ] ] ..............+.] ..] / ( ] ] ( ( ] ..] ....+.] / ( ..#.;.;.-.#./ ] -.-.;.4.;.-.;.3.3.3.3.3.;.-.;.;.-.-.;.-.#.;.-.#.#.#.#.#.+.+.#.#.#.+.#.-.-.-.#.#.-.-.;.-.-.-.#.#.+.+.+.#.+.#.#.#.+.#.#.#.-.#.#.-.3.;.-.3.-.-.-.-.-.;.;.-.-.#.#.;.-.#.-.;.;.;.3.;.;.-.-.-.-.-.;.-.#.+.#.+.+.+.#.+...............+.+.......] ] ] ] ..........] ..+.+.....] ( ..( / ( / / / / ( ] ( ( ( ( ( / Q / Q Q Q I I / ] I I ] Q / ..( ] ( ( ( ;.k.B.k.B.8.+.+.+.#.+./ ( / ( ] ( / ( ( ( / / / ( ....-.#.#.+.] ] ....+.+.+.+.+...] ] +.+.+.....+.+.+.#.#.+...+.+.] ] ..] ] ] ....] ] ] ] ....] ] ....+.+.+.#.-.-.+.+...] ..] ( ] ......+.+.+.#.+.+.#.-.#.#.#.#.#.#.#.#.#.#.#.#.-.-.#.+.+.....+.#.#.+.+.+.-.#.+.......+.#.+.+.#.#.;.u m ",
"/ ] ] ......( ( ] +...] +...] Q J I ..I m m u u Q ( ] J z N G G J G J I I J I I Q I Q / ( ( / / / / / / / / / / / / ( Q / ( Q ( ( ..+.........+.+.....+.+.+.#.#.#.+.........+.+.+.#.+...#.+...+.-.+.+.+.+.+.+.#.#.#.#.#.+...+.#.;.8.3.3.4.-.-.;.#.-.;.;.3.3.;.#.+.#.#.;.3.-.#.#.+.-.-.#.+.+.-.#.+.+.#.;.;.#.+.+.#.-.-.-.-.-.+...#.#.+.....+.#.+.( ....+.+.#.#...( ( ( ( ] ( ( ] ....+.+.+.....+.+.#.+.] ( ( ( ] ] ] ( ( ] ..] ] ] ] ] ] +.+.......] ..] ( ......+.....#.( ] ../ #.#.#.#.+.....] ..+...+...] ] +.......+.+.+.+.#.-.+.] ..#.-.;.;.+.-...#.;.#.;.8.3.3.4.4.3.3.3.3.;.-.;.;.-.;.;.;.-.3.;.;.;.-.-.-.#.#.-.-.-.#.-.;.;.;.;.-.;.;.3.;.-.-.-.#.#.#.#.#.#.-.-.-.-.-.-.-.-.-.#.-.;.-.-.3.;.;.;.;.;.;.;.;.;.-.;.;.;.;.3.3.4.4.4.4.3.3.;.;.-.-.;.-.#.+.#.+.+.#.#.#.+.+.+.+.#.#.#.#.#.+.+.........+.+.#.#.+.+...+.#.+.+.......+...] ..] ] ( ( ] ..] ] ] ] ] ..] ..] ] ] ( ( ] +.Q Q ..( ( +.( ....( ( -.s.z.k.B.8.+.+.#.-.+.] ] ] ....] ] ] +.+.....+.#.#.-.#.#.-.#.+...+.#.#.#.#.#.#.+.....#.#.#.+.+.#.#.#.#.#.#.+.#.#.+...+.......+.+...........+.+.+.+.#.-.-.#.#.-.;.-.#.;.-.-.#.+.#.-.-.#.-.#.#.#.+.+.#.;.-.-.#.#.-.-.-.#.-.#.#.#.-.-.#.+.+.....+.#.#.+...+.#.#.....+.+...#.+.+.#.#.-.u m "
};
